;FLAVOR:Marlin
;TIME:28887
;Filament used: 15.3984m
;Layer height: 0.12
;MINX:9.335
;MINY:39.335
;MINZ:0.2
;MAXX:210.665
;MAXY:180.665
;MAXZ:12.96
;Generated with Cura_SteamEngine 4.9.0
M140 S60
M105
M190 S60
M104 S200
M105
M109 S200
M82 ;absolute extrusion mode
; Ender 3 Custom Start G-code
G92 E0 ; Reset Extruder
G28G29 ; Home all axes and set bed height
G1 Z2.0 F3000 ; Move Z Axis up little to prevent scratching of Heat Bed
G1 X0.1 Y20 Z0.3 F5000.0 ; Move to start position
G1 X0.1 Y200.0 Z0.3 F1500.0 E15 ; Draw the first line
G1 X0.4 Y200.0 Z0.3 F5000.0 ; Move to side a little
G1 X0.4 Y20 Z0.3 F1500.0 E30 ; Draw the second line
G92 E0 ; Reset Extruder
G1 Z2.0 F3000 ; Move Z Axis up little to prevent scratching of Heat Bed
G1 X5 Y20 Z0.3 F5000.0 ; Move over to prevent blob squish
G92 E0
G92 E0
G1 F1500 E-6.5
;LAYER_COUNT:90
;LAYER:0
M107
;MESH:T41 7in Front left panelV011-Front Panel full.stl
G0 F6000 X20.708 Y174.797 Z0.2
;TYPE:WALL-INNER
G1 F1500 E0
G1 F1200 X20.869 Y174.381 E0.01484
G1 X20.972 Y173.938 E0.02996
G1 X21.001 Y173.374 E0.04875
G1 X20.949 Y172.923 E0.06385
G1 X20.825 Y172.486 E0.07896
G1 X20.648 Y172.084 E0.09356
G1 X20.411 Y171.712 E0.10823
G1 X20.123 Y171.377 E0.12293
G1 X19.788 Y171.089 E0.13762
G1 X19.416 Y170.852 E0.15229
G1 X19.012 Y170.673 E0.16699
G1 X18.587 Y170.556 E0.18165
G1 X18.144 Y170.5 E0.1965
G1 X17.701 Y170.513 E0.21124
G1 X17.261 Y170.589 E0.22609
G1 X16.84 Y170.731 E0.24087
G1 X16.442 Y170.933 E0.25572
G1 X16.078 Y171.193 E0.27059
G1 X15.757 Y171.503 E0.28544
G1 X15.486 Y171.859 E0.30032
G1 X15.271 Y172.249 E0.31513
G1 X15.116 Y172.666 E0.32993
G1 X15.023 Y173.104 E0.34482
G1 X14.998 Y173.551 E0.35971
G1 X15.041 Y174.001 E0.37475
G1 X15.146 Y174.427 E0.38934
G1 X15.314 Y174.84 E0.40417
G1 X15.547 Y175.23 E0.41928
G1 X15.824 Y175.568 E0.43381
G1 X16.155 Y175.868 E0.44867
G1 X16.527 Y176.118 E0.46358
G1 X16.933 Y176.306 E0.47846
G1 X17.358 Y176.433 E0.49321
G1 X17.803 Y176.496 E0.50816
G1 X18.254 Y176.492 E0.52316
G1 X18.688 Y176.422 E0.53778
G1 X19.113 Y176.289 E0.55259
G1 X19.516 Y176.092 E0.56751
G1 X19.883 Y175.838 E0.58236
G1 X20.208 Y175.535 E0.59714
G1 X20.485 Y175.184 E0.61201
G1 X20.708 Y174.797 E0.62686
G0 F6000 X20.346 Y174.624
G1 F1200 X20.486 Y174.263 E0.63974
G1 X20.574 Y173.882 E0.65275
G1 X20.6 Y173.387 E0.66924
G1 X20.555 Y173.001 E0.68216
G1 X20.448 Y172.622 E0.69526
G1 X20.294 Y172.273 E0.70795
G1 X20.089 Y171.951 E0.72064
G1 X19.839 Y171.661 E0.73338
G1 X19.549 Y171.411 E0.74611
G1 X19.227 Y171.206 E0.75881
G1 X18.877 Y171.051 E0.77154
G1 X18.508 Y170.949 E0.78427
G1 X18.125 Y170.901 E0.79711
G1 X17.741 Y170.912 E0.80989
G1 X17.36 Y170.978 E0.82275
G1 X16.995 Y171.101 E0.83556
G1 X16.65 Y171.276 E0.84843
G1 X16.335 Y171.501 E0.8613
G1 X16.057 Y171.77 E0.87417
G1 X15.822 Y172.078 E0.88705
G1 X15.636 Y172.416 E0.89988
G1 X15.501 Y172.778 E0.91273
G1 X15.421 Y173.157 E0.92562
G1 X15.399 Y173.543 E0.93848
G1 X15.436 Y173.934 E0.95154
G1 X15.527 Y174.303 E0.96418
G1 X15.673 Y174.661 E0.97704
G1 X15.875 Y174.999 E0.99014
G1 X16.115 Y175.292 E1.00273
G1 X16.402 Y175.552 E1.01561
G1 X16.724 Y175.768 E1.02851
G1 X17.075 Y175.931 E1.04138
G1 X17.444 Y176.041 E1.05419
G1 X17.829 Y176.096 E1.06712
G1 X18.22 Y176.092 E1.08013
G1 X18.596 Y176.032 E1.09279
G1 X18.964 Y175.916 E1.10563
G1 X19.313 Y175.746 E1.11854
G1 X19.631 Y175.526 E1.1314
G1 X19.913 Y175.263 E1.14423
G1 X20.153 Y174.959 E1.15711
G1 X20.346 Y174.624 E1.16997
G0 F6000 X19.984 Y174.451
;TYPE:WALL-OUTER
G1 F1200 X20.103 Y174.145 E1.18089
G1 X20.176 Y173.826 E1.19177
G1 X20.199 Y173.4 E1.20596
G1 X20.161 Y173.079 E1.21671
G1 X20.071 Y172.758 E1.2278
G1 X19.94 Y172.462 E1.23857
G1 X19.767 Y172.19 E1.24929
G1 X19.555 Y171.945 E1.26006
G1 X19.31 Y171.733 E1.27084
G1 X19.038 Y171.56 E1.28156
G1 X18.742 Y171.429 E1.29233
G1 X18.429 Y171.342 E1.30313
G1 X18.106 Y171.302 E1.31396
G1 X17.781 Y171.311 E1.32477
G1 X17.459 Y171.367 E1.33564
G1 X17.15 Y171.471 E1.34648
G1 X16.858 Y171.619 E1.35737
G1 X16.592 Y171.809 E1.36825
G1 X16.357 Y172.037 E1.37914
G1 X16.158 Y172.297 E1.39003
G1 X16 Y172.583 E1.40089
G1 X15.886 Y172.889 E1.41175
G1 X15.819 Y173.21 E1.42266
G1 X15.8 Y173.536 E1.43352
G1 X15.831 Y173.867 E1.44458
G1 X15.908 Y174.179 E1.45527
G1 X16.032 Y174.482 E1.46616
G1 X16.203 Y174.768 E1.47724
G1 X16.406 Y175.016 E1.4879
G1 X16.649 Y175.236 E1.4988
G1 X16.921 Y175.418 E1.50969
G1 X17.217 Y175.556 E1.52055
G1 X17.53 Y175.649 E1.53141
G1 X17.855 Y175.696 E1.54233
G1 X18.186 Y175.692 E1.55334
G1 X18.504 Y175.642 E1.56405
G1 X18.816 Y175.543 E1.57494
G1 X19.111 Y175.4 E1.58584
G1 X19.379 Y175.214 E1.59669
G1 X19.618 Y174.991 E1.60756
G1 X19.821 Y174.734 E1.61845
G1 X19.984 Y174.451 E1.62932
G0 F6000 X20.38 Y174.641
G1 F1500 E-4.87068
G0 F6000 X20.439 Y173.393
G0 X19.903 Y170.936
G0 X18.744 Y172.392
G0 X18.298 Y76.803
G0 X18.872 Y78.572
G0 X19.636 Y78.017
;TYPE:WALL-INNER
G1 F1500 E1.62932
G1 F1200 X19.986 Y77.751 E1.64394
G1 X20.299 Y77.431 E1.65883
G1 X20.563 Y77.066 E1.67381
G1 X20.77 Y76.657 E1.68905
G1 X20.911 Y76.233 E1.70392
G1 X20.987 Y75.794 E1.71873
G1 X21 Y75.35 E1.73351
G1 X20.941 Y74.897 E1.7487
G1 X20.819 Y74.466 E1.7636
G1 X20.575 Y73.95 E1.78259
G1 X20.293 Y73.563 E1.79851
G1 X19.981 Y73.245 E1.81333
G1 X19.622 Y72.974 E1.82829
G1 X19.235 Y72.763 E1.84295
G1 X18.805 Y72.607 E1.85816
G1 X18.375 Y72.523 E1.87274
G1 X18.059 Y72.499 E1.88328
G1 X17.619 Y72.522 E1.89793
G1 X17.178 Y72.612 E1.9129
G1 X16.758 Y72.767 E1.92779
G1 X16.366 Y72.983 E1.94268
G1 X16.014 Y73.249 E1.95735
G1 X15.701 Y73.569 E1.97224
G1 X15.438 Y73.935 E1.98723
G1 X15.233 Y74.333 E2.00212
G1 X15.09 Y74.76 E2.0171
G1 X15.013 Y75.206 E2.03215
G1 X15 Y75.65 E2.04693
G1 X15.059 Y76.103 E2.06212
G1 X15.179 Y76.527 E2.07678
G1 X15.364 Y76.935 E2.09168
G1 X15.611 Y77.319 E2.10686
G1 X15.911 Y77.655 E2.12184
G1 X16.249 Y77.939 E2.13653
G1 X16.63 Y78.172 E2.15138
G1 X17.046 Y78.346 E2.16638
G1 X17.488 Y78.458 E2.18154
G1 X17.518 Y78.46 E2.18254
G1 X17.934 Y78.501 E2.19645
G1 X18.381 Y78.477 E2.21134
G1 X18.82 Y78.388 E2.22623
G1 X19.243 Y78.233 E2.24122
G1 X19.636 Y78.017 E2.25613
G0 F6000 X19.417 Y77.681
G1 F1200 X19.721 Y77.45 E2.26883
G1 X19.992 Y77.173 E2.28172
G1 X20.22 Y76.857 E2.29468
G1 X20.4 Y76.503 E2.30789
G1 X20.522 Y76.135 E2.32079
G1 X20.588 Y75.754 E2.33365
G1 X20.599 Y75.37 E2.34642
G1 X20.548 Y74.978 E2.35957
G1 X20.443 Y74.607 E2.3724
G1 X20.229 Y74.155 E2.38903
G1 X19.987 Y73.822 E2.40272
G1 X19.716 Y73.546 E2.41559
G1 X19.405 Y73.311 E2.42855
G1 X19.07 Y73.129 E2.44123
G1 X18.698 Y72.994 E2.45439
G1 X18.321 Y72.92 E2.46717
G1 X18.054 Y72.9 E2.47608
G1 X17.67 Y72.92 E2.48887
G1 X17.288 Y72.998 E2.50183
G1 X16.924 Y73.132 E2.51473
G1 X16.584 Y73.319 E2.52764
G1 X16.279 Y73.55 E2.54037
G1 X16.008 Y73.827 E2.55325
G1 X15.78 Y74.144 E2.56624
G1 X15.603 Y74.489 E2.57914
G1 X15.479 Y74.858 E2.59209
G1 X15.412 Y75.246 E2.60518
G1 X15.401 Y75.63 E2.61796
G1 X15.452 Y76.022 E2.63111
G1 X15.556 Y76.389 E2.64379
G1 X15.716 Y76.743 E2.65671
G1 X15.93 Y77.076 E2.66988
G1 X16.19 Y77.367 E2.68286
G1 X16.483 Y77.613 E2.69558
G1 X16.813 Y77.815 E2.70845
G1 X17.173 Y77.966 E2.72144
G1 X17.557 Y78.063 E2.73461
G1 X17.942 Y78.1 E2.74747
G1 X18.33 Y78.079 E2.7604
G1 X18.711 Y78.002 E2.77333
G1 X19.077 Y77.868 E2.78629
G1 X19.417 Y77.681 E2.7992
G0 F6000 X19.198 Y77.345
;TYPE:WALL-OUTER
G1 F1200 X19.456 Y77.149 E2.80997
G1 X19.685 Y76.915 E2.82086
G1 X19.878 Y76.648 E2.83182
G1 X20.03 Y76.349 E2.84298
G1 X20.133 Y76.038 E2.85387
G1 X20.189 Y75.714 E2.86481
G1 X20.198 Y75.39 E2.87559
G1 X20.155 Y75.059 E2.88669
G1 X20.067 Y74.748 E2.89744
G1 X19.883 Y74.36 E2.91172
G1 X19.681 Y74.081 E2.92318
G1 X19.451 Y73.847 E2.93409
G1 X19.188 Y73.648 E2.94506
G1 X18.906 Y73.495 E2.95573
G1 X18.591 Y73.381 E2.96687
G1 X18.267 Y73.317 E2.97786
G1 X18.05 Y73.301 E2.9851
G1 X17.721 Y73.318 E2.99605
G1 X17.398 Y73.384 E3.00702
G1 X17.09 Y73.497 E3.01793
G1 X16.802 Y73.655 E3.02886
G1 X16.544 Y73.851 E3.03963
G1 X16.315 Y74.085 E3.05052
G1 X16.122 Y74.353 E3.06151
G1 X15.973 Y74.645 E3.07241
G1 X15.868 Y74.957 E3.08336
G1 X15.811 Y75.286 E3.09446
G1 X15.802 Y75.61 E3.10524
G1 X15.845 Y75.941 E3.11635
G1 X15.933 Y76.252 E3.1271
G1 X16.068 Y76.552 E3.13804
G1 X16.249 Y76.833 E3.14916
G1 X16.469 Y77.079 E3.16013
G1 X16.717 Y77.287 E3.1709
G1 X16.996 Y77.458 E3.18178
G1 X17.3 Y77.586 E3.19275
G1 X17.625 Y77.668 E3.2039
G1 X17.95 Y77.699 E3.21476
G1 X18.279 Y77.681 E3.22572
G1 X18.602 Y77.616 E3.23668
G1 X18.911 Y77.503 E3.24762
G1 X19.198 Y77.345 E3.25852
G0 F6000 X19.437 Y77.713
G1 F1500 E-3.24148
G0 F6000 X21.177 Y75.813
G0 X19.334 Y75.563
G0 X44.264 Y62.217
G0 X43.865 Y64.037
G0 X46.646 Y63.647
;TYPE:WALL-INNER
G1 F1500 E3.25852
G1 F1200 X47 Y63.465 E3.27176
G1 X47.335 Y63.249 E3.28501
G1 X47.647 Y63.002 E3.29825
G1 X47.934 Y62.721 E3.31161
G1 X48.188 Y62.416 E3.32481
G1 X48.413 Y62.088 E3.33804
G1 X48.606 Y61.736 E3.35139
G1 X48.761 Y61.367 E3.3647
G1 X48.877 Y60.986 E3.37795
G1 X48.956 Y60.597 E3.39115
G1 X48.996 Y60.2 E3.40442
G1 X48.996 Y59.8 E3.41773
G1 X48.956 Y59.403 E3.431
G1 X48.877 Y59.014 E3.4442
G1 X48.761 Y58.633 E3.45745
G1 X48.606 Y58.264 E3.47076
G1 X48.412 Y57.91 E3.48418
G1 X48.166 Y57.556 E3.49852
G1 X47.909 Y57.254 E3.51171
G1 X47.645 Y56.999 E3.52392
G1 X47.305 Y56.73 E3.53834
G1 X46.969 Y56.518 E3.55155
G1 X46.643 Y56.351 E3.56374
G1 X46.24 Y56.195 E3.57811
G1 X45.851 Y56.091 E3.5915
G1 X45.458 Y56.025 E3.60476
G1 X45.08 Y56.003 E3.61735
G1 X45.062 Y56.001 E3.61795
G1 X44.699 Y56.011 E3.63003
G1 X44.306 Y56.061 E3.64321
G1 X43.917 Y56.147 E3.65646
G1 X43.535 Y56.277 E3.66988
G1 X43.145 Y56.455 E3.68414
G1 X42.827 Y56.64 E3.69637
G1 X42.506 Y56.872 E3.70955
G1 X42.205 Y57.135 E3.72284
G1 X41.934 Y57.43 E3.73616
G1 X41.694 Y57.745 E3.74933
G1 X41.485 Y58.087 E3.76267
G1 X41.322 Y58.431 E3.77533
G1 X41.313 Y58.448 E3.77597
G1 X41.176 Y58.823 E3.78924
G1 X41.071 Y59.242 E3.80361
G1 X41.018 Y59.603 E3.81575
G1 X40.998 Y60 E3.82897
G1 X41.018 Y60.399 E3.84226
G1 X41.077 Y60.791 E3.85544
G1 X41.176 Y61.18 E3.86879
G1 X41.314 Y61.557 E3.88214
G1 X41.503 Y61.944 E3.89647
G1 X41.696 Y62.255 E3.90864
G1 X41.934 Y62.571 E3.9218
G1 X42.208 Y62.865 E3.93517
G1 X42.505 Y63.127 E3.94834
G1 X42.827 Y63.36 E3.96156
G1 X43.173 Y63.56 E3.97485
G1 X43.539 Y63.725 E3.9882
G1 X43.917 Y63.853 E4.00148
G1 X44.305 Y63.939 E4.0147
G1 X44.701 Y63.99 E4.02798
G1 X45.102 Y63.999 E4.04132
G1 X45.497 Y63.969 E4.05449
G1 X45.889 Y63.902 E4.06772
G1 X46.275 Y63.794 E4.08105
G1 X46.646 Y63.647 E4.09432
G0 F6000 X46.481 Y63.282
G1 F1200 X46.8 Y63.118 E4.10625
G1 X47.102 Y62.923 E4.11821
G1 X47.382 Y62.701 E4.13009
G1 X47.64 Y62.449 E4.14209
G1 X47.869 Y62.174 E4.15399
G1 X48.072 Y61.878 E4.16593
G1 X48.245 Y61.562 E4.17791
G1 X48.384 Y61.231 E4.18985
G1 X48.489 Y60.888 E4.20178
G1 X48.56 Y60.537 E4.21369
G1 X48.596 Y60.18 E4.22563
G1 X48.596 Y59.82 E4.2376
G1 X48.56 Y59.463 E4.24954
G1 X48.489 Y59.112 E4.26145
G1 X48.384 Y58.769 E4.27338
G1 X48.245 Y58.438 E4.28532
G1 X48.071 Y58.121 E4.29735
G1 X47.849 Y57.8 E4.31033
G1 X47.617 Y57.528 E4.32222
G1 X47.381 Y57.3 E4.33313
G1 X47.074 Y57.057 E4.34615
G1 X46.771 Y56.866 E4.35807
G1 X46.479 Y56.717 E4.36897
G1 X46.115 Y56.576 E4.38195
G1 X45.766 Y56.482 E4.39398
G1 X45.413 Y56.423 E4.40588
G1 X45.055 Y56.401 E4.41781
G1 X44.73 Y56.41 E4.42862
G1 X44.375 Y56.455 E4.44052
G1 X44.025 Y56.533 E4.45245
G1 X43.683 Y56.649 E4.46446
G1 X43.329 Y56.811 E4.47741
G1 X43.045 Y56.976 E4.48833
G1 X42.755 Y57.185 E4.50022
G1 X42.485 Y57.422 E4.51217
G1 X42.241 Y57.687 E4.52415
G1 X42.025 Y57.971 E4.53602
G1 X41.837 Y58.278 E4.548
G1 X41.682 Y58.603 E4.55997
G1 X41.559 Y58.94 E4.5719
G1 X41.464 Y59.32 E4.58493
G1 X41.417 Y59.642 E4.59575
G1 X41.399 Y60 E4.60768
G1 X41.417 Y60.359 E4.61963
G1 X41.47 Y60.712 E4.6315
G1 X41.559 Y61.062 E4.64352
G1 X41.683 Y61.4 E4.65549
G1 X41.854 Y61.751 E4.66848
G1 X42.026 Y62.029 E4.67935
G1 X42.241 Y62.314 E4.69122
G1 X42.487 Y62.578 E4.70322
G1 X42.755 Y62.814 E4.7151
G1 X43.045 Y63.024 E4.72701
G1 X43.356 Y63.204 E4.73896
G1 X43.685 Y63.352 E4.75096
G1 X44.025 Y63.467 E4.7629
G1 X44.374 Y63.545 E4.77479
G1 X44.731 Y63.591 E4.78677
G1 X45.091 Y63.599 E4.79874
G1 X45.448 Y63.572 E4.81065
G1 X45.801 Y63.511 E4.82256
G1 X46.147 Y63.414 E4.83452
G1 X46.481 Y63.282 E4.84646
G0 F6000 X46.316 Y62.917
;TYPE:WALL-OUTER
G1 F1200 X46.6 Y62.771 E4.85708
G1 X46.868 Y62.598 E4.86769
G1 X47.117 Y62.4 E4.87827
G1 X47.346 Y62.177 E4.8889
G1 X47.55 Y61.932 E4.89951
G1 X47.731 Y61.668 E4.91015
G1 X47.884 Y61.388 E4.92077
G1 X48.007 Y61.095 E4.93134
G1 X48.101 Y60.789 E4.94198
G1 X48.164 Y60.477 E4.95257
G1 X48.196 Y60.16 E4.96317
G1 X48.196 Y59.84 E4.97381
G1 X48.164 Y59.523 E4.98441
G1 X48.101 Y59.211 E4.99499
G1 X48.007 Y58.905 E5.00564
G1 X47.884 Y58.612 E5.01621
G1 X47.73 Y58.331 E5.02687
G1 X47.532 Y58.044 E5.03846
G1 X47.325 Y57.802 E5.04906
G1 X47.117 Y57.601 E5.05868
G1 X46.843 Y57.384 E5.0703
G1 X46.573 Y57.214 E5.08091
G1 X46.316 Y57.083 E5.09051
G1 X45.99 Y56.957 E5.10213
G1 X45.681 Y56.873 E5.11278
G1 X45.368 Y56.821 E5.12334
G1 X45.048 Y56.801 E5.134
G1 X44.761 Y56.809 E5.14355
G1 X44.444 Y56.849 E5.15418
G1 X44.133 Y56.919 E5.16478
G1 X43.831 Y57.021 E5.17538
G1 X43.513 Y57.167 E5.18702
G1 X43.263 Y57.312 E5.19663
G1 X43.005 Y57.498 E5.20721
G1 X42.765 Y57.709 E5.21784
G1 X42.548 Y57.944 E5.22848
G1 X42.356 Y58.197 E5.23904
G1 X42.189 Y58.469 E5.24966
G1 X42.051 Y58.758 E5.26031
G1 X41.942 Y59.057 E5.27089
G1 X41.857 Y59.397 E5.28255
G1 X41.816 Y59.681 E5.29209
G1 X41.8 Y60 E5.30272
G1 X41.816 Y60.319 E5.31334
G1 X41.863 Y60.633 E5.3239
G1 X41.942 Y60.943 E5.33454
G1 X42.052 Y61.243 E5.34517
G1 X42.205 Y61.558 E5.35682
G1 X42.356 Y61.803 E5.36639
G1 X42.548 Y62.056 E5.37695
G1 X42.766 Y62.291 E5.38761
G1 X43.005 Y62.501 E5.39819
G1 X43.263 Y62.688 E5.40879
G1 X43.539 Y62.848 E5.4194
G1 X43.831 Y62.979 E5.43005
G1 X44.133 Y63.081 E5.44065
G1 X44.444 Y63.151 E5.45125
G1 X44.761 Y63.192 E5.46188
G1 X45.08 Y63.199 E5.4725
G1 X45.398 Y63.175 E5.4831
G1 X45.712 Y63.12 E5.49371
G1 X46.019 Y63.034 E5.50431
G1 X46.316 Y62.917 E5.51493
G0 F6000 X46.497 Y63.317
G1 F1500 E-0.98507
G0 F6000 X47.773 Y63.145
G0 X46.629 Y61.674
G0 X73.288 Y61.588
G0 X72.074 Y63.002
G0 X75.889 Y63.902
;TYPE:WALL-INNER
G1 F1500 E5.51493
G1 F1200 X76.275 Y63.794 E5.52826
G1 X76.646 Y63.647 E5.54153
G1 X77 Y63.465 E5.55477
G1 X77.335 Y63.249 E5.56803
G1 X77.647 Y63.002 E5.58126
G1 X77.934 Y62.721 E5.59462
G1 X78.188 Y62.416 E5.60782
G1 X78.413 Y62.088 E5.62105
G1 X78.606 Y61.736 E5.6344
G1 X78.761 Y61.367 E5.64772
G1 X78.877 Y60.986 E5.66096
G1 X78.956 Y60.597 E5.67417
G1 X78.996 Y60.2 E5.68744
G1 X78.996 Y59.8 E5.70074
G1 X78.956 Y59.403 E5.71401
G1 X78.877 Y59.014 E5.72721
G1 X78.761 Y58.633 E5.74046
G1 X78.606 Y58.264 E5.75377
G1 X78.412 Y57.91 E5.7672
G1 X78.166 Y57.556 E5.78154
G1 X77.909 Y57.254 E5.79473
G1 X77.645 Y56.999 E5.80693
G1 X77.305 Y56.73 E5.82135
G1 X76.969 Y56.518 E5.83457
G1 X76.643 Y56.351 E5.84675
G1 X76.24 Y56.195 E5.86112
G1 X75.851 Y56.091 E5.87452
G1 X75.458 Y56.025 E5.88777
G1 X75.08 Y56.003 E5.90036
G1 X75.062 Y56.001 E5.90097
G1 X74.699 Y56.011 E5.91304
G1 X74.306 Y56.061 E5.92622
G1 X73.917 Y56.147 E5.93947
G1 X73.535 Y56.277 E5.95289
G1 X73.145 Y56.455 E5.96715
G1 X72.827 Y56.64 E5.97939
G1 X72.506 Y56.872 E5.99256
G1 X72.205 Y57.135 E6.00585
G1 X71.934 Y57.43 E6.01918
G1 X71.694 Y57.745 E6.03235
G1 X71.485 Y58.087 E6.04568
G1 X71.322 Y58.431 E6.05834
G1 X71.313 Y58.448 E6.05898
G1 X71.176 Y58.823 E6.07226
G1 X71.071 Y59.242 E6.08663
G1 X71.018 Y59.603 E6.09876
G1 X70.998 Y60 E6.11198
G1 X71.018 Y60.399 E6.12527
G1 X71.077 Y60.791 E6.13846
G1 X71.176 Y61.18 E6.15181
G1 X71.314 Y61.557 E6.16516
G1 X71.503 Y61.944 E6.17948
G1 X71.696 Y62.255 E6.19166
G1 X71.934 Y62.571 E6.20482
G1 X72.208 Y62.865 E6.21818
G1 X72.505 Y63.127 E6.23135
G1 X72.827 Y63.36 E6.24457
G1 X73.173 Y63.56 E6.25787
G1 X73.539 Y63.725 E6.27122
G1 X73.917 Y63.853 E6.28449
G1 X74.305 Y63.939 E6.29771
G1 X74.701 Y63.99 E6.31099
G1 X75.102 Y63.999 E6.32433
G1 X75.497 Y63.969 E6.33751
G1 X75.889 Y63.902 E6.35073
G0 F6000 X75.801 Y63.511
