;FLAVOR:Marlin
;TIME:38261
;Filament used: 21.5998m
;Layer height: 0.12
;MINX:34.335
;MINY:39.335
;MINZ:0.2
;MAXX:185.665
;MAXY:180.665
;MAXZ:13.44
;Generated with Cura_SteamEngine 4.9.0
M140 S60
M105
M190 S60
M104 S200
M105
M109 S200
M82 ;absolute extrusion mode
; Ender 3 Custom Start G-code
G92 E0 ; Reset Extruder
G28G29 ; Home all axes and set bed height
G1 Z2.0 F3000 ; Move Z Axis up little to prevent scratching of Heat Bed
G1 X0.1 Y20 Z0.3 F5000.0 ; Move to start position
G1 X0.1 Y200.0 Z0.3 F1500.0 E15 ; Draw the first line
G1 X0.4 Y200.0 Z0.3 F5000.0 ; Move to side a little
G1 X0.4 Y20 Z0.3 F1500.0 E30 ; Draw the second line
G92 E0 ; Reset Extruder
G1 Z2.0 F3000 ; Move Z Axis up little to prevent scratching of Heat Bed
G1 X5 Y20 Z0.3 F5000.0 ; Move over to prevent blob squish
G92 E0
G92 E0
G1 F1500 E-6.5
;LAYER_COUNT:93
;LAYER:0
M107
;MESH:T41 7IN Front Right Panel V011-Front PanelRl.stl
G0 F6000 X178.854 Y177.472 Z0.2
;TYPE:WALL-INNER
G1 F1500 E0
G1 F1200 X179.096 Y177.774 E0.01287
G1 X179.382 Y178.038 E0.02582
G1 X179.711 Y178.261 E0.03904
G1 X180.162 Y178.465 E0.0555
G1 X180.197 Y178.473 E0.05669
G1 X180.554 Y178.563 E0.06894
G1 X180.931 Y178.602 E0.08155
G1 X180.939 Y178.602 E0.08181
G1 X180.958 Y178.602 E0.08244
G1 X181.331 Y178.582 E0.09487
G1 X181.711 Y178.504 E0.10777
G1 X182.076 Y178.369 E0.12071
G1 X182.418 Y178.183 E0.13366
G1 X182.723 Y177.952 E0.14639
G1 X182.997 Y177.67 E0.15946
G1 X183.227 Y177.346 E0.17268
G1 X183.443 Y176.9 E0.18916
G1 X183.551 Y176.509 E0.20265
G1 X183.6 Y176.126 E0.2155
G1 X183.589 Y175.725 E0.22884
G1 X183.493 Y175.253 E0.24486
G1 X183.35 Y174.88 E0.25815
G1 X183.149 Y174.533 E0.27148
G1 X182.908 Y174.23 E0.28436
G1 X182.617 Y173.962 E0.29752
G1 X182.288 Y173.739 E0.31074
G1 X181.838 Y173.535 E0.32717
G1 X181.803 Y173.527 E0.32836
G1 X181.444 Y173.437 E0.34067
G1 X181.063 Y173.399 E0.35341
G1 X180.686 Y173.416 E0.36596
G1 X180.291 Y173.496 E0.37937
G1 X179.937 Y173.624 E0.39189
G1 X179.582 Y173.818 E0.40534
G1 X179.276 Y174.05 E0.41811
G1 X179.003 Y174.332 E0.43117
G1 X178.774 Y174.652 E0.44426
G1 X178.557 Y175.099 E0.46078
G1 X178.449 Y175.489 E0.47424
G1 X178.4 Y175.876 E0.48722
G1 X178.411 Y176.259 E0.49996
G1 X178.48 Y176.656 E0.51336
G1 X178.649 Y177.121 E0.52982
G1 X178.854 Y177.472 E0.54334
G0 F6000 X179.185 Y177.245
G1 F1200 X179.39 Y177.501 E0.55425
G1 X179.631 Y177.724 E0.56517
G1 X179.907 Y177.911 E0.57626
G1 X180.294 Y178.086 E0.59038
G1 X180.623 Y178.168 E0.60166
G1 X180.949 Y178.201 E0.61256
G1 X181.28 Y178.184 E0.62358
G1 X181.601 Y178.118 E0.63448
G1 X181.91 Y178.004 E0.64544
G1 X182.2 Y177.846 E0.65642
G1 X182.457 Y177.651 E0.66715
G1 X182.689 Y177.413 E0.6782
G1 X182.882 Y177.142 E0.68927
G1 X183.067 Y176.759 E0.70342
G1 X183.158 Y176.43 E0.71477
G1 X183.199 Y176.106 E0.72563
G1 X183.19 Y175.77 E0.73681
G1 X183.108 Y175.365 E0.75056
G1 X182.988 Y175.053 E0.76167
G1 X182.818 Y174.759 E0.77297
G1 X182.614 Y174.503 E0.78386
G1 X182.368 Y174.276 E0.79499
G1 X182.092 Y174.089 E0.80608
G1 X181.706 Y173.914 E0.82017
G1 X181.376 Y173.832 E0.83148
G1 X181.052 Y173.8 E0.84231
G1 X180.735 Y173.814 E0.85287
G1 X180.4 Y173.882 E0.86424
G1 X180.102 Y173.99 E0.87478
G1 X179.8 Y174.155 E0.88622
G1 X179.542 Y174.35 E0.89698
G1 X179.311 Y174.589 E0.90804
G1 X179.119 Y174.857 E0.919
G1 X178.933 Y175.241 E0.93319
G1 X178.842 Y175.568 E0.94448
G1 X178.801 Y175.895 E0.95544
G1 X178.81 Y176.219 E0.96622
G1 X178.868 Y176.552 E0.97747
G1 X179.013 Y176.95 E0.99155
G1 X179.185 Y177.245 E1.00291
G0 F6000 X179.516 Y177.018
;TYPE:WALL-OUTER
G1 F1200 X179.684 Y177.228 E1.01186
G1 X179.881 Y177.41 E1.02078
G1 X180.103 Y177.561 E1.02971
G1 X180.426 Y177.707 E1.0415
G1 X180.692 Y177.773 E1.05061
G1 X180.959 Y177.8 E1.05954
G1 X181.229 Y177.786 E1.06853
G1 X181.491 Y177.732 E1.07743
G1 X181.744 Y177.639 E1.08639
G1 X181.982 Y177.509 E1.09541
G1 X182.192 Y177.35 E1.10417
G1 X182.381 Y177.156 E1.11318
G1 X182.536 Y176.938 E1.12208
G1 X182.691 Y176.617 E1.13393
G1 X182.765 Y176.351 E1.14312
G1 X182.798 Y176.086 E1.152
G1 X182.791 Y175.815 E1.16102
G1 X182.723 Y175.477 E1.17248
G1 X182.626 Y175.226 E1.18143
G1 X182.487 Y174.985 E1.19069
G1 X182.32 Y174.776 E1.19958
G1 X182.119 Y174.59 E1.20869
G1 X181.896 Y174.439 E1.21765
G1 X181.574 Y174.293 E1.22941
G1 X181.308 Y174.227 E1.23853
G1 X181.041 Y174.201 E1.24745
G1 X180.784 Y174.212 E1.256
G1 X180.509 Y174.268 E1.26534
G1 X180.267 Y174.356 E1.2739
G1 X180.017 Y174.492 E1.28337
G1 X179.808 Y174.65 E1.29208
G1 X179.619 Y174.846 E1.30114
G1 X179.464 Y175.062 E1.30998
G1 X179.309 Y175.383 E1.32184
G1 X179.235 Y175.647 E1.33096
G1 X179.202 Y175.914 E1.3399
G1 X179.209 Y176.179 E1.34872
G1 X179.256 Y176.448 E1.3578
G1 X179.377 Y176.779 E1.36953
G1 X179.516 Y177.018 E1.37872
G0 F6000 X179.154 Y177.266
G1 F1500 E-5.12128
G0 F6000 X178.19 Y175.866
G0 X180.068 Y175.921
G0 X128.411 Y152.641
G0 X128.347 Y150.693
G0 X123.988 Y150.648
G0 X94.544 Y137.379
G0 X95.355 Y139.056
G0 X94.011 Y139.385
;TYPE:WALL-INNER
G1 F1500 E1.37872
G1 F1200 X94.435 Y139.268 E1.39335
G1 X94.865 Y139.096 E1.40875
G1 X95.26 Y138.891 E1.42356
G1 X95.637 Y138.648 E1.43847
G1 X95.978 Y138.374 E1.45302
G1 X96.307 Y138.054 E1.46829
G1 X96.596 Y137.707 E1.48331
G1 X96.842 Y137.345 E1.49786
G1 X97.06 Y136.942 E1.5131
G1 X97.231 Y136.538 E1.5277
G1 X97.364 Y136.099 E1.54295
G1 X97.367 Y136.08 E1.54359
G1 X97.452 Y135.659 E1.55788
G1 X97.496 Y135.214 E1.57275
G1 X97.496 Y134.775 E1.58735
G1 X97.451 Y134.328 E1.60229
G1 X97.362 Y133.888 E1.61722
G1 X97.229 Y133.459 E1.63216
G1 X97.051 Y133.037 E1.6474
G1 X96.835 Y132.643 E1.66234
G1 X96.581 Y132.272 E1.6773
G1 X96.298 Y131.937 E1.69188
G1 X95.971 Y131.617 E1.7071
G1 X95.626 Y131.344 E1.72173
G1 X95.242 Y131.097 E1.73692
G1 X94.85 Y130.897 E1.75155
G1 X94.422 Y130.729 E1.76685
G1 X93.989 Y130.609 E1.78179
G1 X93.547 Y130.531 E1.79672
G1 X93.118 Y130.503 E1.81102
G1 X93.099 Y130.501 E1.81165
G1 X92.663 Y130.513 E1.82616
G1 X92.204 Y130.57 E1.84154
G1 X91.771 Y130.672 E1.85634
G1 X91.355 Y130.81 E1.87092
G1 X90.937 Y131 E1.88619
G1 X90.546 Y131.225 E1.90119
G1 X90.186 Y131.49 E1.91606
G1 X89.849 Y131.784 E1.93094
G1 X89.551 Y132.108 E1.94558
G1 X89.281 Y132.465 E1.96046
G1 X89.042 Y132.858 E1.97576
G1 X88.853 Y133.252 E1.9903
G1 X88.696 Y133.682 E2.00552
G1 X88.587 Y134.109 E2.02018
G1 X88.52 Y134.563 E2.03544
G1 X88.5 Y135.011 E2.05036
G1 X88.522 Y135.448 E2.06491
G1 X88.591 Y135.903 E2.08022
G1 X88.703 Y136.34 E2.09522
G1 X88.857 Y136.758 E2.11004
G1 X89.046 Y137.153 E2.1246
G1 X89.288 Y137.545 E2.13993
G1 X89.554 Y137.895 E2.15455
G1 X89.866 Y138.23 E2.16977
G1 X90.203 Y138.527 E2.18471
G1 X90.567 Y138.787 E2.19959
G1 X90.948 Y139.007 E2.21422
G1 X91.367 Y139.193 E2.22947
G1 X91.793 Y139.336 E2.24442
G1 X92.232 Y139.435 E2.25939
G1 X92.657 Y139.485 E2.27362
G1 X92.676 Y139.488 E2.27426
G1 X93.125 Y139.499 E2.2892
G1 X93.572 Y139.464 E2.30411
G1 X94.011 Y139.385 E2.31895
G0 F6000 X93.922 Y138.995
G1 F1200 X94.307 Y138.888 E2.33224
G1 X94.698 Y138.732 E2.34624
G1 X95.059 Y138.545 E2.35976
G1 X95.403 Y138.323 E2.37338
G1 X95.713 Y138.074 E2.3866
G1 X96.013 Y137.782 E2.40053
G1 X96.276 Y137.466 E2.4142
G1 X96.5 Y137.137 E2.42744
G1 X96.699 Y136.769 E2.44135
G1 X96.854 Y136.402 E2.4546
G1 X96.976 Y136.001 E2.46854
G1 X97.056 Y135.6 E2.48214
G1 X97.096 Y135.194 E2.49571
G1 X97.096 Y134.795 E2.50898
G1 X97.055 Y134.388 E2.52259
G1 X96.974 Y133.987 E2.5362
G1 X96.853 Y133.596 E2.54981
G1 X96.69 Y133.211 E2.56371
G1 X96.494 Y132.853 E2.57729
G1 X96.262 Y132.515 E2.59092
G1 X96.005 Y132.21 E2.60419
G1 X95.706 Y131.918 E2.61809
G1 X95.393 Y131.67 E2.63137
G1 X95.042 Y131.444 E2.64526
G1 X94.686 Y131.262 E2.65856
G1 X94.295 Y131.109 E2.67252
G1 X93.901 Y131 E2.68612
G1 X93.498 Y130.929 E2.69973
G1 X93.091 Y130.901 E2.7133
G1 X92.693 Y130.912 E2.72654
G1 X92.275 Y130.964 E2.74055
G1 X91.88 Y131.057 E2.75405
G1 X91.501 Y131.183 E2.76733
G1 X91.12 Y131.356 E2.78125
G1 X90.765 Y131.561 E2.79488
G1 X90.436 Y131.802 E2.80845
G1 X90.129 Y132.071 E2.82202
G1 X89.858 Y132.365 E2.83532
G1 X89.612 Y132.69 E2.84888
G1 X89.394 Y133.049 E2.86285
G1 X89.222 Y133.407 E2.87606
G1 X89.079 Y133.8 E2.88997
G1 X88.98 Y134.188 E2.90329
G1 X88.919 Y134.602 E2.9172
G1 X88.9 Y135.01 E2.93079
G1 X88.92 Y135.408 E2.94404
G1 X88.983 Y135.823 E2.958
G1 X89.085 Y136.221 E2.97167
G1 X89.226 Y136.602 E2.98518
G1 X89.398 Y136.961 E2.99842
G1 X89.618 Y137.319 E3.0124
G1 X89.86 Y137.637 E3.02569
G1 X90.145 Y137.943 E3.0396
G1 X90.452 Y138.213 E3.0532
G1 X90.784 Y138.45 E3.06676
G1 X91.13 Y138.65 E3.08005
G1 X91.512 Y138.82 E3.09396
G1 X91.901 Y138.95 E3.1076
G1 X92.3 Y139.04 E3.12121
G1 X92.705 Y139.089 E3.13478
G1 X93.114 Y139.099 E3.14838
G1 X93.521 Y139.067 E3.16196
G1 X93.922 Y138.995 E3.17551
G0 F6000 X93.833 Y138.605
;TYPE:WALL-OUTER
G1 F1200 X94.179 Y138.508 E3.18746
G1 X94.532 Y138.368 E3.20009
G1 X94.858 Y138.199 E3.21231
G1 X95.169 Y137.998 E3.22462
G1 X95.448 Y137.774 E3.23652
G1 X95.719 Y137.51 E3.24911
G1 X95.956 Y137.225 E3.26144
G1 X96.158 Y136.929 E3.27336
G1 X96.338 Y136.596 E3.28595
G1 X96.477 Y136.266 E3.29786
G1 X96.588 Y135.903 E3.31048
G1 X96.66 Y135.541 E3.32276
G1 X96.696 Y135.174 E3.33502
G1 X96.696 Y134.815 E3.34696
G1 X96.659 Y134.448 E3.35923
G1 X96.586 Y134.086 E3.37151
G1 X96.477 Y133.734 E3.38377
G1 X96.329 Y133.385 E3.39638
G1 X96.153 Y133.063 E3.40858
G1 X95.943 Y132.758 E3.4209
G1 X95.712 Y132.483 E3.43284
G1 X95.441 Y132.219 E3.44543
G1 X95.16 Y131.996 E3.45736
G1 X94.842 Y131.791 E3.46994
G1 X94.522 Y131.627 E3.4819
G1 X94.169 Y131.489 E3.49451
G1 X93.813 Y131.391 E3.50679
G1 X93.449 Y131.327 E3.51908
G1 X93.082 Y131.301 E3.53132
G1 X92.723 Y131.311 E3.54326
G1 X92.346 Y131.358 E3.5559
G1 X91.989 Y131.442 E3.5681
G1 X91.647 Y131.556 E3.58009
G1 X91.303 Y131.712 E3.59265
G1 X90.984 Y131.897 E3.60492
G1 X90.686 Y132.114 E3.61718
G1 X90.409 Y132.358 E3.62946
G1 X90.165 Y132.622 E3.64141
G1 X89.943 Y132.915 E3.65364
G1 X89.746 Y133.24 E3.66628
G1 X89.591 Y133.562 E3.67816
G1 X89.462 Y133.918 E3.69076
G1 X89.373 Y134.267 E3.70274
G1 X89.318 Y134.641 E3.71531
G1 X89.3 Y135.01 E3.7276
G1 X89.318 Y135.368 E3.73952
G1 X89.375 Y135.743 E3.75214
G1 X89.467 Y136.101 E3.76443
G1 X89.595 Y136.446 E3.77667
G1 X89.75 Y136.769 E3.78859
G1 X89.949 Y137.093 E3.80123
G1 X90.166 Y137.379 E3.81317
G1 X90.424 Y137.656 E3.82576
G1 X90.701 Y137.899 E3.83802
G1 X91.001 Y138.113 E3.85028
G1 X91.312 Y138.293 E3.86223
G1 X91.657 Y138.447 E3.87479
G1 X92.008 Y138.564 E3.8871
G1 X92.368 Y138.645 E3.89937
G1 X92.734 Y138.69 E3.91164
G1 X93.103 Y138.699 E3.92391
G1 X93.47 Y138.67 E3.93616
G1 X93.833 Y138.605 E3.94842
G0 F6000 X93.931 Y139.033
G1 F1500 E-2.55158
G0 F6000 X92.634 Y138.911
G0 X89.732 Y138.367
G0 X90.924 Y136.931
G0 X50.17 Y136.826
G0 X51.447 Y138.184
G0 X50.637 Y138.648
;TYPE:WALL-INNER
G1 F1500 E3.94842
G1 F1200 X50.978 Y138.374 E3.96297
G1 X51.307 Y138.054 E3.97824
G1 X51.596 Y137.707 E3.99326
G1 X51.842 Y137.345 E4.00781
G1 X52.06 Y136.942 E4.02305
G1 X52.231 Y136.538 E4.03765
G1 X52.364 Y136.099 E4.0529
G1 X52.367 Y136.08 E4.05354
G1 X52.452 Y135.659 E4.06783
G1 X52.496 Y135.214 E4.0827
G1 X52.496 Y134.775 E4.0973
G1 X52.451 Y134.328 E4.11224
G1 X52.362 Y133.888 E4.12717
G1 X52.229 Y133.459 E4.14211
G1 X52.051 Y133.037 E4.15735
G1 X51.835 Y132.643 E4.17229
G1 X51.581 Y132.272 E4.18724
G1 X51.298 Y131.937 E4.20183
G1 X50.971 Y131.617 E4.21705
G1 X50.626 Y131.344 E4.23168
G1 X50.242 Y131.097 E4.24687
G1 X49.85 Y130.897 E4.2615
G1 X49.422 Y130.729 E4.2768
G1 X48.989 Y130.609 E4.29174
G1 X48.547 Y130.531 E4.30667
G1 X48.118 Y130.503 E4.32097
G1 X48.099 Y130.501 E4.3216
G1 X47.663 Y130.513 E4.33611
G1 X47.204 Y130.57 E4.35149
G1 X46.771 Y130.672 E4.36629
G1 X46.355 Y130.81 E4.38087
G1 X45.937 Y131 E4.39614
G1 X45.546 Y131.225 E4.41114
G1 X45.186 Y131.49 E4.42601
G1 X44.849 Y131.784 E4.44089
G1 X44.551 Y132.108 E4.45553
G1 X44.281 Y132.465 E4.47041
G1 X44.042 Y132.858 E4.48571
G1 X43.853 Y133.252 E4.50025
G1 X43.696 Y133.682 E4.51547
G1 X43.587 Y134.109 E4.53013
G1 X43.52 Y134.563 E4.54539
G1 X43.5 Y135.011 E4.56031
G1 X43.522 Y135.448 E4.57486
G1 X43.591 Y135.903 E4.59017
G1 X43.703 Y136.34 E4.60517
G1 X43.857 Y136.758 E4.61999
G1 X44.046 Y137.153 E4.63455
G1 X44.288 Y137.545 E4.64988
G1 X44.554 Y137.895 E4.6645
G1 X44.866 Y138.23 E4.67972
G1 X45.203 Y138.527 E4.69466
G1 X45.567 Y138.787 E4.70954
G1 X45.948 Y139.007 E4.72417
G1 X46.367 Y139.193 E4.73942
G1 X46.793 Y139.336 E4.75437
G1 X47.232 Y139.435 E4.76934
G1 X47.657 Y139.485 E4.78357
G1 X47.676 Y139.488 E4.78421
G1 X48.125 Y139.499 E4.79915
G1 X48.572 Y139.464 E4.81406
G1 X49.011 Y139.385 E4.82889
G1 X49.435 Y139.268 E4.84352
G1 X49.865 Y139.096 E4.85893
G1 X50.26 Y138.891 E4.87373
G1 X50.637 Y138.648 E4.88865
G0 F6000 X50.403 Y138.323
G1 F1200 X50.713 Y138.074 E4.90187
G1 X51.013 Y137.782 E4.9158
G1 X51.276 Y137.466 E4.92947
G1 X51.5 Y137.137 E4.94271
G1 X51.699 Y136.769 E4.95662
G1 X51.854 Y136.402 E4.96987
G1 X51.976 Y136.001 E4.98382
G1 X52.056 Y135.6 E4.99742
G1 X52.096 Y135.194 E5.01098
G1 X52.096 Y134.795 E5.02426
G1 X52.055 Y134.388 E5.03786
G1 X51.974 Y133.987 E5.05147
G1 X51.853 Y133.596 E5.06508
G1 X51.69 Y133.211 E5.07899
G1 X51.494 Y132.853 E5.09256
G1 X51.262 Y132.515 E5.1062
G1 X51.005 Y132.21 E5.11946
G1 X50.706 Y131.918 E5.13336
G1 X50.393 Y131.67 E5.14664
G1 X50.042 Y131.444 E5.16053
G1 X49.686 Y131.262 E5.17383
G1 X49.295 Y131.109 E5.18779
G1 X48.901 Y131 E5.20139
G1 X48.498 Y130.929 E5.215
G1 X48.091 Y130.901 E5.22857
G1 X47.693 Y130.912 E5.24181
G1 X47.275 Y130.964 E5.25582
G1 X46.88 Y131.057 E5.26932
G1 X46.501 Y131.183 E5.2826
G1 X46.12 Y131.356 E5.29652
G1 X45.765 Y131.561 E5.31015
G1 X45.436 Y131.802 E5.32372
G1 X45.129 Y132.071 E5.33729
G1 X44.858 Y132.365 E5.35059
G1 X44.612 Y132.69 E5.36415
G1 X44.394 Y133.049 E5.37812
G1 X44.222 Y133.407 E5.39133
G1 X44.079 Y133.8 E5.40524
G1 X43.98 Y134.188 E5.41856
G1 X43.919 Y134.602 E5.43248
G1 X43.9 Y135.01 E5.44606
G1 X43.92 Y135.408 E5.45931
G1 X43.983 Y135.823 E5.47328
G1 X44.085 Y136.221 E5.48694
G1 X44.226 Y136.602 E5.50045
G1 X44.398 Y136.961 E5.51369
G1 X44.618 Y137.319 E5.52767
G1 X44.86 Y137.637 E5.54096
G1 X45.145 Y137.943 E5.55487
G1 X45.452 Y138.213 E5.56847
G1 X45.784 Y138.45 E5.58203
G1 X46.13 Y138.65 E5.59533
G1 X46.512 Y138.82 E5.60923
G1 X46.901 Y138.95 E5.62287
G1 X47.3 Y139.04 E5.63648
G1 X47.705 Y139.089 E5.65005
G1 X48.114 Y139.099 E5.66365
G1 X48.521 Y139.067 E5.67723
G1 X48.922 Y138.995 E5.69078
G1 X49.307 Y138.888 E5.70407
G1 X49.698 Y138.732 E5.71808
G1 X50.059 Y138.545 E5.7316
G1 X50.403 Y138.323 E5.74522
G0 F6000 X50.169 Y137.998
;TYPE:WALL-OUTER
G1 F1200 X50.448 Y137.774 E5.75712
G1 X50.719 Y137.51 E5.7697
G1 X50.956 Y137.225 E5.78203
G1 X51.158 Y136.929 E5.79395
G1 X51.338 Y136.596 E5.80654
G1 X51.477 Y136.266 E5.81845
G1 X51.588 Y135.903 E5.83107
G1 X51.66 Y135.541 E5.84335
G1 X51.696 Y135.174 E5.85561
G1 X51.696 Y134.815 E5.86755
G1 X51.659 Y134.448 E5.87982
G1 X51.586 Y134.086 E5.8921
G1 X51.477 Y133.734 E5.90436
G1 X51.329 Y133.385 E5.91697
G1 X51.153 Y133.063 E5.92917
G1 X50.943 Y132.758 E5.94149
G1 X50.712 Y132.483 E5.95343
G1 X50.441 Y132.219 E5.96602
G1 X50.16 Y131.996 E5.97795
G1 X49.842 Y131.791 E5.99053
G1 X49.522 Y131.627 E6.00249
G1 X49.169 Y131.489 E6.0151
G1 X48.813 Y131.391 E6.02738
G1 X48.449 Y131.327 E6.03967
G1 X48.082 Y131.301 E6.05191
G1 X47.723 Y131.311 E6.06386
G1 X47.346 Y131.358 E6.07649
G1 X46.989 Y131.442 E6.08869
G1 X46.647 Y131.556 E6.10068
G1 X46.303 Y131.712 E6.11324
G1 X45.984 Y131.897 E6.12551
G1 X45.686 Y132.114 E6.13777
G1 X45.409 Y132.358 E6.15005
G1 X45.165 Y132.622 E6.162
G1 X44.943 Y132.915 E6.17423
G1 X44.746 Y133.24 E6.18687
G1 X44.591 Y133.562 E6.19876
G1 X44.462 Y133.918 E6.21135
G1 X44.373 Y134.267 E6.22333
G1 X44.318 Y134.641 E6.2359
G1 X44.3 Y135.01 E6.24819
G1 X44.318 Y135.368 E6.26011
G1 X44.375 Y135.743 E6.27273
G1 X44.467 Y136.101 E6.28502
G1 X44.595 Y136.446 E6.29726
G1 X44.75 Y136.769 E6.30918
G1 X44.949 Y137.093 E6.32182
G1 X45.166 Y137.379 E6.33376
G1 X45.424 Y137.656 E6.34635
G1 X45.701 Y137.899 E6.35861
G1 X46.001 Y138.113 E6.37087
