;FLAVOR:Marlin
;TIME:6724
;Filament used: 3.19191m
;Layer height: 0.12
;MINX:81.5
;MINY:54
;MINZ:0.2
;MAXX:138.5
;MAXY:166
;MAXZ:14.64
;Generated with Cura_SteamEngine 4.9.0
M140 S60
M105
M190 S60
M104 S200
M105
M109 S200
M82 ;absolute extrusion mode
; Ender 3 Custom Start G-code
G92 E0 ; Reset Extruder
G28G29 ; Home all axes and set bed height
G1 Z2.0 F3000 ; Move Z Axis up little to prevent scratching of Heat Bed
G1 X0.1 Y20 Z0.3 F5000.0 ; Move to start position
G1 X0.1 Y200.0 Z0.3 F1500.0 E15 ; Draw the first line
G1 X0.4 Y200.0 Z0.3 F5000.0 ; Move to side a little
G1 X0.4 Y20 Z0.3 F1500.0 E30 ; Draw the second line
G92 E0 ; Reset Extruder
G1 Z2.0 F3000 ; Move Z Axis up little to prevent scratching of Heat Bed
G1 X5 Y20 Z0.3 F5000.0 ; Move over to prevent blob squish
G92 E0
G92 E0
G1 F1500 E-6.5
;LAYER_COUNT:100
;LAYER:0
M107
G0 F6000 X84.083 Y59.919 Z0.2
;TYPE:SKIRT
G1 F1500 E0
G1 F1200 X84.536 Y59.31 E0.02524
G1 X84.628 Y59.195 E0.03014
G1 X85.428 Y58.3 E0.07007
G1 X85.762 Y57.965 E0.0858
G1 X86.702 Y57.125 E0.12773
G1 X86.893 Y56.973 E0.13585
G1 X87.76 Y56.349 E0.17138
G1 X88.03 Y56.174 E0.18208
G1 X88.981 Y55.623 E0.21864
G1 X89.224 Y55.498 E0.22773
G1 X90.195 Y55.057 E0.2632
G1 X90.482 Y54.943 E0.27347
G1 X91.469 Y54.604 E0.30818
G1 X91.658 Y54.549 E0.31472
G1 X92.611 Y54.317 E0.34735
G1 X93.013 Y54.238 E0.36097
G1 X94.231 Y54.069 E0.40187
G1 X94.724 Y54.036 E0.41831
G1 X95.057 Y54.021 E0.42939
G1 X95.389 Y54.011 E0.44044
G1 X96.227 Y54 E0.46831
G1 X123.802 Y54 E1.38546
G1 X124.407 Y54.007 E1.40559
G1 X124.8 Y54.019 E1.41866
G1 X125.394 Y54.048 E1.43844
G1 X126.328 Y54.134 E1.46964
G1 X127.007 Y54.247 E1.49253
G1 X127.494 Y54.344 E1.50905
G1 X128.748 Y54.672 E1.55216
G1 X128.957 Y54.74 E1.55947
G1 X129.987 Y55.133 E1.59614
G1 X130.255 Y55.251 E1.60588
G1 X131.135 Y55.686 E1.63853
G1 X131.387 Y55.825 E1.6481
G1 X132.317 Y56.4 E1.68447
G1 X132.552 Y56.562 E1.69396
G1 X133.164 Y57.016 E1.7193
G1 X133.287 Y57.114 E1.72454
G1 X134.199 Y57.927 E1.76517
G1 X134.535 Y58.262 E1.78095
G1 X135.38 Y59.208 E1.82314
G1 X135.531 Y59.398 E1.83121
G1 X136.144 Y60.251 E1.86615
G1 X136.32 Y60.522 E1.8769
G1 X136.86 Y61.448 E1.91255
G1 X136.985 Y61.689 E1.92158
G1 X137.45 Y62.712 E1.95896
G1 X137.563 Y62.998 E1.96918
G1 X137.878 Y63.909 E2.00124
G1 X137.935 Y64.101 E2.00791
G1 X138.188 Y65.132 E2.04321
G1 X138.259 Y65.497 E2.05558
G1 X138.384 Y66.294 E2.08241
G1 X138.397 Y66.403 E2.08606
G1 X138.462 Y67.195 E2.1125
G1 X138.478 Y67.539 E2.12395
G1 X138.489 Y67.888 E2.13556
G1 X138.5 Y68.727 E2.16347
G1 X138.499 Y76.445 E2.42017
G1 X138.493 Y76.906 E2.43551
G1 X138.481 Y77.298 E2.44855
G1 X138.452 Y77.893 E2.46836
G1 X138.366 Y78.827 E2.49956
G1 X138.248 Y79.532 E2.52333
G1 X138.149 Y80.023 E2.53999
G1 X137.939 Y80.883 E2.56944
G1 X137.871 Y81.12 E2.57764
G1 X137.747 Y81.522 E2.59163
G1 X137.14 Y83.368 E2.65626
G1 X136.411 Y85.816 E2.74122
G1 X135.77 Y88.212 E2.82371
G1 X135.174 Y90.723 E2.90955
G1 X134.669 Y93.165 E2.99249
G1 X134.235 Y95.6 E3.07475
G1 X133.857 Y98.133 E3.15993
G1 X133.559 Y100.612 E3.24298
G1 X133.33 Y103.119 E3.32671
G1 X133.169 Y105.648 E3.41099
G1 X133.082 Y108.133 E3.4937
G1 X133.066 Y110.692 E3.57881
G1 X133.12 Y113.181 E3.66161
G1 X133.245 Y115.687 E3.74507
G1 X133.443 Y118.204 E3.82904
G1 X133.71 Y120.707 E3.91277
G1 X134.05 Y123.211 E3.99681
G1 X134.46 Y125.702 E4.08078
G1 X134.931 Y128.135 E4.1632
G1 X135.481 Y130.598 E4.24714
G1 X136.109 Y133.081 E4.33233
G1 X136.781 Y135.452 E4.41429
G1 X137.439 Y137.504 E4.48596
G1 X137.87 Y138.88 E4.53392
G1 X138.015 Y139.385 E4.5514
G1 X138.032 Y139.45 E4.55363
G1 X138.184 Y140.114 E4.57629
G1 X138.258 Y140.491 E4.58907
G1 X138.399 Y141.418 E4.62025
G1 X138.451 Y142.083 E4.64244
G1 X138.481 Y142.709 E4.66328
G1 X138.493 Y143.082 E4.6757
G1 X138.5 Y143.665 E4.69509
G1 X138.499 Y151.445 E4.95385
G1 X138.493 Y151.907 E4.96922
G1 X138.482 Y152.286 E4.98183
G1 X138.454 Y152.875 E5.00144
G1 X138.369 Y153.809 E5.03264
G1 X138.254 Y154.502 E5.056
G1 X138.156 Y154.994 E5.07269
G1 X137.814 Y156.293 E5.11736
G1 X137.746 Y156.499 E5.12458
G1 X137.391 Y157.429 E5.15769
G1 X137.273 Y157.701 E5.16755
G1 X136.794 Y158.672 E5.20356
G1 X136.656 Y158.92 E5.213
G1 X136.281 Y159.543 E5.23719
G1 X136.206 Y159.659 E5.24178
G1 X135.462 Y160.678 E5.28374
G1 X135.206 Y160.989 E5.29714
G1 X134.491 Y161.776 E5.33251
G1 X134.19 Y162.077 E5.34666
G1 X133.158 Y162.987 E5.39243
G1 X132.988 Y163.119 E5.39959
G1 X132.194 Y163.681 E5.43194
G1 X131.95 Y163.838 E5.44159
G1 X131.07 Y164.349 E5.47544
G1 X130.816 Y164.481 E5.48496
G1 X129.792 Y164.948 E5.52239
G1 X129.509 Y165.06 E5.53251
G1 X128.683 Y165.35 E5.56163
G1 X128.572 Y165.384 E5.56549
G1 X127.542 Y165.645 E5.60083
G1 X127.07 Y165.741 E5.61685
G1 X126.149 Y165.888 E5.64787
G1 X125.382 Y165.953 E5.67347
G1 X124.88 Y165.978 E5.69019
G1 X124.49 Y165.991 E5.70317
G1 X123.773 Y166 E5.72702
G1 X96.055 Y165.999 E6.64892
G1 X95.593 Y165.993 E6.66429
G1 X95.199 Y165.981 E6.6774
G1 X94.585 Y165.951 E6.69785
G1 X93.651 Y165.865 E6.72905
G1 X92.96 Y165.749 E6.75235
G1 X92.521 Y165.661 E6.76724
G1 X91.324 Y165.351 E6.80837
G1 X91.087 Y165.275 E6.81665
G1 X90.013 Y164.867 E6.85486
G1 X89.745 Y164.749 E6.8646
G1 X88.859 Y164.311 E6.89747
G1 X88.611 Y164.174 E6.90689
G1 X87.74 Y163.638 E6.94091
G1 X87.502 Y163.476 E6.95048
G1 X86.758 Y162.922 E6.98134
G1 X86.625 Y162.814 E6.98703
G1 X85.769 Y162.042 E7.02537
G1 X85.433 Y161.705 E7.0412
G1 X84.582 Y160.745 E7.08387
G1 X84.441 Y160.566 E7.09145
G1 X83.862 Y159.759 E7.12448
G1 X83.685 Y159.487 E7.13528
G1 X83.123 Y158.518 E7.17253
G1 X82.997 Y158.273 E7.1817
G1 X82.556 Y157.303 E7.21714
G1 X82.442 Y157.016 E7.22741
G1 X82.132 Y156.125 E7.25879
G1 X82.101 Y156.022 E7.26236
G1 X81.851 Y155.025 E7.29655
G1 X81.746 Y154.504 E7.31423
G1 X81.6 Y153.578 E7.34541
G1 X81.543 Y152.879 E7.36873
G1 X81.524 Y152.498 E7.38142
G1 X81.511 Y152.112 E7.39427
G1 X81.5 Y151.273 E7.42217
G1 X81.501 Y143.511 E7.68034
G1 X81.507 Y143.083 E7.69458
G1 X81.519 Y142.702 E7.70725
G1 X81.548 Y142.107 E7.72707
G1 X81.634 Y141.173 E7.75826
G1 X81.751 Y140.472 E7.7819
G1 X81.849 Y139.985 E7.79842
G1 X82.056 Y139.133 E7.82759
G1 X82.118 Y138.916 E7.83509
G1 X82.24 Y138.517 E7.84897
G1 X82.891 Y136.527 E7.91861
G1 X83.608 Y134.112 E8.0024
G1 X84.247 Y131.715 E8.08491
G1 X84.841 Y129.211 E8.1705
G1 X85.338 Y126.79 E8.2527
G1 X85.779 Y124.305 E8.33665
G1 X86.151 Y121.796 E8.42101
G1 X86.447 Y119.323 E8.50385
G1 X86.676 Y116.808 E8.58784
G1 X86.832 Y114.294 E8.67162
G1 X86.918 Y111.772 E8.75555
G1 X86.933 Y109.245 E8.8396
G1 X86.877 Y106.76 E8.92227
G1 X86.748 Y104.229 E9.00656
G1 X86.549 Y101.718 E9.09034
G1 X86.28 Y99.218 E9.17397
G1 X85.938 Y96.718 E9.2579
G1 X85.53 Y94.245 E9.34126
G1 X85.046 Y91.76 E9.42547
G1 X84.502 Y89.335 E9.50813
G1 X83.876 Y86.864 E9.59291
G1 X83.196 Y84.474 E9.67555
G1 X82.469 Y82.201 E9.75493
G1 X82.135 Y81.132 E9.79218
G1 X81.848 Y80.013 E9.8306
G1 X81.749 Y79.519 E9.84736
G1 X81.605 Y78.593 E9.87853
G1 X81.548 Y77.894 E9.90185
G1 X81.519 Y77.3 E9.92163
G1 X81.507 Y76.907 E9.93471
G1 X81.5 Y76.302 E9.95483
G1 X81.501 Y68.511 E10.21396
G1 X81.507 Y68.082 E10.22823
G1 X81.519 Y67.7 E10.24095
G1 X81.548 Y67.106 E10.26073
G1 X81.634 Y66.172 E10.29192
G1 X81.75 Y65.476 E10.31539
G1 X81.848 Y64.988 E10.33195
G1 X82.163 Y63.781 E10.37343
G1 X82.23 Y63.573 E10.3807
G1 X82.633 Y62.513 E10.41842
G1 X82.751 Y62.245 E10.42816
G1 X83.186 Y61.365 E10.46081
G1 X83.325 Y61.113 E10.47038
G1 X83.914 Y60.163 E10.50756
G1 X84.083 Y59.919 E10.51743
G0 F6000 X84.412 Y60.147
G1 F1200 X84.849 Y59.56 E10.54177
G1 X84.941 Y59.445 E10.54667
G1 X85.711 Y58.583 E10.58511
G1 X86.045 Y58.248 E10.60085
G1 X86.951 Y57.438 E10.64127
G1 X87.142 Y57.286 E10.64939
G1 X87.978 Y56.685 E10.68363
G1 X88.248 Y56.51 E10.69433
G1 X89.164 Y55.979 E10.72955
G1 X89.407 Y55.854 E10.73864
G1 X90.343 Y55.429 E10.77283
G1 X90.63 Y55.315 E10.7831
G1 X91.581 Y54.988 E10.81655
G1 X91.77 Y54.933 E10.82309
G1 X92.688 Y54.71 E10.85451
G1 X93.09 Y54.631 E10.86814
G1 X94.264 Y54.468 E10.90756
G1 X94.742 Y54.436 E10.9235
G1 X95.075 Y54.421 E10.93458
G1 X95.395 Y54.411 E10.94523
G1 X96.227 Y54.4 E10.97291
G1 X123.802 Y54.4 E11.89005
G1 X124.402 Y54.407 E11.91001
G1 X124.781 Y54.419 E11.92262
G1 X125.375 Y54.448 E11.9424
G1 X126.292 Y54.532 E11.97303
G1 X126.929 Y54.639 E11.99451
G1 X127.416 Y54.736 E12.01103
G1 X128.625 Y55.052 E12.05259
G1 X128.834 Y55.12 E12.0599
G1 X129.825 Y55.499 E12.09519
G1 X130.093 Y55.617 E12.10493
G1 X130.942 Y56.036 E12.13642
G1 X131.194 Y56.175 E12.14599
G1 X132.09 Y56.73 E12.18105
G1 X132.325 Y56.892 E12.19054
G1 X132.914 Y57.329 E12.21493
G1 X133.037 Y57.427 E12.22017
G1 X133.916 Y58.211 E12.25934
G1 X134.252 Y58.546 E12.27512
G1 X135.066 Y59.457 E12.31575
G1 X135.217 Y59.647 E12.32383
G1 X135.809 Y60.469 E12.35752
G1 X135.985 Y60.74 E12.36827
G1 X136.505 Y61.632 E12.40261
G1 X136.63 Y61.873 E12.41164
G1 X137.078 Y62.859 E12.44766
G1 X137.191 Y63.145 E12.45789
G1 X137.495 Y64.023 E12.48879
G1 X137.552 Y64.215 E12.49545
G1 X137.795 Y65.208 E12.52945
G1 X137.866 Y65.573 E12.54182
G1 X137.986 Y66.342 E12.56771
G1 X137.999 Y66.451 E12.57136
G1 X138.063 Y67.214 E12.59682
G1 X138.079 Y67.558 E12.60828
G1 X138.089 Y67.893 E12.61943
G1 X138.1 Y68.727 E12.64717
G1 X138.099 Y76.44 E12.9037
G1 X138.093 Y76.901 E12.91904
G1 X138.081 Y77.279 E12.93162
G1 X138.052 Y77.874 E12.95143
G1 X137.968 Y78.791 E12.98206
G1 X137.856 Y79.453 E13.00439
G1 X137.757 Y79.944 E13.02105
G1 X137.555 Y80.772 E13.04939
G1 X137.487 Y81.009 E13.05759
G1 X137.367 Y81.398 E13.07113
G1 X136.749 Y83.277 E13.13692
G1 X136.037 Y85.671 E13.21999
G1 X135.37 Y88.163 E13.3058
G1 X134.788 Y90.614 E13.38958
G1 X134.284 Y93.051 E13.47235
G1 X133.834 Y95.577 E13.55769
G1 X133.463 Y98.063 E13.64129
G1 X133.162 Y100.563 E13.72504
G1 X132.931 Y103.09 E13.80944
G1 X132.769 Y105.645 E13.89459
G1 X132.682 Y108.116 E13.97683
G1 X132.666 Y110.662 E14.06151
G1 X132.721 Y113.211 E14.14631
G1 X132.847 Y115.739 E14.2305
G1 X133.044 Y118.238 E14.31387
G1 X133.314 Y120.771 E14.3986
G1 X133.652 Y123.258 E14.48208
G1 X134.06 Y125.738 E14.56567
G1 X134.549 Y128.26 E14.65111
G1 X135.089 Y130.678 E14.73352
G1 X135.711 Y133.142 E14.81804
G1 X136.399 Y135.565 E14.90182
G1 X137.057 Y137.624 E14.97371
G1 X137.488 Y139 E15.02167
G1 X137.628 Y139.486 E15.03849
G1 X137.645 Y139.551 E15.04073
G1 X137.792 Y140.191 E15.06257
G1 X137.866 Y140.568 E15.07534
G1 X138.003 Y141.479 E15.10599
G1 X138.052 Y142.103 E15.1268
G1 X138.082 Y142.729 E15.14765
G1 X138.093 Y143.088 E15.15959
G1 X138.1 Y143.665 E15.17879
G1 X138.099 Y151.44 E15.43738
G1 X138.093 Y151.902 E15.45275
G1 X138.082 Y152.267 E15.4649
G1 X138.054 Y152.856 E15.48451
G1 X137.97 Y153.773 E15.51514
G1 X137.862 Y154.424 E15.53709
G1 X137.764 Y154.916 E15.55377
G1 X137.434 Y156.168 E15.59683
G1 X137.366 Y156.374 E15.60405
G1 X137.024 Y157.27 E15.63595
G1 X136.906 Y157.542 E15.64581
G1 X136.445 Y158.477 E15.68048
G1 X136.307 Y158.725 E15.68992
G1 X135.946 Y159.326 E15.71324
G1 X135.871 Y159.442 E15.71783
G1 X135.153 Y160.424 E15.7583
G1 X134.897 Y160.735 E15.77169
G1 X134.208 Y161.493 E15.80576
G1 X133.907 Y161.794 E15.81992
G1 X132.913 Y162.671 E15.86401
G1 X132.743 Y162.803 E15.87117
G1 X131.978 Y163.345 E15.90235
G1 X131.734 Y163.502 E15.912
G1 X130.886 Y163.994 E15.94461
G1 X130.632 Y164.126 E15.95413
G1 X129.645 Y164.576 E15.99021
G1 X129.362 Y164.688 E16.00033
G1 X128.565 Y164.967 E16.02842
G1 X128.454 Y165.001 E16.03228
G1 X127.463 Y165.253 E16.06629
G1 X126.991 Y165.349 E16.08231
G1 X126.102 Y165.491 E16.11225
G1 X125.362 Y165.554 E16.13695
G1 X124.86 Y165.579 E16.15367
G1 X124.484 Y165.591 E16.16618
G1 X123.773 Y165.6 E16.18983
G1 X96.06 Y165.599 E17.11157
G1 X95.598 Y165.593 E17.12694
G1 X95.219 Y165.581 E17.13955
G1 X94.605 Y165.551 E17.16
G1 X93.688 Y165.467 E17.19062
G1 X93.039 Y165.357 E17.21252
G1 X92.6 Y165.269 E17.22741
G1 X91.446 Y164.97 E17.26706
G1 X91.209 Y164.894 E17.27534
G1 X90.175 Y164.501 E17.31213
G1 X89.907 Y164.383 E17.32187
G1 X89.052 Y163.96 E17.35359
G1 X88.804 Y163.823 E17.36302
G1 X87.965 Y163.308 E17.39576
G1 X87.727 Y163.146 E17.40534
G1 X87.01 Y162.612 E17.43507
G1 X86.877 Y162.504 E17.44077
G1 X86.053 Y161.759 E17.47772
G1 X85.717 Y161.422 E17.49354
G1 X84.896 Y160.497 E17.53468
G1 X84.755 Y160.318 E17.54226
G1 X84.197 Y159.54 E17.5741
G1 X84.02 Y159.268 E17.5849
G1 X83.479 Y158.335 E17.62077
G1 X83.353 Y158.09 E17.62993
G1 X82.928 Y157.155 E17.66409
G1 X82.814 Y156.868 E17.67436
G1 X82.515 Y156.01 E17.70458
G1 X82.484 Y155.907 E17.70816
G1 X82.243 Y154.946 E17.74111
G1 X82.138 Y154.425 E17.75879
G1 X81.995 Y153.516 E17.7894
G1 X81.942 Y152.859 E17.81132
G1 X81.923 Y152.478 E17.82401
G1 X81.911 Y152.107 E17.83635
G1 X81.9 Y151.273 E17.86409
G1 X81.901 Y143.516 E18.12209
G1 X81.907 Y143.088 E18.13633
G1 X81.919 Y142.721 E18.14854
G1 X81.948 Y142.126 E18.16836
G1 X82.032 Y141.209 E18.19898
G1 X82.143 Y140.551 E18.22118
G1 X82.241 Y140.064 E18.2377
G1 X82.441 Y139.243 E18.2658
G1 X82.503 Y139.026 E18.27331
G1 X82.621 Y138.642 E18.28667
G1 X83.269 Y136.661 E18.356
G1 X83.983 Y134.256 E18.43944
G1 X84.638 Y131.797 E18.52408
G1 X85.232 Y129.293 E18.60967
G1 X85.732 Y126.862 E18.69222
G1 X86.175 Y124.362 E18.77666
G1 X86.545 Y121.871 E18.86042
G1 X86.848 Y119.335 E18.94537
G1 X87.075 Y116.835 E19.02886
G1 X87.231 Y114.331 E19.11231
G1 X87.318 Y111.787 E19.19697
G1 X87.333 Y109.239 E19.28172
G1 X87.276 Y106.73 E19.36519
G1 X87.148 Y104.213 E19.44902
G1 X86.948 Y101.683 E19.53343
G1 X86.675 Y99.153 E19.61806
G1 X86.336 Y96.67 E19.70141
G1 X85.924 Y94.175 E19.78552
G1 X85.441 Y91.695 E19.86956
G1 X84.888 Y89.228 E19.95365
G1 X84.267 Y86.779 E20.03768
G1 X83.573 Y84.34 E20.12202
G1 X82.85 Y82.082 E20.20088
G1 X82.516 Y81.013 E20.23813
G1 X82.241 Y79.935 E20.27513
G1 X82.142 Y79.441 E20.29189
G1 X82 Y78.531 E20.32252
G1 X81.948 Y77.875 E20.34441
G1 X81.919 Y77.281 E20.36419
G1 X81.907 Y76.902 E20.3768
G1 X81.9 Y76.302 E20.39676
G1 X81.901 Y68.517 E20.65569
G1 X81.907 Y68.088 E20.66996
G1 X81.919 Y67.719 E20.68224
G1 X81.948 Y67.125 E20.70202
G1 X82.032 Y66.208 E20.73264
G1 X82.142 Y65.555 E20.75467
G1 X82.24 Y65.067 E20.77122
G1 X82.544 Y63.904 E20.8112
G1 X82.611 Y63.696 E20.81847
G1 X82.999 Y62.675 E20.8548
G1 X83.117 Y62.407 E20.86454
G1 X83.536 Y61.558 E20.89603
G1 X83.675 Y61.306 E20.9056
G1 X84.243 Y60.391 E20.94142
G1 X84.412 Y60.147 E20.95129
G0 F6000 X84.741 Y60.374
G1 F1200 X85.161 Y59.81 E20.97468
G1 X85.253 Y59.695 E20.97958
G1 X85.995 Y58.865 E21.01661
G1 X86.329 Y58.53 E21.03234
G1 X87.201 Y57.751 E21.07123
G1 X87.392 Y57.599 E21.07935
G1 X88.195 Y57.021 E21.11226
G1 X88.465 Y56.846 E21.12296
G1 X89.347 Y56.335 E21.15686
G1 X89.59 Y56.21 E21.16595
G1 X90.491 Y55.8 E21.19888
G1 X90.778 Y55.686 E21.20915
G1 X91.693 Y55.372 E21.24132
G1 X91.882 Y55.317 E21.24787
G1 X92.765 Y55.102 E21.2781
G1 X93.167 Y55.023 E21.29172
G1 X94.297 Y54.866 E21.32967
G1 X94.76 Y54.835 E21.3451
G1 X95.093 Y54.82 E21.35619
G1 X95.401 Y54.811 E21.36644
G1 X96.227 Y54.8 E21.39391
G1 X123.802 Y54.8 E22.31106
G1 X124.396 Y54.807 E22.33082
G1 X124.761 Y54.818 E22.34296
G1 X125.355 Y54.847 E22.36274
G1 X126.255 Y54.931 E22.39281
G1 X126.85 Y55.032 E22.41288
G1 X127.337 Y55.129 E22.4294
G1 X128.501 Y55.432 E22.4694
G1 X128.71 Y55.5 E22.47671
G1 X129.664 Y55.865 E22.51069
G1 X129.932 Y55.983 E22.52043
G1 X130.748 Y56.387 E22.55071
G1 X131 Y56.526 E22.56028
G1 X131.863 Y57.059 E22.59402
G1 X132.098 Y57.221 E22.60351
G1 X132.665 Y57.641 E22.62698
G1 X132.788 Y57.739 E22.63221
G1 X133.634 Y58.494 E22.66993
G1 X133.97 Y58.829 E22.68571
G1 X134.753 Y59.706 E22.72481
G1 X134.904 Y59.896 E22.73288
G1 X135.473 Y60.686 E22.76526
G1 X135.649 Y60.957 E22.77601
G1 X136.15 Y61.817 E22.80911
G1 X136.275 Y62.058 E22.81814
G1 X136.706 Y63.006 E22.85278
G1 X136.819 Y63.292 E22.86301
G1 X137.111 Y64.137 E22.89274
G1 X137.168 Y64.329 E22.8994
G1 X137.402 Y65.284 E22.93211
G1 X137.473 Y65.649 E22.94448
G1 X137.589 Y66.389 E22.96939
G1 X137.602 Y66.498 E22.97304
G1 X137.663 Y67.232 E22.99754
G1 X137.679 Y67.576 E23.00899
G1 X137.689 Y67.899 E23.01974
