;FLAVOR:Marlin
;TIME:1403
;Filament used: 0.686022m
;Layer height: 0.16
;MINX:84.801
;MINY:84.801
;MINZ:0.2
;MAXX:135.199
;MAXY:135.199
;MAXZ:11.96
;TARGET_MACHINE.NAME:Creality Ender-3 Pro
;Generated with Cura_SteamEngine 5.9.0
M140 S60
M105
M190 S60
M104 S200
M105
M109 S200
M82 ;absolute extrusion mode
; Ender 3 Custom Start G-code
G92 E0 ; Reset Extruder
G28G29 ; Home all axes and set bed height
G1 Z2.0 F3000 ; Move Z Axis up little to prevent scratching of Heat Bed
G1 X0.1 Y20 Z0.3 F5000.0 ; Move to start position
G1 X0.1 Y200.0 Z0.3 F1500.0 E15 ; Draw the first line
G1 X0.4 Y200.0 Z0.3 F5000.0 ; Move to side a little
G1 X0.4 Y20 Z0.3 F1500.0 E30 ; Draw the second line
G92 E0 ; Reset Extruder
G1 Z2.0 F3000 ; Move Z Axis up little to prevent scratching of Heat Bed
G1 X5 Y20 Z0.3 F5000.0 ; Move over to prevent blob squish
G92 E0
G92 E0
G1 F1500 E-6.5
;LAYER_COUNT:63
;LAYER:0
M107
G0 F6000 X112.738 Y135.047 Z0.2
;TYPE:SKIRT
G1 F1500 E0
G1 F1200 X112.217 Y135.096 E0.01741
G1 X111.128 Y135.17 E0.05371
G1 X110.286 Y135.199 E0.08173
G1 X109.498 Y135.193 E0.10794
G1 X108.433 Y135.14 E0.14341
G1 X107.427 Y135.061 E0.17697
G1 X106.817 Y134.992 E0.19739
G1 X104.939 Y134.688 E0.26066
G1 X104.48 Y134.587 E0.27629
G1 X103.291 Y134.281 E0.31713
G1 X102.231 Y133.971 E0.35386
G1 X101.746 Y133.803 E0.37093
G1 X100.721 Y133.418 E0.40735
G1 X99.77 Y133.026 E0.44156
G1 X99.209 Y132.763 E0.46217
G1 X97.517 Y131.9 E0.52534
G1 X97.227 Y131.731 E0.53651
G1 X96.087 Y130.998 E0.58159
G1 X95.267 Y130.443 E0.61452
G1 X94.81 Y130.104 E0.63344
G1 X93.982 Y129.443 E0.66868
G1 X93.275 Y128.853 E0.69931
G1 X92.749 Y128.366 E0.72315
G1 X91.473 Y127.079 E0.78343
G1 X91.011 Y126.558 E0.80659
G1 X90.32 Y125.722 E0.84266
G1 X89.698 Y124.932 E0.87611
G1 X89.415 Y124.537 E0.89227
G1 X88.762 Y123.546 E0.93174
G1 X88.216 Y122.662 E0.9663
G1 X87.944 Y122.175 E0.98485
G1 X87.465 Y121.252 E1.01944
G1 X87.06 Y120.428 E1.04998
G1 X86.818 Y119.87 E1.07021
G1 X86.42 Y118.862 E1.10625
G1 X86.07 Y117.896 E1.14042
G1 X85.919 Y117.408 E1.15741
G1 X85.612 Y116.319 E1.19505
G1 X85.357 Y115.307 E1.22976
G1 X85.303 Y115.048 E1.23856
G1 X84.951 Y112.783 E1.3148
G1 X84.923 Y112.52 E1.32359
G1 X84.801 Y110.112 E1.40379
G1 X84.807 Y109.498 E1.42421
G1 X84.86 Y108.433 E1.45967
G1 X84.939 Y107.427 E1.49324
G1 X85.008 Y106.817 E1.51366
G1 X85.312 Y104.939 E1.57693
G1 X85.413 Y104.48 E1.59256
G1 X85.719 Y103.291 E1.6334
G1 X86.029 Y102.231 E1.67013
G1 X86.197 Y101.746 E1.6872
G1 X86.582 Y100.721 E1.72362
G1 X86.974 Y99.77 E1.75783
G1 X87.237 Y99.209 E1.77844
G1 X88.1 Y97.517 E1.84161
G1 X88.269 Y97.227 E1.85278
G1 X89.002 Y96.087 E1.89785
G1 X89.557 Y95.267 E1.93079
G1 X89.896 Y94.81 E1.94971
G1 X90.557 Y93.982 E1.98495
G1 X91.147 Y93.275 E2.01558
G1 X91.634 Y92.749 E2.03942
G1 X92.921 Y91.473 E2.0997
G1 X93.442 Y91.011 E2.12286
G1 X94.278 Y90.32 E2.15893
G1 X95.068 Y89.698 E2.19238
G1 X95.463 Y89.415 E2.20854
G1 X96.454 Y88.762 E2.24801
G1 X97.338 Y88.216 E2.28257
G1 X97.825 Y87.944 E2.30112
G1 X98.748 Y87.465 E2.33571
G1 X99.572 Y87.06 E2.36625
G1 X100.13 Y86.818 E2.38647
G1 X101.138 Y86.42 E2.42252
G1 X102.104 Y86.07 E2.45669
G1 X102.592 Y85.919 E2.47368
G1 X103.681 Y85.612 E2.51132
G1 X104.693 Y85.357 E2.54603
G1 X104.974 Y85.299 E2.55557
G1 X107.262 Y84.953 E2.63253
G1 X107.783 Y84.904 E2.64994
G1 X108.857 Y84.83 E2.68575
G1 X109.544 Y84.801 E2.70862
G1 X110.382 Y84.801 E2.73649
G1 X111.567 Y84.86 E2.77595
G1 X112.573 Y84.939 E2.80951
G1 X113.183 Y85.008 E2.82993
G1 X115.061 Y85.312 E2.89321
G1 X115.52 Y85.413 E2.90884
G1 X116.709 Y85.719 E2.94967
G1 X117.769 Y86.029 E2.9864
G1 X118.254 Y86.197 E3.00348
G1 X119.279 Y86.582 E3.03989
G1 X120.23 Y86.974 E3.07411
G1 X120.791 Y87.237 E3.09471
G1 X122.483 Y88.1 E3.15789
G1 X122.773 Y88.269 E3.16905
G1 X123.913 Y89.002 E3.21413
G1 X124.733 Y89.557 E3.24706
G1 X125.19 Y89.896 E3.26599
G1 X126.018 Y90.557 E3.30123
G1 X126.725 Y91.147 E3.33185
G1 X127.251 Y91.634 E3.35569
G1 X128.527 Y92.921 E3.41597
G1 X128.989 Y93.442 E3.43913
G1 X129.68 Y94.278 E3.47521
G1 X130.302 Y95.068 E3.50865
G1 X130.585 Y95.463 E3.52481
G1 X131.238 Y96.454 E3.56428
G1 X131.784 Y97.338 E3.59884
G1 X132.056 Y97.825 E3.6174
G1 X132.535 Y98.748 E3.65198
G1 X132.94 Y99.572 E3.68252
G1 X133.182 Y100.13 E3.70275
G1 X133.58 Y101.138 E3.73879
G1 X133.93 Y102.104 E3.77297
G1 X134.081 Y102.592 E3.78996
G1 X134.388 Y103.681 E3.82759
G1 X134.643 Y104.693 E3.8623
G1 X134.701 Y104.974 E3.87184
G1 X135.047 Y107.262 E3.94881
G1 X135.096 Y107.783 E3.96621
G1 X135.17 Y108.872 E4.00252
G1 X135.199 Y109.714 E4.03054
G1 X135.193 Y110.503 E4.05678
G1 X135.14 Y111.569 E4.09228
G1 X135.061 Y112.573 E4.12578
G1 X134.992 Y113.183 E4.1462
G1 X134.688 Y115.061 E4.20947
G1 X134.587 Y115.52 E4.2251
G1 X134.281 Y116.709 E4.26594
G1 X133.971 Y117.769 E4.30267
G1 X133.803 Y118.254 E4.31974
G1 X133.418 Y119.279 E4.35616
G1 X133.026 Y120.23 E4.39037
G1 X132.763 Y120.791 E4.41098
G1 X131.9 Y122.483 E4.47415
G1 X131.731 Y122.773 E4.48532
G1 X130.998 Y123.913 E4.53039
G1 X130.443 Y124.733 E4.56333
G1 X130.104 Y125.19 E4.58225
G1 X129.443 Y126.018 E4.61749
G1 X128.853 Y126.725 E4.64812
G1 X128.366 Y127.251 E4.67196
G1 X127.079 Y128.527 E4.73224
G1 X126.558 Y128.989 E4.7554
G1 X125.722 Y129.68 E4.79147
G1 X124.932 Y130.302 E4.82492
G1 X124.537 Y130.585 E4.84108
G1 X123.546 Y131.238 E4.88055
G1 X122.662 Y131.784 E4.91511
G1 X122.175 Y132.056 E4.93366
G1 X121.252 Y132.535 E4.96825
G1 X120.428 Y132.94 E4.99879
G1 X119.87 Y133.182 E5.01902
G1 X118.862 Y133.58 E5.05506
G1 X117.896 Y133.93 E5.08923
G1 X117.408 Y134.081 E5.10622
G1 X116.319 Y134.388 E5.14386
G1 X115.307 Y134.643 E5.17857
G1 X115.026 Y134.701 E5.18811
G1 X112.738 Y135.047 E5.26507
G0 F6000 X112.678 Y134.651
G1 F1200 X112.19 Y134.697 E5.28138
G1 X111.114 Y134.77 E5.31725
G1 X110.289 Y134.799 E5.3447
G1 X109.518 Y134.794 E5.37035
G1 X108.464 Y134.741 E5.40545
G1 X107.472 Y134.664 E5.43854
G1 X106.881 Y134.597 E5.45832
G1 X105.024 Y134.297 E5.52089
G1 X104.58 Y134.2 E5.53601
G1 X103.403 Y133.897 E5.57643
G1 X102.362 Y133.593 E5.6125
G1 X101.887 Y133.429 E5.62921
G1 X100.873 Y133.048 E5.66524
G1 X99.94 Y132.664 E5.6988
G1 X99.391 Y132.407 E5.71896
G1 X97.718 Y131.554 E5.78142
G1 X97.428 Y131.385 E5.79258
G1 X96.311 Y130.667 E5.83675
G1 X95.505 Y130.122 E5.86911
G1 X95.059 Y129.791 E5.88758
G1 X94.238 Y129.136 E5.92251
G1 X93.547 Y128.56 E5.95243
G1 X93.033 Y128.084 E5.97573
G1 X91.757 Y126.797 E6.03601
G1 X91.319 Y126.303 E6.05797
G1 X90.634 Y125.475 E6.09371
G1 X90.023 Y124.699 E6.12656
G1 X89.749 Y124.317 E6.1422
G1 X89.102 Y123.336 E6.18128
G1 X88.565 Y122.467 E6.21526
G1 X88.299 Y121.991 E6.2334
G1 X87.824 Y121.075 E6.26772
G1 X87.427 Y120.269 E6.2976
G1 X87.19 Y119.723 E6.3174
G1 X86.796 Y118.725 E6.35308
G1 X86.452 Y117.778 E6.38659
G1 X86.304 Y117.3 E6.40324
G1 X86 Y116.221 E6.44052
G1 X85.749 Y115.225 E6.47468
G1 X85.695 Y114.966 E6.48348
G1 X85.349 Y112.741 E6.55838
G1 X85.321 Y112.478 E6.56717
G1 X85.201 Y110.115 E6.64587
G1 X85.206 Y109.518 E6.66573
G1 X85.259 Y108.464 E6.70083
G1 X85.336 Y107.472 E6.73392
G1 X85.403 Y106.881 E6.7537
G1 X85.703 Y105.024 E6.81627
G1 X85.8 Y104.58 E6.83138
G1 X86.103 Y103.403 E6.87181
G1 X86.407 Y102.362 E6.90788
G1 X86.571 Y101.887 E6.92459
G1 X86.952 Y100.873 E6.96062
G1 X87.336 Y99.94 E6.99418
G1 X87.593 Y99.391 E7.01434
G1 X88.446 Y97.718 E7.0768
G1 X88.615 Y97.428 E7.08796
G1 X89.333 Y96.311 E7.13213
G1 X89.878 Y95.505 E7.16449
G1 X90.209 Y95.059 E7.18296
G1 X90.864 Y94.238 E7.21789
G1 X91.44 Y93.547 E7.24781
G1 X91.916 Y93.033 E7.27111
G1 X93.203 Y91.757 E7.33139
G1 X93.697 Y91.319 E7.35335
G1 X94.525 Y90.634 E7.38909
G1 X95.301 Y90.023 E7.42194
G1 X95.683 Y89.749 E7.43758
G1 X96.664 Y89.102 E7.47666
G1 X97.533 Y88.565 E7.51064
G1 X98.009 Y88.299 E7.52878
G1 X98.925 Y87.824 E7.56309
G1 X99.731 Y87.427 E7.59298
G1 X100.277 Y87.19 E7.61277
G1 X101.275 Y86.796 E7.64846
G1 X102.222 Y86.452 E7.68197
G1 X102.7 Y86.304 E7.69862
G1 X103.779 Y86 E7.7359
G1 X104.775 Y85.749 E7.77006
G1 X105.034 Y85.695 E7.77886
G1 X107.322 Y85.349 E7.85583
G1 X107.81 Y85.303 E7.87213
G1 X108.874 Y85.23 E7.9076
G1 X109.561 Y85.201 E7.93047
G1 X110.382 Y85.201 E7.95778
G1 X111.536 Y85.259 E7.99621
G1 X112.528 Y85.336 E8.0293
G1 X113.119 Y85.403 E8.04909
G1 X114.976 Y85.703 E8.11165
G1 X115.42 Y85.8 E8.12677
G1 X116.597 Y86.103 E8.16719
G1 X117.638 Y86.407 E8.20326
G1 X118.113 Y86.571 E8.21997
G1 X119.127 Y86.952 E8.256
G1 X120.06 Y87.336 E8.28956
G1 X120.609 Y87.593 E8.30972
G1 X122.282 Y88.446 E8.37218
G1 X122.572 Y88.615 E8.38334
G1 X123.689 Y89.333 E8.42751
G1 X124.495 Y89.878 E8.45987
G1 X124.941 Y90.209 E8.47834
G1 X125.762 Y90.864 E8.51327
G1 X126.453 Y91.44 E8.54319
G1 X126.967 Y91.916 E8.56649
G1 X128.243 Y93.203 E8.62677
G1 X128.681 Y93.697 E8.64873
G1 X129.366 Y94.525 E8.68447
G1 X129.977 Y95.301 E8.71732
G1 X130.251 Y95.683 E8.73296
G1 X130.898 Y96.664 E8.77205
G1 X131.435 Y97.533 E8.80602
G1 X131.701 Y98.009 E8.82416
G1 X132.176 Y98.925 E8.85848
G1 X132.573 Y99.731 E8.88836
G1 X132.81 Y100.277 E8.90816
G1 X133.204 Y101.275 E8.94384
G1 X133.548 Y102.222 E8.97735
G1 X133.696 Y102.7 E8.994
G1 X134 Y103.779 E9.03128
G1 X134.251 Y104.775 E9.06545
G1 X134.305 Y105.034 E9.07424
G1 X134.651 Y107.322 E9.15121
G1 X134.697 Y107.81 E9.16751
G1 X134.77 Y108.886 E9.20338
G1 X134.799 Y109.711 E9.23084
G1 X134.794 Y110.483 E9.25652
G1 X134.741 Y111.538 E9.29165
G1 X134.664 Y112.528 E9.32468
G1 X134.597 Y113.119 E9.34446
G1 X134.297 Y114.976 E9.40702
G1 X134.2 Y115.42 E9.42214
G1 X133.897 Y116.597 E9.46256
G1 X133.593 Y117.638 E9.49863
G1 X133.429 Y118.113 E9.51535
G1 X133.048 Y119.127 E9.55138
G1 X132.664 Y120.06 E9.58493
G1 X132.407 Y120.609 E9.60509
G1 X131.554 Y122.282 E9.66755
G1 X131.385 Y122.572 E9.67872
G1 X130.667 Y123.689 E9.72288
G1 X130.122 Y124.495 E9.75524
G1 X129.791 Y124.941 E9.77372
G1 X129.136 Y125.762 E9.80865
G1 X128.56 Y126.453 E9.83857
G1 X128.084 Y126.967 E9.86187
G1 X126.797 Y128.243 E9.92215
G1 X126.303 Y128.681 E9.94411
G1 X125.475 Y129.366 E9.97985
G1 X124.699 Y129.977 E10.0127
G1 X124.317 Y130.251 E10.02833
G1 X123.336 Y130.898 E10.06742
G1 X122.467 Y131.435 E10.1014
G1 X121.991 Y131.701 E10.11953
G1 X121.075 Y132.176 E10.15385
G1 X120.269 Y132.573 E10.18373
G1 X119.723 Y132.81 E10.20353
G1 X118.725 Y133.204 E10.23922
G1 X117.778 Y133.548 E10.27273
G1 X117.3 Y133.696 E10.28937
G1 X116.221 Y134 E10.32666
G1 X115.225 Y134.251 E10.36082
G1 X114.966 Y134.305 E10.36962
G1 X112.678 Y134.651 E10.44658
G0 F6000 X112.641 Y134.253
G1 F1200 X112.163 Y134.298 E10.46255
G1 X111.1 Y134.37 E10.49799
G1 X110.292 Y134.399 E10.52488
G1 X109.538 Y134.394 E10.54996
G1 X108.495 Y134.342 E10.58469
G1 X107.517 Y134.267 E10.61732
G1 X106.945 Y134.202 E10.63646
G1 X105.109 Y133.906 E10.69832
G1 X104.68 Y133.813 E10.71292
G1 X103.515 Y133.513 E10.75293
G1 X102.492 Y133.215 E10.78837
G1 X102.028 Y133.055 E10.80469
G1 X101.025 Y132.678 E10.84033
G1 X100.109 Y132.301 E10.87328
G1 X99.573 Y132.051 E10.89295
G1 X97.919 Y131.208 E10.95469
G1 X97.644 Y131.048 E10.96528
G1 X96.535 Y130.336 E11.00911
G1 X95.743 Y129.8 E11.04092
G1 X95.308 Y129.478 E11.05892
G1 X94.494 Y128.829 E11.09354
G1 X93.819 Y128.267 E11.12276
G1 X93.317 Y127.802 E11.14552
G1 X92.041 Y126.515 E11.20579
G1 X91.627 Y126.048 E11.22655
G1 X90.948 Y125.227 E11.26199
G1 X90.348 Y124.466 E11.29422
G1 X90.083 Y124.097 E11.30933
G1 X89.442 Y123.126 E11.34803
G1 X88.914 Y122.272 E11.38142
G1 X88.654 Y121.807 E11.39914
G1 X88.183 Y120.898 E11.43319
G1 X87.794 Y120.11 E11.46242
G1 X87.562 Y119.576 E11.48179
G1 X87.172 Y118.588 E11.51711
G1 X86.834 Y117.66 E11.54996
G1 X86.689 Y117.192 E11.56626
G1 X86.388 Y116.123 E11.6032
G1 X86.141 Y115.143 E11.63681
G1 X86.087 Y114.884 E11.64561
G1 X85.747 Y112.699 E11.71916
G1 X85.719 Y112.436 E11.72795
G1 X85.601 Y110.118 E11.80515
G1 X85.606 Y109.538 E11.82444
G1 X85.658 Y108.495 E11.85918
G1 X85.733 Y107.517 E11.8918
G1 X85.798 Y106.945 E11.91095
G1 X86.094 Y105.109 E11.9728
G1 X86.187 Y104.68 E11.9874
G1 X86.487 Y103.515 E12.02741
G1 X86.785 Y102.492 E12.06285
G1 X86.945 Y102.028 E12.07918
G1 X87.322 Y101.025 E12.11482
G1 X87.699 Y100.109 E12.14776
G1 X87.949 Y99.573 E12.16743
G1 X88.792 Y97.919 E12.22918
G1 X88.952 Y97.644 E12.23976
G1 X89.664 Y96.535 E12.28359
G1 X90.2 Y95.743 E12.3154
G1 X90.522 Y95.308 E12.3334
G1 X91.171 Y94.494 E12.36803
G1 X91.733 Y93.819 E12.39724
G1 X92.198 Y93.317 E12.42
G1 X93.485 Y92.041 E12.48028
G1 X93.952 Y91.627 E12.50104
G1 X94.773 Y90.948 E12.53647
G1 X95.534 Y90.348 E12.5687
G1 X95.903 Y90.083 E12.58381
G1 X96.874 Y89.442 E12.62251
G1 X97.728 Y88.914 E12.65591
G1 X98.193 Y88.654 E12.67363
G1 X99.102 Y88.183 E12.70768
G1 X99.89 Y87.794 E12.7369
G1 X100.424 Y87.562 E12.75627
G1 X101.412 Y87.172 E12.7916
G1 X102.34 Y86.834 E12.82445
G1 X102.808 Y86.689 E12.84074
G1 X103.877 Y86.388 E12.87768
G1 X104.857 Y86.141 E12.91129
G1 X105.116 Y86.087 E12.92009
G1 X107.359 Y85.747 E12.99555
G1 X107.837 Y85.702 E13.01152
G1 X108.891 Y85.63 E13.04666
G1 X109.578 Y85.601 E13.06953
G1 X110.362 Y85.601 E13.0956
G1 X111.505 Y85.658 E13.13367
G1 X112.483 Y85.733 E13.16629
G1 X113.055 Y85.798 E13.18544
G1 X114.891 Y86.094 E13.24729
G1 X115.32 Y86.187 E13.26189
G1 X116.485 Y86.487 E13.3019
G1 X117.508 Y86.785 E13.33734
G1 X117.972 Y86.945 E13.35367
G1 X118.975 Y87.322 E13.3893
G1 X119.891 Y87.699 E13.42225
G1 X120.427 Y87.949 E13.44192
G1 X122.081 Y88.792 E13.50367
G1 X122.356 Y88.952 E13.51425
G1 X123.465 Y89.664 E13.55808
G1 X124.257 Y90.2 E13.58989
G1 X124.692 Y90.522 E13.60789
G1 X125.506 Y91.171 E13.64252
G1 X126.181 Y91.733 E13.67173
G1 X126.683 Y92.198 E13.69449
G1 X127.959 Y93.485 E13.75477
G1 X128.373 Y93.952 E13.77552
G1 X129.052 Y94.773 E13.81096
G1 X129.652 Y95.534 E13.84319
G1 X129.917 Y95.903 E13.8583
G1 X130.558 Y96.874 E13.897
G1 X131.086 Y97.728 E13.93039
G1 X131.346 Y98.193 E13.94811
G1 X131.817 Y99.102 E13.98216
G1 X132.206 Y99.89 E14.01139
G1 X132.438 Y100.424 E14.03076
G1 X132.828 Y101.412 E14.06609
G1 X133.166 Y102.34 E14.09894
G1 X133.311 Y102.808 E14.11523
G1 X133.612 Y103.877 E14.15217
G1 X133.859 Y104.857 E14.18578
G1 X133.913 Y105.116 E14.19458
G1 X134.253 Y107.359 E14.27004
G1 X134.298 Y107.837 E14.28601
G1 X134.37 Y108.9 E14.32144
G1 X134.399 Y109.708 E14.34833
G1 X134.394 Y110.463 E14.37345
G1 X134.342 Y111.507 E14.40821
G1 X134.267 Y112.483 E14.44077
G1 X134.202 Y113.055 E14.45992
G1 X133.906 Y114.891 E14.52177
G1 X133.813 Y115.32 E14.53637
G1 X133.513 Y116.485 E14.57638
G1 X133.215 Y117.508 E14.61182
G1 X133.055 Y117.972 E14.62815
G1 X132.678 Y118.975 E14.66379
G1 X132.301 Y119.891 E14.69673
G1 X132.051 Y120.427 E14.7164
G1 X131.208 Y122.081 E14.77815
G1 X131.048 Y122.356 E14.78873
G1 X130.336 Y123.465 E14.83256
G1 X129.8 Y124.257 E14.86437
G1 X129.478 Y124.692 E14.88237
G1 X128.829 Y125.506 E14.917
G1 X128.267 Y126.181 E14.94621
G1 X127.802 Y126.683 E14.96897
G1 X126.515 Y127.959 E15.02925
G1 X126.048 Y128.373 E15.05001
G1 X125.227 Y129.052 E15.08544
G1 X124.466 Y129.652 E15.11767
G1 X124.097 Y129.917 E15.13278
G1 X123.126 Y130.558 E15.17148
G1 X122.272 Y131.086 E15.20488
G1 X121.807 Y131.346 E15.22259
G1 X120.898 Y131.817 E15.25665
G1 X120.11 Y132.206 E15.28587
G1 X119.576 Y132.438 E15.30524
G1 X118.588 Y132.828 E15.34057
G1 X117.66 Y133.166 E15.37342
G1 X117.192 Y133.311 E15.38971
G1 X116.123 Y133.612 E15.42665
G1 X115.143 Y133.859 E15.46026
G1 X114.884 Y133.913 E15.46906
G1 X112.641 Y134.253 E15.54452
G0 F6000 X112.603 Y133.855
G1 F1200 X112.136 Y133.899 E15.56012
G1 X111.085 Y133.97 E15.59516
G1 X110.294 Y133.999 E15.62148
G1 X109.558 Y133.995 E15.64596
G1 X108.525 Y133.943 E15.68036
G1 X107.562 Y133.87 E15.71248
G1 X107.009 Y133.807 E15.731
G1 X105.193 Y133.515 E15.79217
G1 X104.78 Y133.426 E15.80622
G1 X103.627 Y133.129 E15.84583
G1 X102.622 Y132.837 E15.88063
G1 X102.169 Y132.681 E15.89657
G1 X101.177 Y132.308 E15.93182
G1 X100.278 Y131.939 E15.96414
G1 X99.755 Y131.695 E15.98334
G1 X98.12 Y130.862 E16.04437
G1 X97.86 Y130.711 E16.05437
G1 X96.759 Y130.005 E16.09787
G1 X95.981 Y129.479 E16.1291
G1 X95.557 Y129.165 E16.14665
G1 X94.75 Y128.521 E16.18099
