;FLAVOR:Marlin
;TIME:1268
;Filament used: 0.575014m
;Layer height: 0.16
;MINX:85.781
;MINY:85.773
;MINZ:0.2
;MAXX:134.219
;MAXY:134.219
;MAXZ:15.32
;TARGET_MACHINE.NAME:Creality Ender-3 Pro
;Generated with Cura_SteamEngine 5.9.0
M140 S60
M105
M190 S60
M104 S200
M105
M109 S200
M82 ;absolute extrusion mode
; Ender 3 Custom Start G-code
G92 E0 ; Reset Extruder
G28G29 ; Home all axes and set bed height
G1 Z2.0 F3000 ; Move Z Axis up little to prevent scratching of Heat Bed
G1 X0.1 Y20 Z0.3 F5000.0 ; Move to start position
G1 X0.1 Y200.0 Z0.3 F1500.0 E15 ; Draw the first line
G1 X0.4 Y200.0 Z0.3 F5000.0 ; Move to side a little
G1 X0.4 Y20 Z0.3 F1500.0 E30 ; Draw the second line
G92 E0 ; Reset Extruder
G1 Z2.0 F3000 ; Move Z Axis up little to prevent scratching of Heat Bed
G1 X5 Y20 Z0.3 F5000.0 ; Move over to prevent blob squish
G92 E0
G92 E0
G1 F1500 E-6.5
;LAYER_COUNT:77
;LAYER:0
M107
G0 F6000 X112.209 Y134.143 Z0.2
;TYPE:SKIRT
G1 F1500 E0
G1 F1200 X111.338 Y134.2 E0.02903
G1 X109.118 Y134.219 E0.10287
G1 X108.521 Y134.167 E0.1228
G1 X107.38 Y134.103 E0.16081
G1 X106.22 Y133.949 E0.19973
G1 X104.673 Y133.65 E0.25214
G1 X104.051 Y133.497 E0.27344
G1 X102.399 Y133.013 E0.3307
G1 X101.436 Y132.672 E0.36468
G1 X100.232 Y132.19 E0.40781
G1 X99.009 Y131.605 E0.4529
G1 X98.262 Y131.214 E0.48095
G1 X97.113 Y130.537 E0.5253
G1 X95.818 Y129.663 E0.57727
G1 X95.286 Y129.269 E0.59928
G1 X94.251 Y128.428 E0.64364
G1 X93.821 Y128.055 E0.66257
G1 X92.766 Y127.044 E0.71117
G1 X91.834 Y126.052 E0.75644
G1 X91.562 Y125.717 E0.7708
G1 X91.278 Y125.396 E0.78505
G1 X90.344 Y124.178 E0.8361
G1 X89.854 Y123.493 E0.86412
G1 X89.108 Y122.305 E0.91077
G1 X88.339 Y120.879 E0.96466
G1 X87.878 Y119.918 E1.00011
G1 X87.655 Y119.359 E1.02013
G1 X87.417 Y118.813 E1.03994
G1 X86.929 Y117.447 E1.08818
G1 X86.689 Y116.682 E1.11485
G1 X86.442 Y115.665 E1.14966
G1 X86.328 Y115.238 E1.16436
G1 X86.039 Y113.689 E1.21677
G1 X85.851 Y112.13 E1.26899
G1 X85.827 Y111.598 E1.28671
G1 X85.791 Y111.183 E1.30056
G1 X85.781 Y109.116 E1.36931
G1 X85.841 Y108.432 E1.39215
G1 X85.9 Y107.35 E1.42819
G1 X86.051 Y106.219 E1.46614
G1 X86.372 Y104.575 E1.52185
G1 X86.448 Y104.296 E1.53147
G1 X86.53 Y103.932 E1.54388
G1 X86.966 Y102.454 E1.59513
G1 X87.365 Y101.337 E1.63458
G1 X87.484 Y101.058 E1.64467
G1 X87.702 Y100.488 E1.66497
G1 X88.676 Y98.466 E1.73962
G1 X89.577 Y96.939 E1.79859
G1 X90.352 Y95.804 E1.8443
G1 X90.792 Y95.21 E1.86889
G1 X91.576 Y94.252 E1.91006
G1 X92.574 Y93.189 E1.95855
G1 X93.417 Y92.347 E1.99818
G1 X94.393 Y91.451 E2.04225
G1 X95.795 Y90.363 E2.10127
G1 X96.556 Y89.819 E2.13239
G1 X97.648 Y89.134 E2.17526
G1 X99.157 Y88.321 E2.23227
G1 X99.969 Y87.925 E2.26232
G1 X101.249 Y87.39 E2.30846
G1 X102.54 Y86.93 E2.35404
G1 X103.347 Y86.679 E2.38215
G1 X104.255 Y86.459 E2.41323
G1 X104.756 Y86.326 E2.43047
G1 X106.187 Y86.056 E2.4789
G1 X107.865 Y85.851 E2.53513
G1 X108.335 Y85.828 E2.55078
G1 X108.781 Y85.792 E2.56566
G1 X110.567 Y85.773 E2.62507
G1 X112.592 Y85.892 E2.69254
G1 X113.78 Y86.051 E2.7324
G1 X115.366 Y86.358 E2.78613
G1 X115.897 Y86.488 E2.80431
G1 X117.562 Y86.972 E2.86198
G1 X118.546 Y87.317 E2.89667
G1 X119.084 Y87.544 E2.91609
G1 X119.803 Y87.829 E2.94181
G1 X121.033 Y88.42 E2.9872
G1 X121.738 Y88.786 E3.01362
G1 X122.845 Y89.437 E3.05633
G1 X124.178 Y90.337 E3.10983
G1 X124.756 Y90.765 E3.13375
G1 X125.703 Y91.534 E3.17432
G1 X126.225 Y91.989 E3.19735
G1 X127.239 Y92.957 E3.24398
G1 X128.021 Y93.781 E3.28176
G1 X128.338 Y94.164 E3.2983
G1 X128.686 Y94.556 E3.31573
G1 X129.623 Y95.769 E3.36671
G1 X130.203 Y96.6 E3.40042
G1 X130.502 Y97.093 E3.4196
G1 X130.996 Y97.87 E3.45022
G1 X131.643 Y99.079 E3.49583
G1 X132.108 Y100.054 E3.53176
G1 X132.263 Y100.447 E3.54581
G1 X132.597 Y101.21 E3.57351
G1 X133.034 Y102.44 E3.61693
G1 X133.297 Y103.27 E3.64588
G1 X133.672 Y104.751 E3.6967
G1 X133.944 Y106.195 E3.74557
G1 X134.149 Y107.888 E3.80229
G1 X134.16 Y108.18 E3.81201
G1 X134.206 Y108.71 E3.8297
G1 X134.219 Y110.886 E3.90208
G1 X134.159 Y111.567 E3.92482
G1 X134.1 Y112.65 E3.96089
G1 X133.949 Y113.78 E3.99881
G1 X133.64 Y115.378 E4.05294
G1 X133.515 Y115.885 E4.07031
G1 X132.986 Y117.699 E4.13316
G1 X132.889 Y117.953 E4.1422
G1 X132.731 Y118.418 E4.15853
G1 X132.148 Y119.852 E4.21002
G1 X131.214 Y121.738 E4.28002
G1 X130.537 Y122.887 E4.32438
G1 X129.679 Y124.158 E4.37538
G1 X129.201 Y124.798 E4.40195
G1 X128.128 Y126.105 E4.45819
G1 X127.008 Y127.28 E4.51218
G1 X126.352 Y127.897 E4.54214
G1 X125.875 Y128.299 E4.56288
G1 X125.427 Y128.702 E4.58293
G1 X124.341 Y129.547 E4.62869
G1 X123.576 Y130.09 E4.65989
G1 X122.118 Y130.998 E4.71702
G1 X120.862 Y131.669 E4.76439
G1 X120.024 Y132.078 E4.7954
G1 X118.751 Y132.61 E4.84129
G1 X117.46 Y133.07 E4.88687
G1 X116.653 Y133.321 E4.91498
G1 X115.745 Y133.541 E4.94606
G1 X115.245 Y133.674 E4.96326
G1 X113.816 Y133.944 E5.01163
G1 X112.209 Y134.143 E5.06549
G0 F6000 X112.16 Y133.746
G1 F1200 X111.645 Y133.773 E5.08264
G1 X111.305 Y133.801 E5.09399
G1 X109.152 Y133.82 E5.1656
G1 X108.555 Y133.769 E5.18553
G1 X107.403 Y133.704 E5.22391
G1 X106.296 Y133.556 E5.26105
G1 X104.749 Y133.257 E5.31346
G1 X104.163 Y133.113 E5.33353
G1 X102.532 Y132.636 E5.39005
G1 X101.585 Y132.301 E5.42346
G1 X100.405 Y131.829 E5.46573
G1 X99.194 Y131.25 E5.51037
G1 X98.465 Y130.869 E5.53773
G1 X97.316 Y130.192 E5.58209
G1 X96.056 Y129.341 E5.63266
G1 X95.538 Y128.958 E5.65409
G1 X94.513 Y128.126 E5.698
G1 X94.098 Y127.766 E5.71627
G1 X93.058 Y126.77 E5.76416
G1 X92.126 Y125.778 E5.80943
G1 X91.862 Y125.452 E5.82339
G1 X91.578 Y125.131 E5.83764
G1 X90.669 Y123.945 E5.88734
G1 X90.193 Y123.28 E5.91454
G1 X89.447 Y122.092 E5.9612
G1 X88.7 Y120.706 E6.01357
G1 X88.25 Y119.77 E6.04811
G1 X88.027 Y119.211 E6.06813
G1 X87.794 Y118.678 E6.08747
G1 X87.311 Y117.327 E6.13519
G1 X87.071 Y116.562 E6.16186
G1 X86.831 Y115.571 E6.19577
G1 X86.715 Y115.135 E6.21078
G1 X86.436 Y113.641 E6.26133
G1 X86.251 Y112.112 E6.31256
G1 X86.227 Y111.58 E6.33027
G1 X86.19 Y111.149 E6.34466
G1 X86.18 Y109.15 E6.41114
G1 X86.239 Y108.466 E6.43398
G1 X86.296 Y107.403 E6.46938
G1 X86.444 Y106.296 E6.50653
G1 X86.765 Y104.652 E6.56224
G1 X86.834 Y104.402 E6.57087
G1 X86.914 Y104.045 E6.58304
G1 X87.343 Y102.589 E6.63352
G1 X87.742 Y101.472 E6.67297
G1 X87.858 Y101.201 E6.68278
G1 X88.076 Y100.631 E6.70308
G1 X89.021 Y98.669 E6.77551
G1 X89.922 Y97.142 E6.83448
G1 X90.673 Y96.042 E6.87878
G1 X91.102 Y95.463 E6.90274
G1 X91.886 Y94.505 E6.94392
G1 X92.857 Y93.472 E6.99107
G1 X93.688 Y92.642 E7.03013
G1 X94.664 Y91.746 E7.0742
G1 X96.028 Y90.688 E7.13162
G1 X96.769 Y90.158 E7.16192
G1 X97.861 Y89.473 E7.20479
G1 X99.332 Y88.681 E7.26036
G1 X100.144 Y88.285 E7.29041
G1 X101.383 Y87.767 E7.33507
G1 X102.659 Y87.312 E7.38013
G1 X103.442 Y87.068 E7.40741
G1 X104.35 Y86.847 E7.43849
G1 X104.83 Y86.719 E7.45501
G1 X106.236 Y86.453 E7.5026
G1 X107.884 Y86.251 E7.55783
G1 X108.356 Y86.228 E7.57355
G1 X108.813 Y86.191 E7.58879
G1 X110.571 Y86.173 E7.64727
G1 X112.539 Y86.289 E7.71284
G1 X113.704 Y86.444 E7.75193
G1 X115.271 Y86.747 E7.80501
G1 X115.785 Y86.872 E7.82261
G1 X117.45 Y87.356 E7.88028
G1 X118.391 Y87.686 E7.91344
G1 X118.929 Y87.913 E7.93286
G1 X119.656 Y88.201 E7.95887
G1 X120.849 Y88.775 E8.00291
G1 X121.535 Y89.131 E8.02861
G1 X122.642 Y89.782 E8.07133
G1 X123.94 Y90.659 E8.12343
G1 X124.504 Y91.076 E8.14676
G1 X125.44 Y91.836 E8.18686
G1 X125.962 Y92.291 E8.20989
G1 X126.949 Y93.233 E8.25527
G1 X127.713 Y94.037 E8.29216
G1 X128.031 Y94.42 E8.30872
G1 X128.369 Y94.801 E8.32566
G1 X129.306 Y96.014 E8.37664
G1 X129.875 Y96.829 E8.4097
G1 X130.164 Y97.308 E8.4283
G1 X130.658 Y98.085 E8.45893
G1 X131.282 Y99.251 E8.50291
G1 X131.736 Y100.202 E8.53796
G1 X131.892 Y100.595 E8.55202
G1 X132.22 Y101.344 E8.57922
G1 X132.653 Y102.561 E8.62218
G1 X132.909 Y103.368 E8.65034
G1 X133.284 Y104.849 E8.70116
G1 X133.547 Y106.243 E8.74834
G1 X133.749 Y107.903 E8.80396
G1 X133.761 Y108.215 E8.81434
G1 X133.807 Y108.745 E8.83204
G1 X133.82 Y110.851 E8.90208
G1 X133.761 Y111.532 E8.92482
G1 X133.704 Y112.597 E8.96029
G1 X133.556 Y113.704 E8.99744
G1 X133.247 Y115.302 E9.05157
G1 X133.131 Y115.773 E9.06771
G1 X132.612 Y117.556 E9.12947
G1 X132.515 Y117.81 E9.13851
G1 X132.36 Y118.267 E9.15456
G1 X131.777 Y119.701 E9.20605
G1 X130.869 Y121.535 E9.27412
G1 X130.192 Y122.684 E9.31847
G1 X129.358 Y123.919 E9.36804
G1 X128.892 Y124.544 E9.39397
G1 X127.838 Y125.829 E9.44924
G1 X126.718 Y127.004 E9.50323
G1 X126.094 Y127.591 E9.53173
G1 X125.617 Y127.993 E9.55248
G1 X125.159 Y128.405 E9.57297
G1 X124.109 Y129.221 E9.61719
G1 X123.365 Y129.75 E9.64756
G1 X121.907 Y130.658 E9.70469
G1 X120.686 Y131.31 E9.75072
G1 X119.87 Y131.709 E9.78094
G1 X118.617 Y132.233 E9.82611
G1 X117.341 Y132.688 E9.87116
G1 X116.558 Y132.932 E9.89844
G1 X115.65 Y133.153 E9.92952
G1 X115.17 Y133.281 E9.94605
G1 X113.767 Y133.547 E9.99354
G1 X112.16 Y133.746 E10.0474
G0 F6000 X112.111 Y133.349
G1 F1200 X111.612 Y133.374 E10.06402
G1 X111.272 Y133.402 E10.07536
G1 X109.149 Y133.42 E10.14598
G1 X108.581 Y133.37 E10.16494
G1 X107.456 Y133.308 E10.20242
G1 X106.372 Y133.163 E10.23879
G1 X104.825 Y132.864 E10.2912
G1 X104.275 Y132.729 E10.31003
G1 X102.665 Y132.259 E10.36582
G1 X101.733 Y131.93 E10.39869
G1 X100.577 Y131.468 E10.4401
G1 X99.379 Y130.896 E10.48425
G1 X98.668 Y130.524 E10.51094
G1 X97.54 Y129.86 E10.55448
G1 X96.294 Y129.019 E10.60447
G1 X95.776 Y128.636 E10.6259
G1 X94.775 Y127.823 E10.66879
G1 X94.375 Y127.477 E10.68638
G1 X93.35 Y126.496 E10.73357
G1 X92.418 Y125.504 E10.77884
G1 X92.162 Y125.187 E10.7924
G1 X91.878 Y124.866 E10.80665
G1 X90.994 Y123.712 E10.855
G1 X90.532 Y123.067 E10.88139
G1 X89.786 Y121.879 E10.92805
G1 X89.052 Y120.516 E10.97954
G1 X88.622 Y119.622 E11.01253
G1 X88.399 Y119.063 E11.03255
G1 X88.161 Y118.518 E11.05233
G1 X87.693 Y117.207 E11.09863
G1 X87.46 Y116.467 E11.12443
G1 X87.219 Y115.476 E11.15835
G1 X87.108 Y115.061 E11.17264
G1 X86.833 Y113.593 E11.22232
G1 X86.651 Y112.094 E11.27254
G1 X86.627 Y111.562 E11.29025
G1 X86.589 Y111.115 E11.30517
G1 X86.58 Y109.148 E11.37059
G1 X86.637 Y108.501 E11.3922
G1 X86.692 Y107.456 E11.427
G1 X86.837 Y106.372 E11.46338
G1 X87.151 Y104.758 E11.51807
G1 X87.223 Y104.497 E11.52707
G1 X87.298 Y104.158 E11.53862
G1 X87.72 Y102.723 E11.58837
G1 X88.11 Y101.629 E11.627
G1 X88.232 Y101.344 E11.63731
G1 X88.45 Y100.774 E11.65761
G1 X89.366 Y98.872 E11.72782
G1 X90.267 Y97.345 E11.78679
G1 X90.994 Y96.28 E11.82968
G1 X91.412 Y95.716 E11.85303
G1 X92.178 Y94.779 E11.89328
G1 X93.14 Y93.755 E11.94001
G1 X93.959 Y92.937 E11.97851
G1 X94.935 Y92.041 E12.02258
G1 X96.261 Y91.013 E12.07838
G1 X96.982 Y90.497 E12.10787
G1 X98.074 Y89.812 E12.15075
G1 X99.507 Y89.041 E12.20487
G1 X100.319 Y88.645 E12.23492
G1 X101.517 Y88.144 E12.27811
G1 X102.778 Y87.694 E12.32264
G1 X103.537 Y87.457 E12.34908
G1 X104.445 Y87.236 E12.38017
G1 X104.933 Y87.106 E12.39696
G1 X106.285 Y86.85 E12.44273
G1 X107.903 Y86.651 E12.49695
G1 X108.377 Y86.628 E12.51273
G1 X108.845 Y86.59 E12.52835
G1 X110.575 Y86.573 E12.58589
G1 X112.515 Y86.688 E12.65053
G1 X113.628 Y86.837 E12.68788
G1 X115.176 Y87.136 E12.74032
G1 X115.69 Y87.261 E12.75791
G1 X117.318 Y87.733 E12.81429
G1 X118.236 Y88.055 E12.84665
G1 X118.774 Y88.282 E12.86607
G1 X119.483 Y88.562 E12.89142
G1 X120.665 Y89.13 E12.93504
G1 X121.332 Y89.476 E12.96003
G1 X122.418 Y90.114 E13.00192
G1 X123.702 Y90.981 E13.05345
G1 X124.266 Y91.398 E13.07678
G1 X125.177 Y92.138 E13.11582
G1 X125.699 Y92.593 E13.13885
G1 X126.659 Y93.509 E13.18298
G1 X127.405 Y94.293 E13.21898
G1 X127.723 Y94.676 E13.23554
G1 X128.052 Y95.046 E13.252
G1 X128.989 Y96.259 E13.30298
G1 X129.532 Y97.035 E13.33448
G1 X129.826 Y97.523 E13.35343
G1 X130.32 Y98.3 E13.38406
G1 X130.921 Y99.424 E13.42645
G1 X131.364 Y100.35 E13.46059
G1 X131.52 Y100.743 E13.47466
G1 X131.843 Y101.478 E13.50136
G1 X132.272 Y102.682 E13.54387
G1 X132.521 Y103.466 E13.57123
G1 X132.896 Y104.947 E13.62204
G1 X133.15 Y106.292 E13.66757
G1 X133.349 Y107.919 E13.72208
G1 X133.362 Y108.25 E13.7331
G1 X133.408 Y108.78 E13.7508
G1 X133.421 Y110.817 E13.81855
G1 X133.363 Y111.498 E13.84128
G1 X133.308 Y112.544 E13.87612
G1 X133.163 Y113.628 E13.91249
G1 X132.858 Y115.207 E13.96598
G1 X132.747 Y115.661 E13.98153
G1 X132.238 Y117.413 E14.04221
G1 X132.141 Y117.667 E14.05125
G1 X131.981 Y118.139 E14.06783
G1 X131.686 Y118.846 E14.09331
G1 X131.405 Y119.553 E14.11861
G1 X130.524 Y121.332 E14.18464
G1 X129.847 Y122.481 E14.229
G1 X129.037 Y123.68 E14.27712
G1 X128.583 Y124.29 E14.30241
G1 X127.548 Y125.553 E14.35672
G1 X126.428 Y126.728 E14.41071
G1 X125.836 Y127.285 E14.43775
G1 X125.359 Y127.687 E14.4585
G1 X124.913 Y128.089 E14.47847
G1 X123.877 Y128.895 E14.52213
G1 X123.154 Y129.41 E14.55165
G1 X121.696 Y130.318 E14.60878
G1 X120.51 Y130.951 E14.65349
G1 X119.716 Y131.34 E14.6829
G1 X118.483 Y131.856 E14.72735
G1 X117.222 Y132.306 E14.77189
G1 X116.463 Y132.543 E14.79833
G1 X115.555 Y132.764 E14.82941
G1 X115.067 Y132.894 E14.84621
G1 X113.718 Y133.15 E14.89188
G1 X112.111 Y133.349 E14.94574
G0 F6000 X112.091 Y132.949
G1 F1200 X111.59 Y132.974 E14.96242
G1 X111.239 Y133.003 E14.97414
G1 X109.183 Y133.021 E15.04252
G1 X108.615 Y132.972 E15.06148
G1 X107.509 Y132.912 E15.09832
G1 X106.448 Y132.77 E15.13393
G1 X104.92 Y132.475 E15.18569
G1 X104.387 Y132.345 E15.20393
G1 X102.798 Y131.882 E15.25898
G1 X101.881 Y131.559 E15.29132
G1 X100.749 Y131.107 E15.33186
G1 X99.564 Y130.541 E15.37554
G1 X98.871 Y130.179 E15.40154
G1 X97.743 Y129.515 E15.44508
G1 X96.532 Y128.697 E15.49368
G1 X96.014 Y128.314 E15.51511
G1 X95.037 Y127.52 E15.55698
G1 X94.637 Y127.174 E15.57457
G1 X93.641 Y126.222 E15.6204
G1 X92.729 Y125.252 E15.66468
G1 X92.462 Y124.922 E15.6788
G1 X92.178 Y124.601 E15.69306
G1 X91.319 Y123.479 E15.74005
G1 X90.871 Y122.854 E15.76563
G1 X90.125 Y121.666 E15.81229
G1 X89.412 Y120.342 E15.8623
G1 X88.994 Y119.474 E15.89435
G1 X88.771 Y118.915 E15.91436
G1 X88.538 Y118.384 E15.93365
G1 X88.075 Y117.087 E15.97946
G1 X87.842 Y116.347 E16.00526
G1 X87.608 Y115.382 E16.03829
G1 X87.495 Y114.958 E16.05288
G1 X87.23 Y113.545 E16.1007
G1 X87.051 Y112.076 E16.14992
G1 X87.027 Y111.544 E16.16763
G1 X86.988 Y111.081 E16.18308
G1 X86.979 Y109.182 E16.24624
G1 X87.035 Y108.535 E16.26784
G1 X87.088 Y107.509 E16.30201
G1 X87.23 Y106.448 E16.33762
G1 X87.537 Y104.864 E16.39128
G1 X87.613 Y104.588 E16.4008
G1 X87.689 Y104.245 E16.41249
G1 X88.097 Y102.857 E16.46061
G1 X88.478 Y101.786 E16.49842
G1 X88.606 Y101.487 E16.50923
G1 X88.824 Y100.917 E16.52953
G1 X89.711 Y99.075 E16.59753
G1 X90.612 Y97.548 E16.6565
G1 X91.315 Y96.518 E16.69798
G1 X91.722 Y95.969 E16.72071
G1 X92.47 Y95.053 E16.76004
G1 X93.423 Y94.038 E16.80635
G1 X94.23 Y93.232 E16.84428
G1 X95.206 Y92.336 E16.88835
G1 X96.494 Y91.338 E16.94254
G1 X97.195 Y90.836 E16.97122
G1 X98.287 Y90.151 E17.0141
G1 X99.683 Y89.4 E17.06682
G1 X100.473 Y89.014 E17.09606
G1 X101.651 Y88.521 E17.13854
G1 X102.898 Y88.076 E17.18257
G1 X103.632 Y87.846 E17.20816
G1 X104.54 Y87.625 E17.23924
G1 X105.036 Y87.493 E17.25631
G1 X106.334 Y87.247 E17.30025
G1 X107.922 Y87.051 E17.35347
G1 X108.398 Y87.028 E17.36932
G1 X108.877 Y86.989 E17.3853
G1 X110.579 Y86.973 E17.44191
G1 X112.462 Y87.085 E17.50465
G1 X113.552 Y87.23 E17.54123
G1 X115.081 Y87.525 E17.59302
G1 X115.595 Y87.65 E17.61061
G1 X117.186 Y88.11 E17.6657
G1 X118.081 Y88.424 E17.69724
G1 X118.619 Y88.651 E17.71667
G1 X119.336 Y88.934 E17.7423
G1 X120.481 Y89.485 E17.78457
G1 X121.129 Y89.821 E17.80884
G1 X122.215 Y90.459 E17.85074
G1 X123.464 Y91.303 E17.90087
G1 X124.028 Y91.72 E17.9242
G1 X124.914 Y92.44 E17.96217
G1 X125.436 Y92.895 E17.98521
G1 X126.369 Y93.785 E18.02809
G1 X127.097 Y94.549 E18.06319
G1 X127.415 Y94.932 E18.07975
G1 X127.753 Y95.312 E18.09666
G1 X128.661 Y96.488 E18.14608
G1 X129.189 Y97.242 E18.1767
G1 X129.488 Y97.738 E18.19596
G1 X129.982 Y98.515 E18.22658
G1 X130.56 Y99.597 E18.26738
G1 X130.992 Y100.498 E18.30062
G1 X131.152 Y100.9 E18.31501
G1 X131.466 Y101.612 E18.34089
G1 X131.891 Y102.803 E18.38295
G1 X132.133 Y103.564 E18.40951
