;FLAVOR:Marlin
;TIME:2251
;Filament used: 1.08469m
;Layer height: 0.16
;MINX:84.905
;MINY:73.559
;MINZ:0.2
;MAXX:134.988
;MAXY:146.382
;MAXZ:14.64
;TARGET_MACHINE.NAME:Creality Ender-3 Pro
;Generated with Cura_SteamEngine 5.9.0
M140 S60
M105
M190 S60
M104 S200
M105
M109 S200
M82 ;absolute extrusion mode
; Ender 3 Custom Start G-code
G92 E0 ; Reset Extruder
G28G29 ; Home all axes and set bed height
G1 Z2.0 F3000 ; Move Z Axis up little to prevent scratching of Heat Bed
G1 X0.1 Y20 Z0.3 F5000.0 ; Move to start position
G1 X0.1 Y200.0 Z0.3 F1500.0 E15 ; Draw the first line
G1 X0.4 Y200.0 Z0.3 F5000.0 ; Move to side a little
G1 X0.4 Y20 Z0.3 F1500.0 E30 ; Draw the second line
G92 E0 ; Reset Extruder
G1 Z2.0 F3000 ; Move Z Axis up little to prevent scratching of Heat Bed
G1 X5 Y20 Z0.3 F5000.0 ; Move over to prevent blob squish
G92 E0
G92 E0
G1 F1500 E-6.5
;LAYER_COUNT:76
;LAYER:0
M107
G0 F6000 X111.884 Y146.306 Z0.2
;TYPE:SKIRT
G1 F1500 E0
G1 F1200 X110.524 Y146.382 E0.0453
G1 X108.769 Y146.361 E0.10368
G1 X107.917 Y146.298 E0.1321
G1 X106.773 Y146.169 E0.17039
G1 X105.738 Y146 E0.20527
G1 X104.227 Y145.666 E0.25674
G1 X103.312 Y145.404 E0.28839
G1 X102.118 Y145.004 E0.33027
G1 X101.476 Y144.753 E0.3532
G1 X100.45 Y144.318 E0.39027
G1 X99.683 Y143.955 E0.41849
G1 X98.275 Y143.181 E0.47193
G1 X97.036 Y142.379 E0.52102
G1 X95.84 Y141.503 E0.57033
G1 X94.994 Y140.798 E0.60695
G1 X94.143 Y140.022 E0.64526
G1 X93.551 Y139.432 E0.67306
G1 X92.345 Y138.08 E0.73332
G1 X91.747 Y137.315 E0.76561
G1 X91.034 Y136.319 E0.80635
G1 X90.642 Y135.71 E0.83044
G1 X90.027 Y134.676 E0.87045
G1 X89.638 Y133.95 E0.89785
G1 X88.88 Y132.305 E0.95809
G1 X88.557 Y131.47 E0.98787
G1 X88.175 Y130.336 E1.02767
G1 X87.962 Y129.601 E1.05312
G1 X87.692 Y128.52 E1.09018
G1 X87.556 Y127.853 E1.11282
G1 X87.357 Y126.622 E1.15429
G1 X87.268 Y125.888 E1.17889
G1 X87.179 Y124.707 E1.21828
G1 X87.161 Y124.031 E1.24077
G1 X87.164 Y122.794 E1.28191
G1 X87.199 Y122.082 E1.30562
G1 X87.279 Y121.158 E1.33647
G1 X87.414 Y120.183 E1.36921
G1 X87.633 Y118.982 E1.40981
G1 X87.79 Y118.292 E1.43335
G1 X88.068 Y117.211 E1.47047
G1 X88.24 Y116.645 E1.49015
G1 X88.688 Y115.366 E1.53522
G1 X88.875 Y114.896 E1.55205
G1 X89.648 Y113.253 E1.61244
G1 X89.247 Y112.685 E1.63556
G1 X88.752 Y111.928 E1.66565
G1 X88.162 Y110.942 E1.70386
G1 X87.733 Y110.155 E1.73368
G1 X87.263 Y109.211 E1.76875
G1 X86.781 Y108.102 E1.80897
G1 X86.46 Y107.274 E1.8385
G1 X86.136 Y106.349 E1.8711
G1 X85.756 Y105.069 E1.91551
G1 X85.558 Y104.27 E1.94289
G1 X85.358 Y103.325 E1.97502
G1 X85.174 Y102.241 E2.01159
G1 X85.001 Y100.785 E2.06035
G1 X84.928 Y99.718 E2.09593
G1 X84.905 Y98.735 E2.12863
G1 X84.913 Y97.802 E2.15966
G1 X84.957 Y96.925 E2.18887
G1 X85.029 Y96.044 E2.21827
G1 X85.215 Y94.732 E2.26234
G1 X85.38 Y93.759 E2.29517
G1 X85.635 Y92.61 E2.33431
G1 X85.843 Y91.831 E2.36113
G1 X86.082 Y91.014 E2.38944
G1 X86.256 Y90.491 E2.40777
G1 X86.577 Y89.617 E2.43874
G1 X86.892 Y88.83 E2.46694
G1 X87.263 Y87.993 E2.49739
G1 X87.744 Y87.02 E2.53349
G1 X88.332 Y85.957 E2.57389
G1 X88.918 Y85.007 E2.61102
G1 X89.408 Y84.279 E2.6402
G1 X89.979 Y83.488 E2.67265
G1 X90.696 Y82.586 E2.71098
G1 X91.422 Y81.747 E2.74788
G1 X92.042 Y81.091 E2.7779
G1 X92.979 Y80.184 E2.82127
G1 X93.625 Y79.615 E2.84991
G1 X94.284 Y79.061 E2.87854
G1 X94.719 Y78.721 E2.8969
G1 X95.407 Y78.213 E2.92535
G1 X96.097 Y77.735 E2.95327
G1 X97.105 Y77.102 E2.99286
G1 X97.933 Y76.63 E3.02456
G1 X98.815 Y76.168 E3.05767
G1 X99.808 Y75.701 E3.09417
G1 X100.937 Y75.236 E3.13478
G1 X101.815 Y74.916 E3.16586
G1 X103.025 Y74.537 E3.20803
G1 X103.845 Y74.319 E3.23625
G1 X105.023 Y74.044 E3.27649
G1 X106.054 Y73.866 E3.31129
G1 X106.818 Y73.759 E3.33695
G1 X107.744 Y73.648 E3.36797
G1 X108.316 Y73.604 E3.38705
G1 X109.203 Y73.57 E3.41657
G1 X110.076 Y73.559 E3.44561
G1 X110.913 Y73.584 E3.47346
G1 X112.114 Y73.645 E3.51346
G1 X113.317 Y73.78 E3.55372
G1 X114.099 Y73.898 E3.58002
G1 X115.029 Y74.072 E3.61149
G1 X116.393 Y74.404 E3.65818
G1 X117.273 Y74.658 E3.68865
G1 X118.31 Y74.994 E3.7249
G1 X119.161 Y75.315 E3.75515
G1 X120.012 Y75.664 E3.78575
G1 X121.112 Y76.185 E3.82623
G1 X122.384 Y76.865 E3.8742
G1 X123.125 Y77.307 E3.9029
G1 X123.882 Y77.796 E3.93287
G1 X124.88 Y78.495 E3.9734
G1 X125.568 Y79.03 E4.00239
G1 X126.506 Y79.816 E4.04309
G1 X127.167 Y80.424 E4.07296
G1 X128.017 Y81.268 E4.1128
G1 X128.598 Y81.891 E4.14113
G1 X129.166 Y82.542 E4.16987
G1 X129.803 Y83.336 E4.20373
G1 X130.127 Y83.767 E4.22166
G1 X130.729 Y84.621 E4.25641
G1 X131.245 Y85.417 E4.28796
G1 X131.755 Y86.291 E4.32162
G1 X132.17 Y87.063 E4.35077
G1 X132.643 Y88.018 E4.38622
G1 X133.112 Y89.087 E4.42504
G1 X133.424 Y89.873 E4.45317
G1 X133.692 Y90.62 E4.47957
G1 X134.142 Y92.135 E4.53213
G1 X134.34 Y92.934 E4.55951
G1 X134.52 Y93.781 E4.58831
G1 X134.615 Y94.297 E4.60576
G1 X134.755 Y95.205 E4.63632
G1 X134.85 Y96.019 E4.66358
G1 X134.931 Y96.904 E4.69313
G1 X134.969 Y97.501 E4.71303
G1 X134.988 Y98.362 E4.74167
G1 X134.986 Y99.275 E4.77204
G1 X134.949 Y100.16 E4.8015
G1 X134.82 Y101.577 E4.84883
G1 X134.712 Y102.389 E4.87607
G1 X134.466 Y103.718 E4.92102
G1 X134.275 Y104.533 E4.94887
G1 X134.07 Y105.327 E4.97614
G1 X133.809 Y106.203 E5.00654
G1 X133.619 Y106.772 E5.02649
G1 X133.315 Y107.581 E5.05524
G1 X132.978 Y108.427 E5.08553
G1 X132.476 Y109.539 E5.12611
G1 X132.03 Y110.409 E5.15862
G1 X131.611 Y111.161 E5.18726
G1 X130.971 Y112.205 E5.22798
G1 X130.479 Y112.937 E5.25732
G1 X130.252 Y113.251 E5.27021
G1 X131.028 Y114.929 E5.3317
G1 X131.388 Y115.862 E5.36496
G1 X131.934 Y117.564 E5.42441
G1 X132.146 Y118.404 E5.45322
G1 X132.385 Y119.559 E5.49245
G1 X132.499 Y120.241 E5.51545
G1 X132.715 Y122.384 E5.58709
G1 X132.736 Y123.083 E5.61035
G1 X132.725 Y124.374 E5.65329
G1 X132.677 Y125.329 E5.68509
G1 X132.542 Y126.621 E5.7283
G1 X132.266 Y128.192 E5.78135
G1 X131.951 Y129.528 E5.827
G1 X131.511 Y130.967 E5.87705
G1 X130.9 Y132.583 E5.93451
G1 X130.559 Y133.335 E5.96198
G1 X129.996 Y134.438 E6.00316
G1 X129.641 Y135.069 E6.02725
G1 X129.045 Y136.038 E6.06508
G1 X128.536 Y136.794 E6.0954
G1 X127.591 Y138.033 E6.14722
G1 X126.817 Y138.923 E6.18645
G1 X126.034 Y139.75 E6.22433
G1 X125.566 Y140.204 E6.24602
G1 X124.611 Y141.05 E6.28845
G1 X124.17 Y141.413 E6.30745
G1 X122.382 Y142.703 E6.38078
G1 X121.479 Y143.261 E6.41609
G1 X119.924 Y144.097 E6.47481
G1 X119.133 Y144.459 E6.50374
G1 X118.107 Y144.883 E6.54066
G1 X117.415 Y145.136 E6.56517
G1 X116.221 Y145.512 E6.60681
G1 X115.548 Y145.691 E6.62997
G1 X114.409 Y145.947 E6.6688
G1 X113.487 Y146.115 E6.69997
G1 X111.884 Y146.306 E6.75366
G0 F6000 X111.862 Y145.907
G1 F1200 X110.529 Y145.982 E6.79807
G1 X108.798 Y145.962 E6.85564
G1 X107.962 Y145.901 E6.88352
G1 X106.837 Y145.774 E6.92118
G1 X105.824 Y145.609 E6.95531
G1 X104.337 Y145.281 E7.00596
G1 X103.422 Y145.019 E7.03762
G1 X102.263 Y144.631 E7.07827
G1 X101.632 Y144.385 E7.10079
G1 X100.621 Y143.957 E7.13731
G1 X99.876 Y143.604 E7.16473
G1 X98.468 Y142.83 E7.21817
G1 X97.272 Y142.056 E7.26555
G1 X96.096 Y141.195 E7.31403
G1 X95.263 Y140.502 E7.35007
G1 X94.425 Y139.738 E7.38778
G1 X93.85 Y139.166 E7.41476
G1 X92.644 Y137.814 E7.47502
G1 X92.072 Y137.082 E7.50592
G1 X91.37 Y136.102 E7.54601
G1 X90.986 Y135.506 E7.56959
G1 X90.38 Y134.487 E7.60902
G1 X89.991 Y133.761 E7.63642
G1 X89.253 Y132.161 E7.69502
G1 X88.936 Y131.342 E7.72423
G1 X88.559 Y130.225 E7.76344
G1 X88.35 Y129.504 E7.78841
G1 X88.084 Y128.44 E7.82489
G1 X87.951 Y127.789 E7.84699
G1 X87.754 Y126.574 E7.88793
G1 X87.667 Y125.858 E7.91192
G1 X87.579 Y124.696 E7.95068
G1 X87.561 Y124.032 E7.97277
G1 X87.563 Y122.814 E8.01328
G1 X87.598 Y122.117 E8.03649
G1 X87.678 Y121.193 E8.06734
G1 X87.808 Y120.255 E8.09883
G1 X88.027 Y119.054 E8.13944
G1 X88.177 Y118.392 E8.16201
G1 X88.451 Y117.327 E8.19859
G1 X88.623 Y116.761 E8.21827
G1 X89.06 Y115.514 E8.26221
G1 X89.247 Y115.044 E8.27904
G1 X90.109 Y113.212 E8.34638
G1 X89.582 Y112.466 E8.37676
G1 X89.095 Y111.723 E8.40631
G1 X88.513 Y110.751 E8.44399
G1 X88.091 Y109.977 E8.47331
G1 X87.63 Y109.052 E8.50768
G1 X87.154 Y107.957 E8.54739
G1 X86.838 Y107.142 E8.57647
G1 X86.514 Y106.217 E8.60907
G1 X86.144 Y104.973 E8.65223
G1 X85.949 Y104.187 E8.67917
G1 X85.752 Y103.258 E8.71075
G1 X85.571 Y102.194 E8.74665
G1 X85.4 Y100.758 E8.79475
G1 X85.328 Y99.709 E8.82972
G1 X85.305 Y98.738 E8.86203
G1 X85.313 Y97.822 E8.89249
G1 X85.356 Y96.958 E8.92127
G1 X85.428 Y96.077 E8.95067
G1 X85.609 Y94.799 E8.9936
G1 X85.77 Y93.846 E9.02574
G1 X86.022 Y92.713 E9.06435
G1 X86.227 Y91.943 E9.09085
G1 X86.462 Y91.14 E9.11868
G1 X86.631 Y90.629 E9.13658
G1 X86.948 Y89.766 E9.16716
G1 X87.258 Y88.992 E9.19489
G1 X87.622 Y88.17 E9.22479
G1 X88.094 Y87.213 E9.26028
G1 X88.672 Y86.167 E9.30003
G1 X89.25 Y85.23 E9.33665
G1 X89.732 Y84.513 E9.36538
G1 X90.292 Y83.737 E9.39721
G1 X90.998 Y82.848 E9.43497
G1 X91.713 Y82.022 E9.4713
G1 X92.333 Y81.366 E9.50133
G1 X93.243 Y80.484 E9.54348
G1 X93.882 Y79.921 E9.5718
G1 X94.531 Y79.376 E9.59999
G1 X94.956 Y79.043 E9.61795
G1 X95.635 Y78.542 E9.64601
G1 X96.31 Y78.074 E9.67333
G1 X97.318 Y77.441 E9.71292
G1 X98.119 Y76.984 E9.74359
G1 X98.985 Y76.53 E9.77611
G1 X99.96 Y76.071 E9.81196
G1 X101.074 Y75.612 E9.85203
G1 X101.935 Y75.298 E9.88251
G1 X103.128 Y74.924 E9.92409
G1 X103.936 Y74.709 E9.9519
G1 X105.114 Y74.434 E9.99214
G1 X106.109 Y74.262 E10.02572
G1 X106.866 Y74.156 E10.05115
G1 X107.775 Y74.047 E10.0816
G1 X108.332 Y74.004 E10.10018
G1 X109.208 Y73.97 E10.12934
G1 X110.064 Y73.959 E10.15781
G1 X110.893 Y73.983 E10.18539
G1 X112.069 Y74.043 E10.22456
G1 X113.257 Y74.176 E10.26432
G1 X114.039 Y74.294 E10.29062
G1 X114.934 Y74.461 E10.3209
G1 X116.298 Y74.793 E10.36759
G1 X117.15 Y75.039 E10.39709
G1 X118.187 Y75.375 E10.43335
G1 X119.009 Y75.685 E10.46256
G1 X119.86 Y76.034 E10.49316
G1 X120.924 Y76.538 E10.53231
G1 X122.179 Y77.208 E10.57963
G1 X122.908 Y77.643 E10.60787
G1 X123.653 Y78.124 E10.63736
G1 X124.635 Y78.811 E10.67722
G1 X125.311 Y79.336 E10.70569
G1 X126.235 Y80.111 E10.7458
G1 X126.885 Y80.708 E10.77516
G1 X127.725 Y81.541 E10.8145
G1 X128.297 Y82.154 E10.84239
G1 X128.854 Y82.792 E10.87056
G1 X129.483 Y83.576 E10.90399
G1 X129.8 Y83.998 E10.92154
G1 X130.393 Y84.839 E10.95577
G1 X130.909 Y85.635 E10.98732
G1 X131.403 Y86.481 E11.0199
G1 X131.812 Y87.241 E11.04861
G1 X132.277 Y88.179 E11.08343
G1 X132.74 Y89.234 E11.12175
G1 X133.047 Y90.008 E11.14945
G1 X133.315 Y90.755 E11.17584
G1 X133.754 Y92.231 E11.22706
G1 X133.949 Y93.017 E11.25399
G1 X134.127 Y93.853 E11.28242
G1 X134.22 Y94.358 E11.2995
G1 X134.358 Y95.251 E11.32956
G1 X134.452 Y96.055 E11.35648
G1 X134.532 Y96.929 E11.38567
G1 X134.569 Y97.51 E11.40503
G1 X134.588 Y98.361 E11.43334
G1 X134.586 Y99.258 E11.46318
G1 X134.549 Y100.143 E11.49264
G1 X134.423 Y101.524 E11.53876
G1 X134.315 Y102.336 E11.56601
G1 X134.076 Y103.627 E11.60968
G1 X133.888 Y104.433 E11.6372
G1 X133.687 Y105.213 E11.66399
G1 X133.43 Y106.076 E11.69394
G1 X133.244 Y106.632 E11.71344
G1 X132.944 Y107.433 E11.74189
G1 X132.613 Y108.262 E11.77158
G1 X132.111 Y109.374 E11.81216
G1 X131.681 Y110.214 E11.84355
G1 X131.27 Y110.952 E11.87164
G1 X130.639 Y111.982 E11.91182
G1 X130.155 Y112.703 E11.9407
G1 X129.781 Y113.22 E11.96192
G1 X129.939 Y113.515 E11.97305
G1 X130.655 Y115.073 E12.03008
G1 X131.007 Y115.984 E12.06257
G1 X131.546 Y117.662 E12.12119
G1 X131.754 Y118.485 E12.14942
G1 X131.99 Y119.625 E12.18814
G1 X132.104 Y120.307 E12.21114
G1 X132.315 Y122.396 E12.28097
G1 X132.336 Y123.08 E12.30373
G1 X132.326 Y124.354 E12.34611
G1 X132.279 Y125.287 E12.37718
G1 X132.144 Y126.579 E12.42038
G1 X131.877 Y128.1 E12.47175
G1 X131.568 Y129.411 E12.51655
G1 X131.128 Y130.85 E12.56659
G1 X130.526 Y132.441 E12.62317
G1 X130.203 Y133.153 E12.64918
G1 X129.647 Y134.242 E12.68984
G1 X129.3 Y134.86 E12.71342
G1 X128.713 Y135.815 E12.7507
G1 X128.218 Y136.551 E12.7802
G1 X127.273 Y137.79 E12.83203
G1 X126.527 Y138.648 E12.86985
G1 X125.755 Y139.463 E12.90718
G1 X125.287 Y139.917 E12.92887
G1 X124.357 Y140.741 E12.9702
G1 X123.916 Y141.104 E12.98919
G1 X122.171 Y142.363 E13.06076
G1 X121.289 Y142.909 E13.09526
G1 X119.758 Y143.733 E13.15309
G1 X118.98 Y144.089 E13.18155
G1 X117.969 Y144.507 E13.21794
G1 X117.295 Y144.754 E13.24181
G1 X116.101 Y145.13 E13.28345
G1 X115.46 Y145.301 E13.30551
G1 X114.337 Y145.553 E13.34379
G1 X113.415 Y145.721 E13.37496
G1 X111.862 Y145.907 E13.42698
G0 F6000 X111.839 Y145.508
G1 F1200 X110.533 Y145.582 E13.47049
G1 X108.827 Y145.563 E13.52724
G1 X108.007 Y145.504 E13.55458
G1 X106.901 Y145.379 E13.5916
G1 X105.91 Y145.218 E13.62499
G1 X104.447 Y144.896 E13.67482
G1 X103.532 Y144.634 E13.70647
G1 X102.408 Y144.258 E13.74589
G1 X101.788 Y144.017 E13.76802
G1 X100.792 Y143.595 E13.804
G1 X100.069 Y143.253 E13.8306
G1 X98.661 Y142.479 E13.88404
G1 X97.508 Y141.733 E13.92971
G1 X96.332 Y140.872 E13.97819
G1 X95.532 Y140.206 E14.01281
G1 X94.707 Y139.454 E14.04994
G1 X94.149 Y138.9 E14.07609
G1 X92.943 Y137.548 E14.13635
G1 X92.397 Y136.849 E14.16585
G1 X91.706 Y135.885 E14.2053
G1 X91.33 Y135.302 E14.22837
G1 X90.733 Y134.298 E14.26723
G1 X90.344 Y133.572 E14.29462
G1 X89.626 Y132.017 E14.35159
G1 X89.315 Y131.214 E14.38023
G1 X88.943 Y130.114 E14.41885
G1 X88.738 Y129.407 E14.44333
G1 X88.476 Y128.36 E14.47923
G1 X88.346 Y127.725 E14.50079
G1 X88.151 Y126.526 E14.54119
G1 X88.066 Y125.828 E14.56458
G1 X87.979 Y124.685 E14.6027
G1 X87.961 Y124.033 E14.6244
G1 X87.963 Y122.834 E14.66428
G1 X87.997 Y122.152 E14.68699
G1 X88.077 Y121.228 E14.71784
G1 X88.202 Y120.326 E14.74812
G1 X88.417 Y119.142 E14.78815
G1 X88.564 Y118.492 E14.81031
G1 X88.834 Y117.443 E14.84634
G1 X89.006 Y116.877 E14.86602
G1 X89.432 Y115.662 E14.90884
G1 X89.619 Y115.192 E14.92566
G1 X90.45 Y113.422 E14.9907
G1 X90.585 Y113.176 E15.00003
G1 X90.411 Y112.949 E15.00954
G1 X89.916 Y112.246 E15.03814
G1 X89.438 Y111.518 E15.06711
G1 X88.864 Y110.559 E15.10428
G1 X88.449 Y109.799 E15.13308
G1 X87.997 Y108.892 E15.16679
G1 X87.527 Y107.812 E15.20596
G1 X87.216 Y107.01 E15.23457
G1 X86.892 Y106.085 E15.26717
G1 X86.532 Y104.877 E15.30909
G1 X86.34 Y104.104 E15.33559
G1 X86.146 Y103.191 E15.36663
G1 X85.968 Y102.147 E15.40185
G1 X85.799 Y100.731 E15.44929
G1 X85.728 Y99.699 E15.48369
G1 X85.705 Y98.742 E15.51553
G1 X85.713 Y97.842 E15.54547
G1 X85.755 Y96.991 E15.5738
G1 X85.827 Y96.11 E15.6032
G1 X86.003 Y94.865 E15.64502
G1 X86.16 Y93.933 E15.67646
G1 X86.408 Y92.816 E15.71452
G1 X86.611 Y92.055 E15.74071
G1 X86.842 Y91.265 E15.76809
G1 X87.006 Y90.767 E15.78553
G1 X87.319 Y89.915 E15.81572
G1 X87.624 Y89.154 E15.84298
G1 X87.981 Y88.347 E15.87233
G1 X88.444 Y87.406 E15.90722
G1 X89.012 Y86.377 E15.94631
G1 X89.582 Y85.453 E15.98242
G1 X90.056 Y84.747 E16.0107
G1 X90.605 Y83.986 E16.04191
G1 X91.3 Y83.11 E16.0791
G1 X92.004 Y82.297 E16.11487
G1 X92.624 Y81.641 E16.14489
G1 X93.508 Y80.784 E16.18584
G1 X94.139 Y80.227 E16.21384
G1 X94.777 Y79.691 E16.24155
G1 X95.194 Y79.365 E16.25916
G1 X95.863 Y78.871 E16.28682
G1 X96.523 Y78.413 E16.31354
G1 X97.531 Y77.78 E16.35313
G1 X98.305 Y77.338 E16.38277
G1 X99.155 Y76.892 E16.4147
G1 X100.113 Y76.441 E16.44991
G1 X101.211 Y75.988 E16.48942
G1 X102.055 Y75.68 E16.5193
G1 X103.231 Y75.311 E16.5603
G1 X104.027 Y75.099 E16.58769
G1 X105.205 Y74.824 E16.62793
G1 X106.164 Y74.658 E16.6603
G1 X106.914 Y74.553 E16.68549
G1 X107.806 Y74.446 E16.71537
G1 X108.348 Y74.404 E16.73345
G1 X109.213 Y74.37 E16.76224
G1 X110.053 Y74.359 E16.79018
G1 X110.873 Y74.382 E16.81747
G1 X112.025 Y74.441 E16.85583
G1 X113.197 Y74.572 E16.89506
G1 X113.979 Y74.69 E16.92136
G1 X114.839 Y74.85 E16.95045
G1 X116.203 Y75.182 E16.99715
G1 X117.027 Y75.42 E17.02567
G1 X118.064 Y75.756 E17.06193
G1 X118.857 Y76.055 E17.09012
G1 X119.708 Y76.404 E17.12071
G1 X120.736 Y76.891 E17.15854
G1 X121.974 Y77.551 E17.2052
G1 X122.691 Y77.979 E17.23298
G1 X123.424 Y78.452 E17.26199
G1 X124.39 Y79.127 E17.30119
G1 X125.054 Y79.642 E17.32914
G1 X125.964 Y80.406 E17.36866
G1 X126.614 Y81.003 E17.39801
G1 X127.433 Y81.814 E17.43635
G1 X127.996 Y82.417 E17.46379
G1 X128.542 Y83.042 E17.49139
