;FLAVOR:Marlin
;TIME:1232
;Filament used: 0.460063m
;Layer height: 0.16
;MINX:85.824
;MINY:85.698
;MINZ:0.2
;MAXX:134.176
;MAXY:134.332
;MAXZ:15.48
;TARGET_MACHINE.NAME:Creality Ender-3 Pro
;Generated with Cura_SteamEngine 5.9.0
M140 S60
M105
M190 S60
M104 S200
M105
M109 S200
M82 ;absolute extrusion mode
; Ender 3 Custom Start G-code
G92 E0 ; Reset Extruder
G28G29 ; Home all axes and set bed height
G1 Z2.0 F3000 ; Move Z Axis up little to prevent scratching of Heat Bed
G1 X0.1 Y20 Z0.3 F5000.0 ; Move to start position
G1 X0.1 Y200.0 Z0.3 F1500.0 E15 ; Draw the first line
G1 X0.4 Y200.0 Z0.3 F5000.0 ; Move to side a little
G1 X0.4 Y20 Z0.3 F1500.0 E30 ; Draw the second line
G92 E0 ; Reset Extruder
G1 Z2.0 F3000 ; Move Z Axis up little to prevent scratching of Heat Bed
G1 X5 Y20 Z0.3 F5000.0 ; Move over to prevent blob squish
G92 E0
G92 E0
G1 F1500 E-6.5
;LAYER_COUNT:81
;LAYER:0
M107
G0 F6000 X112.046 Y134.216 Z0.2
;TYPE:SKIRT
G1 F1500 E0
G1 F1200 X110.969 Y134.298 E0.03592
G1 X110.067 Y134.332 E0.06595
G1 X107.796 Y134.21 E0.14159
G1 X106.543 Y134.025 E0.18372
G1 X105.418 Y133.776 E0.22204
G1 X104.516 Y133.536 E0.25308
G1 X103.244 Y133.133 E0.29746
G1 X102.682 Y132.909 E0.31759
G1 X101.904 Y132.657 E0.34479
G1 X101.304 Y132.437 E0.36604
G1 X100.478 Y132.101 E0.3957
G1 X99.804 Y131.799 E0.42026
G1 X99.008 Y131.411 E0.44972
G1 X98.343 Y131.059 E0.47474
G1 X97.648 Y130.663 E0.50135
G1 X96.894 Y130.196 E0.53085
G1 X96 Y129.592 E0.56673
G1 X95.427 Y129.168 E0.59044
G1 X94.652 Y128.556 E0.62328
G1 X94.09 Y128.077 E0.64784
G1 X93.391 Y127.439 E0.67932
G1 X92.925 Y126.985 E0.70096
G1 X92.224 Y126.262 E0.73445
G1 X91.748 Y125.728 E0.75825
G1 X91.137 Y125.002 E0.78981
G1 X90.713 Y124.457 E0.81277
G1 X90.084 Y123.584 E0.84856
G1 X89.684 Y122.979 E0.87268
G1 X89.19 Y122.181 E0.9039
G1 X88.811 Y121.52 E0.92924
G1 X88.276 Y120.489 E0.96788
G1 X88.011 Y119.916 E0.98887
G1 X87.678 Y119.16 E1.01635
G1 X87.415 Y118.497 E1.04007
G1 X87.038 Y117.435 E1.07755
G1 X86.828 Y116.77 E1.10075
G1 X86.613 Y116 E1.12734
G1 X86.424 Y115.236 E1.15352
G1 X86.197 Y114.106 E1.19185
G1 X86.096 Y113.455 E1.21376
G1 X85.972 Y112.538 E1.24454
G1 X85.907 Y111.853 E1.26742
G1 X85.837 Y110.773 E1.30342
G1 X85.824 Y110.125 E1.32498
G1 X85.826 Y109.161 E1.35704
G1 X85.861 Y108.451 E1.38068
G1 X85.941 Y107.43 E1.41475
G1 X86.005 Y106.857 E1.43392
G1 X86.176 Y105.754 E1.47105
G1 X86.441 Y104.365 E1.51808
G1 X86.849 Y102.485 E1.58206
G1 X87.111 Y101.564 E1.61391
G1 X87.616 Y100.09 E1.66573
G1 X87.987 Y99.226 E1.69701
G1 X88.982 Y97.375 E1.7669
G1 X89.586 Y96.444 E1.80381
G1 X90.226 Y95.564 E1.84001
G1 X91.182 Y94.385 E1.89049
G1 X92.172 Y93.358 E1.93794
G1 X93.466 Y92.218 E1.99529
G1 X93.608 Y92.106 E2.00131
G1 X94.271 Y91.512 E2.03092
G1 X94.818 Y91.061 E2.0545
G1 X95.52 Y90.514 E2.0841
G1 X96.088 Y90.105 E2.10738
G1 X96.876 Y89.573 E2.139
G1 X97.474 Y89.196 E2.16251
G1 X98.334 Y88.694 E2.19563
G1 X98.972 Y88.359 E2.2196
G1 X100.025 Y87.849 E2.25851
G1 X100.658 Y87.574 E2.28147
G1 X101.437 Y87.265 E2.30934
G1 X102.102 Y87.023 E2.33288
G1 X103.053 Y86.718 E2.3661
G1 X103.765 Y86.519 E2.39068
G1 X104.712 Y86.287 E2.42311
G1 X105.426 Y86.137 E2.44738
G1 X106.42 Y85.967 E2.48092
G1 X107.154 Y85.865 E2.50557
G1 X108.045 Y85.776 E2.53535
G1 X108.759 Y85.725 E2.55916
G1 X109.504 Y85.698 E2.58395
G1 X110.529 Y85.698 E2.61804
G1 X111.504 Y85.742 E2.65051
G1 X112.221 Y85.802 E2.67444
G1 X113.103 Y85.901 E2.70396
G1 X113.868 Y86.011 E2.72966
G1 X114.85 Y86.191 E2.76287
G1 X115.581 Y86.349 E2.78774
G1 X116.568 Y86.603 E2.82164
G1 X117.231 Y86.802 E2.84466
G1 X118.133 Y87.11 E2.87636
G1 X118.786 Y87.351 E2.89952
G1 X119.575 Y87.672 E2.92785
G1 X120.283 Y87.996 E2.95374
G1 X121.316 Y88.509 E2.9921
G1 X121.938 Y88.852 E3.01573
G1 X122.697 Y89.305 E3.04513
G1 X123.276 Y89.674 E3.06796
G1 X124.016 Y90.174 E3.09767
G1 X124.6 Y90.601 E3.12173
G1 X125.525 Y91.337 E3.16105
G1 X126.327 Y92.039 E3.1965
G1 X127.129 Y92.705 E3.23117
G1 X127.937 Y93.472 E3.26822
G1 X128.596 Y94.152 E3.29972
G1 X129.595 Y95.299 E3.35031
G1 X130.429 Y96.431 E3.39707
G1 X131.243 Y97.752 E3.44868
G1 X131.791 Y98.817 E3.48852
G1 X132.235 Y99.779 E3.52376
G1 X132.688 Y100.904 E3.5641
G1 X133.178 Y102.508 E3.61988
G1 X133.564 Y104.4 E3.6841
G1 X133.597 Y104.629 E3.6918
G1 X133.854 Y105.915 E3.73542
G1 X134 Y106.921 E3.76923
G1 X134.08 Y107.702 E3.79534
G1 X134.157 Y108.805 E3.83211
G1 X134.173 Y109.447 E3.85347
G1 X134.176 Y110.425 E3.886
G1 X134.144 Y111.131 E3.90951
G1 X134.054 Y112.297 E3.94841
G1 X133.876 Y113.725 E3.99627
G1 X133.796 Y114.194 E4.01209
G1 X133.502 Y115.56 E4.05857
G1 X133.347 Y116.156 E4.07905
G1 X133.088 Y117.058 E4.11026
G1 X132.915 Y117.589 E4.12884
G1 X132.507 Y118.716 E4.1687
G1 X132.268 Y119.305 E4.18984
G1 X131.835 Y120.262 E4.22478
G1 X131.556 Y120.824 E4.24565
G1 X131.095 Y121.682 E4.27804
G1 X130.735 Y122.304 E4.30195
G1 X130.134 Y123.263 E4.33959
G1 X129.762 Y123.802 E4.36137
G1 X129.16 Y124.621 E4.39518
G1 X128.752 Y125.139 E4.41711
G1 X128.068 Y125.941 E4.45217
G1 X127.601 Y126.448 E4.47509
G1 X126.956 Y127.11 E4.50584
G1 X126.474 Y127.574 E4.52809
G1 X125.649 Y128.302 E4.56468
G1 X125.09 Y128.762 E4.58876
G1 X124.259 Y129.399 E4.62359
G1 X123.74 Y129.765 E4.64471
G1 X123.032 Y130.239 E4.67305
G1 X122.394 Y130.634 E4.69801
G1 X121.361 Y131.218 E4.73747
G1 X120.716 Y131.548 E4.76157
G1 X119.932 Y131.915 E4.79036
G1 X119.258 Y132.205 E4.81477
G1 X118.334 Y132.567 E4.84777
G1 X117.613 Y132.822 E4.87321
G1 X117.016 Y133.074 E4.89476
G1 X115.425 Y133.603 E4.95053
G1 X113.945 Y133.948 E5.00107
G1 X112.046 Y134.216 E5.06486
G0 F6000 X112.016 Y133.817
G1 F1200 X110.954 Y133.898 E5.10028
G1 X110.052 Y133.932 E5.13031
G1 X107.854 Y133.814 E5.20352
G1 X106.601 Y133.629 E5.24564
G1 X105.521 Y133.389 E5.28244
G1 X104.619 Y133.149 E5.31349
G1 X103.365 Y132.752 E5.35723
G1 X102.814 Y132.532 E5.37697
G1 X102.042 Y132.281 E5.40397
G1 X101.455 Y132.066 E5.42476
G1 X100.629 Y131.73 E5.45442
G1 X99.979 Y131.439 E5.47811
G1 X99.183 Y131.051 E5.50756
G1 X98.541 Y130.711 E5.53172
G1 X97.859 Y130.323 E5.55782
G1 X97.118 Y129.864 E5.58681
G1 X96.238 Y129.27 E5.62212
G1 X95.675 Y128.854 E5.6454
G1 X94.911 Y128.251 E5.67778
G1 X94.36 Y127.782 E5.70184
G1 X93.67 Y127.152 E5.73292
G1 X93.212 Y126.706 E5.75418
G1 X92.523 Y125.996 E5.78709
G1 X92.054 Y125.47 E5.81053
G1 X91.453 Y124.756 E5.84157
G1 X91.038 Y124.223 E5.86404
G1 X90.409 Y123.35 E5.89982
G1 X90.024 Y122.769 E5.923
G1 X89.537 Y121.982 E5.95379
G1 X89.166 Y121.336 E5.97856
G1 X88.639 Y120.321 E6.0166
G1 X88.377 Y119.755 E6.03735
G1 X88.05 Y119.012 E6.06435
G1 X87.792 Y118.363 E6.08758
G1 X87.419 Y117.314 E6.12461
G1 X87.213 Y116.662 E6.14735
G1 X87.001 Y115.904 E6.17353
G1 X86.816 Y115.157 E6.19912
G1 X86.592 Y114.045 E6.23685
G1 X86.492 Y113.401 E6.25853
G1 X86.37 Y112.5 E6.28877
G1 X86.306 Y111.827 E6.31125
G1 X86.237 Y110.765 E6.34665
G1 X86.224 Y110.126 E6.36791
G1 X86.226 Y109.18 E6.39937
G1 X86.26 Y108.482 E6.42261
G1 X86.339 Y107.474 E6.45624
G1 X86.403 Y106.901 E6.47542
G1 X86.569 Y105.829 E6.5115
G1 X86.832 Y104.45 E6.55819
G1 X87.234 Y102.594 E6.62135
G1 X87.489 Y101.694 E6.65247
G1 X87.984 Y100.248 E6.7033
G1 X88.355 Y99.384 E6.73457
G1 X89.334 Y97.565 E6.80328
G1 X89.91 Y96.679 E6.83843
G1 X90.537 Y95.816 E6.87391
G1 X91.493 Y94.637 E6.92439
G1 X92.436 Y93.658 E6.9696
G1 X93.714 Y92.532 E7.02626
G1 X93.866 Y92.412 E7.0327
G1 X94.526 Y91.821 E7.06216
G1 X95.064 Y91.377 E7.08536
G1 X95.766 Y90.83 E7.11496
G1 X96.312 Y90.436 E7.13736
G1 X97.089 Y89.911 E7.16855
G1 X97.676 Y89.541 E7.19163
G1 X98.52 Y89.048 E7.22414
G1 X99.146 Y88.719 E7.24766
G1 X100.184 Y88.216 E7.28602
G1 X100.805 Y87.946 E7.30854
G1 X101.574 Y87.641 E7.33606
G1 X102.224 Y87.404 E7.35907
G1 X103.161 Y87.103 E7.3918
G1 X103.86 Y86.907 E7.41595
G1 X104.794 Y86.678 E7.44793
G1 X105.493 Y86.531 E7.47169
G1 X106.475 Y86.363 E7.50483
G1 X107.194 Y86.263 E7.52897
G1 X108.073 Y86.175 E7.55835
G1 X108.773 Y86.125 E7.58169
G1 X109.518 Y86.098 E7.60649
G1 X110.511 Y86.098 E7.63952
G1 X111.471 Y86.141 E7.67148
G1 X112.176 Y86.199 E7.69501
G1 X113.046 Y86.297 E7.72413
G1 X113.796 Y86.405 E7.74933
G1 X114.766 Y86.582 E7.78212
G1 X115.481 Y86.736 E7.80645
G1 X116.453 Y86.986 E7.83983
G1 X117.102 Y87.181 E7.86237
G1 X117.995 Y87.485 E7.89374
G1 X118.635 Y87.721 E7.91643
G1 X119.409 Y88.036 E7.94423
G1 X120.105 Y88.354 E7.96968
G1 X121.123 Y88.859 E8.00747
G1 X121.733 Y89.195 E8.03064
G1 X122.482 Y89.642 E8.05965
G1 X123.052 Y90.005 E8.08212
G1 X123.78 Y90.497 E8.11135
G1 X124.351 Y90.914 E8.13486
G1 X125.264 Y91.64 E8.17366
G1 X125.755 Y92.062 E8.19519
G1 X126.071 Y92.347 E8.20935
G1 X126.873 Y93.013 E8.24402
G1 X127.661 Y93.762 E8.28018
G1 X128.294 Y94.415 E8.31043
G1 X129.293 Y95.562 E8.36102
G1 X130.088 Y96.641 E8.4056
G1 X130.902 Y97.962 E8.4572
G1 X131.428 Y98.985 E8.49546
G1 X131.864 Y99.929 E8.53005
G1 X132.305 Y101.021 E8.56922
G1 X132.795 Y102.625 E8.625
G1 X133.168 Y104.456 E8.68715
G1 X133.202 Y104.695 E8.69518
G1 X133.458 Y105.973 E8.73853
G1 X133.602 Y106.962 E8.77177
G1 X133.681 Y107.73 E8.79745
G1 X133.757 Y108.815 E8.83363
G1 X133.773 Y109.448 E8.85469
G1 X133.776 Y110.407 E8.88658
G1 X133.745 Y111.1 E8.90966
G1 X133.657 Y112.248 E8.94795
G1 X133.482 Y113.658 E8.99521
G1 X133.405 Y114.11 E9.01046
G1 X133.115 Y115.46 E9.05638
G1 X132.963 Y116.046 E9.07652
G1 X132.708 Y116.934 E9.10725
G1 X132.539 Y117.453 E9.1254
G1 X132.136 Y118.566 E9.16477
G1 X131.903 Y119.14 E9.18538
G1 X131.476 Y120.085 E9.21987
G1 X131.204 Y120.635 E9.24027
G1 X130.749 Y121.482 E9.27225
G1 X130.396 Y122.092 E9.29569
G1 X129.805 Y123.036 E9.33274
G1 X129.44 Y123.565 E9.35411
G1 X128.846 Y124.373 E9.38747
G1 X128.438 Y124.891 E9.4094
G1 X127.774 Y125.67 E9.44344
G1 X127.315 Y126.169 E9.466
G1 X126.678 Y126.822 E9.49634
G1 X126.209 Y127.274 E9.518
G1 X125.395 Y127.993 E9.55412
G1 X124.846 Y128.445 E9.57778
G1 X124.029 Y129.072 E9.61203
G1 X123.517 Y129.433 E9.63287
G1 X122.821 Y129.899 E9.66072
G1 X122.197 Y130.286 E9.68515
G1 X121.179 Y130.862 E9.72405
G1 X120.546 Y131.186 E9.7477
G1 X119.774 Y131.548 E9.77606
G1 X119.112 Y131.833 E9.80003
G1 X118.201 Y132.19 E9.83258
G1 X117.457 Y132.453 E9.85882
G1 X116.86 Y132.705 E9.88037
G1 X115.334 Y133.214 E9.93388
G1 X113.889 Y133.552 E9.98324
G1 X112.016 Y133.817 E10.04615
G0 F6000 X111.986 Y133.418
G1 F1200 X110.939 Y133.498 E10.08108
G1 X110.037 Y133.532 E10.1111
G1 X107.912 Y133.418 E10.18188
G1 X106.688 Y133.238 E10.22303
G1 X105.623 Y133.002 E10.25931
G1 X104.74 Y132.768 E10.28969
G1 X103.513 Y132.38 E10.33249
G1 X102.959 Y132.159 E10.35233
G1 X102.18 Y131.906 E10.37957
G1 X101.606 Y131.695 E10.39991
G1 X100.78 Y131.359 E10.42957
G1 X100.154 Y131.079 E10.45238
G1 X99.37 Y130.697 E10.48139
G1 X98.739 Y130.363 E10.50513
G1 X98.057 Y129.975 E10.53123
G1 X97.342 Y129.533 E10.55919
G1 X96.476 Y128.948 E10.59395
G1 X95.913 Y128.532 E10.61723
G1 X95.17 Y127.947 E10.64868
G1 X94.63 Y127.487 E10.67228
G1 X93.949 Y126.865 E10.70295
G1 X93.499 Y126.427 E10.72384
G1 X92.822 Y125.73 E10.75616
G1 X92.36 Y125.212 E10.77924
G1 X91.769 Y124.51 E10.80976
G1 X91.363 Y123.989 E10.83173
G1 X90.734 Y123.116 E10.86752
G1 X90.364 Y122.559 E10.88976
G1 X89.884 Y121.783 E10.92011
G1 X89.521 Y121.151 E10.94435
G1 X89.002 Y120.153 E10.98176
G1 X88.743 Y119.594 E11.00226
G1 X88.422 Y118.864 E11.02878
G1 X88.169 Y118.229 E11.05151
G1 X87.8 Y117.193 E11.08809
G1 X87.598 Y116.554 E11.11038
G1 X87.389 Y115.808 E11.13615
G1 X87.208 Y115.078 E11.16116
G1 X86.987 Y113.983 E11.19832
G1 X86.888 Y113.347 E11.21973
G1 X86.768 Y112.462 E11.24943
G1 X86.705 Y111.801 E11.27152
G1 X86.637 Y110.757 E11.30631
G1 X86.624 Y110.127 E11.32727
G1 X86.626 Y109.199 E11.35814
G1 X86.659 Y108.513 E11.38098
G1 X86.737 Y107.518 E11.41418
G1 X86.801 Y106.945 E11.43335
G1 X86.962 Y105.904 E11.46839
G1 X87.223 Y104.535 E11.51474
G1 X87.619 Y102.703 E11.57708
G1 X87.874 Y101.803 E11.60819
G1 X88.352 Y100.406 E11.6573
G1 X88.723 Y99.542 E11.68858
G1 X89.669 Y97.783 E11.755
G1 X90.234 Y96.914 E11.78948
G1 X90.848 Y96.068 E11.82425
G1 X91.804 Y94.889 E11.87473
G1 X92.7 Y93.958 E11.91771
G1 X93.962 Y92.846 E11.97365
G1 X94.124 Y92.718 E11.98052
G1 X94.781 Y92.129 E12.00987
G1 X95.31 Y91.692 E12.03269
G1 X96 Y91.154 E12.06179
G1 X96.536 Y90.767 E12.08378
G1 X97.302 Y90.249 E12.11453
G1 X97.878 Y89.886 E12.13718
G1 X98.706 Y89.402 E12.16908
G1 X99.32 Y89.079 E12.19215
G1 X100.344 Y88.583 E12.23
G1 X100.953 Y88.318 E12.25209
G1 X101.711 Y88.017 E12.27921
G1 X102.347 Y87.785 E12.30173
G1 X103.269 Y87.488 E12.33395
G1 X103.955 Y87.295 E12.35765
G1 X104.876 Y87.069 E12.38919
G1 X105.56 Y86.925 E12.41244
G1 X106.53 Y86.759 E12.44517
G1 X107.234 Y86.661 E12.46881
G1 X108.101 Y86.574 E12.49779
G1 X108.787 Y86.525 E12.52067
G1 X109.532 Y86.498 E12.54546
G1 X110.493 Y86.498 E12.57743
G1 X111.439 Y86.54 E12.60892
G1 X112.131 Y86.596 E12.63201
G1 X112.989 Y86.693 E12.66073
G1 X113.724 Y86.798 E12.68543
G1 X114.682 Y86.973 E12.71782
G1 X115.381 Y87.123 E12.74159
G1 X116.338 Y87.369 E12.77446
G1 X116.973 Y87.56 E12.79651
G1 X117.857 Y87.86 E12.82756
G1 X118.484 Y88.091 E12.84979
G1 X119.243 Y88.4 E12.87704
G1 X119.927 Y88.712 E12.90205
G1 X120.93 Y89.209 E12.93928
G1 X121.528 Y89.538 E12.96198
G1 X122.267 Y89.979 E12.9906
G1 X122.828 Y90.336 E13.01272
G1 X123.544 Y90.82 E13.04147
G1 X124.102 Y91.227 E13.06444
G1 X125.003 Y91.943 E13.10271
G1 X125.487 Y92.359 E13.12394
G1 X125.815 Y92.655 E13.13864
G1 X126.617 Y93.321 E13.17331
G1 X127.374 Y94.041 E13.20806
G1 X127.992 Y94.678 E13.23758
G1 X128.991 Y95.825 E13.28817
G1 X129.747 Y96.851 E13.33055
G1 X130.561 Y98.172 E13.38216
G1 X131.065 Y99.153 E13.41885
G1 X131.493 Y100.079 E13.45277
G1 X131.922 Y101.138 E13.49078
G1 X132.412 Y102.742 E13.54656
G1 X132.772 Y104.513 E13.60667
G1 X132.807 Y104.756 E13.61483
G1 X133.062 Y106.031 E13.65808
G1 X133.204 Y107.003 E13.69075
G1 X133.282 Y107.758 E13.716
G1 X133.357 Y108.825 E13.75157
G1 X133.373 Y109.449 E13.77234
G1 X133.376 Y110.389 E13.8036
G1 X133.346 Y111.07 E13.82627
G1 X133.26 Y112.199 E13.86393
G1 X133.088 Y113.591 E13.91058
G1 X133.014 Y114.026 E13.92526
G1 X132.728 Y115.36 E13.97064
G1 X132.579 Y115.936 E13.99042
G1 X132.328 Y116.81 E14.02067
G1 X132.163 Y117.317 E14.0384
G1 X131.766 Y118.415 E14.07723
G1 X131.538 Y118.975 E14.09735
G1 X131.117 Y119.908 E14.13139
G1 X130.851 Y120.446 E14.15135
G1 X130.403 Y121.282 E14.1829
G1 X130.057 Y121.88 E14.20588
G1 X129.476 Y122.809 E14.24232
G1 X129.118 Y123.328 E14.26329
G1 X128.532 Y124.125 E14.29619
G1 X128.124 Y124.643 E14.31812
G1 X127.48 Y125.399 E14.35116
G1 X127.028 Y125.89 E14.37335
G1 X126.401 Y126.534 E14.40325
G1 X125.944 Y126.974 E14.42435
G1 X125.141 Y127.684 E14.46
G1 X124.602 Y128.128 E14.48322
G1 X123.798 Y128.745 E14.51693
G1 X123.294 Y129.101 E14.53745
G1 X122.61 Y129.559 E14.56483
G1 X122 Y129.938 E14.58872
G1 X120.997 Y130.506 E14.62706
G1 X120.376 Y130.824 E14.65026
G1 X119.616 Y131.181 E14.67819
G1 X118.966 Y131.461 E14.70173
G1 X118.068 Y131.813 E14.73381
G1 X117.301 Y132.084 E14.76087
G1 X116.704 Y132.336 E14.78242
G1 X115.208 Y132.834 E14.83486
G1 X113.833 Y133.156 E14.88183
G1 X111.986 Y133.418 E14.94388
G0 F6000 X111.955 Y133.019
G1 F1200 X110.924 Y133.098 E14.97827
G1 X110.022 Y133.132 E15.00829
G1 X107.97 Y133.022 E15.07664
G1 X106.746 Y132.842 E15.11779
G1 X105.725 Y132.615 E15.15257
G1 X104.842 Y132.381 E15.18296
G1 X103.661 Y132.008 E15.22415
G1 X103.107 Y131.787 E15.24399
G1 X102.318 Y131.531 E15.27158
G1 X101.757 Y131.324 E15.29147
G1 X100.931 Y130.988 E15.32112
G1 X100.329 Y130.719 E15.34305
G1 X99.545 Y130.337 E15.37206
G1 X98.937 Y130.015 E15.39494
G1 X98.255 Y129.627 E15.42104
G1 X97.566 Y129.201 E15.44798
G1 X96.714 Y128.626 E15.48217
G1 X96.151 Y128.21 E15.50545
G1 X95.429 Y127.642 E15.53601
G1 X94.9 Y127.192 E15.55911
G1 X94.228 Y126.578 E15.58938
G1 X93.786 Y126.148 E15.60989
G1 X93.12 Y125.463 E15.64167
G1 X92.666 Y124.955 E15.66433
G1 X92.085 Y124.264 E15.69436
G1 X91.679 Y123.743 E15.71633
G1 X91.067 Y122.895 E15.75111
G1 X90.704 Y122.348 E15.77294
G1 X90.231 Y121.584 E15.80283
G1 X89.876 Y120.966 E15.82654
