;FLAVOR:Marlin
;TIME:8801
;Filament used: 6.51668m
;Layer height: 0.2
;MINX:86.515
;MINY:86.515
;MINZ:0.2
;MAXX:148.485
;MAXY:148.485
;MAXZ:106
;Generated with Cura_SteamEngine 4.8.0
M140 S50
M105
M190 S50
M104 S205
M105
M109 S205
M82 ;absolute extrusion mode
; Ender 3 Custom Start G-code
G92 E0 ; Reset Extruder
G28 ; Home all axes
G1 Z2.0 F3000 ; Move Z Axis up little to prevent scratching of Heat Bed
G1 X0.1 Y20 Z0.3 F5000.0 ; Move to start position
G1 X0.1 Y200.0 Z0.3 F1500.0 E15 ; Draw the first line
G1 X0.4 Y200.0 Z0.3 F5000.0 ; Move to side a little
G1 X0.4 Y20 Z0.3 F1500.0 E30 ; Draw the second line
G92 E0 ; Reset Extruder
G1 Z2.0 F3000 ; Move Z Axis up little to prevent scratching of Heat Bed
G1 X5 Y20 Z0.3 F5000.0 ; Move over to prevent blob squish
G92 E0
G92 E0
G1 F2700 E-5
;LAYER_COUNT:530
;LAYER:0
M107
G0 F6000 X95.351 Y95.831 Z0.2
;TYPE:SKIRT
G1 F2700 E0
G1 F1200 X95.78 Y95.403 E0.02016
G1 X96.518 Y94.706 E0.05392
G1 X96.776 Y94.471 E0.06553
G1 X97.33 Y93.979 E0.09017
G1 X97.795 Y93.589 E0.11035
G1 X98.592 Y92.958 E0.14416
G1 X98.913 Y92.713 E0.1576
G1 X99.445 Y92.317 E0.17965
G1 X99.964 Y91.954 E0.20072
G1 X100.757 Y91.433 E0.23228
G1 X101.138 Y91.192 E0.24727
G1 X101.722 Y90.833 E0.27007
G1 X102.241 Y90.533 E0.29001
G1 X102.955 Y90.146 E0.31702
G1 X103.483 Y89.871 E0.33682
G1 X104.094 Y89.564 E0.35957
G1 X104.67 Y89.295 E0.38071
G1 X105.569 Y88.908 E0.41326
G1 X105.902 Y88.772 E0.42523
G1 X106.553 Y88.512 E0.44854
G1 X107.178 Y88.284 E0.47067
G1 X108.154 Y87.962 E0.50485
G1 X108.507 Y87.853 E0.51714
G1 X109.152 Y87.66 E0.53953
G1 X109.753 Y87.498 E0.56024
G1 X110.495 Y87.321 E0.58561
G1 X110.984 Y87.212 E0.60227
G1 X111.763 Y87.05 E0.62874
G1 X112.397 Y86.937 E0.65015
G1 X113.406 Y86.79 E0.68407
G1 X113.788 Y86.742 E0.69687
G1 X114.457 Y86.664 E0.71928
G1 X115.077 Y86.609 E0.73998
G1 X116.076 Y86.551 E0.77326
G1 X116.47 Y86.535 E0.78638
G1 X117.17 Y86.515 E0.80967
G1 X117.802 Y86.516 E0.83069
G1 X118.713 Y86.543 E0.861
G1 X119.191 Y86.565 E0.87692
G1 X119.859 Y86.604 E0.89917
G1 X120.491 Y86.659 E0.92027
G1 X121.43 Y86.77 E0.95172
G1 X121.916 Y86.835 E0.96803
G1 X122.536 Y86.926 E0.98887
G1 X123.157 Y87.035 E1.00984
G1 X124.111 Y87.233 E1.04225
G1 X124.54 Y87.329 E1.05687
G1 X125.19 Y87.483 E1.07909
G1 X125.803 Y87.647 E1.10019
G1 X126.546 Y87.869 E1.12598
G1 X126.963 Y88 E1.14052
G1 X127.763 Y88.264 E1.16854
G1 X128.36 Y88.48 E1.18966
G1 X129.3 Y88.854 E1.22331
G1 X129.667 Y89.007 E1.23653
G1 X130.281 Y89.272 E1.25877
G1 X130.847 Y89.536 E1.27955
G1 X131.711 Y89.97 E1.3117
G1 X132.078 Y90.162 E1.32548
G1 X132.692 Y90.493 E1.34868
G1 X133.234 Y90.806 E1.3695
G1 X133.917 Y91.226 E1.39617
G1 X134.345 Y91.498 E1.41303
G1 X134.979 Y91.914 E1.43825
G1 X135.505 Y92.282 E1.4596
G1 X136.29 Y92.867 E1.49217
G1 X136.579 Y93.091 E1.50433
G1 X137.148 Y93.54 E1.52844
G1 X137.644 Y93.955 E1.54995
G1 X138.231 Y94.477 E1.57607
G1 X138.699 Y94.906 E1.59719
G1 X139.169 Y95.351 E1.61872
G1 X139.597 Y95.78 E1.63887
G1 X140.294 Y96.518 E1.67263
G1 X140.529 Y96.776 E1.68424
G1 X141.021 Y97.33 E1.70888
G1 X141.411 Y97.795 E1.72907
G1 X142.042 Y98.592 E1.76288
G1 X142.287 Y98.913 E1.77631
G1 X142.683 Y99.445 E1.79837
G1 X143.046 Y99.964 E1.81943
G1 X143.567 Y100.757 E1.85099
G1 X143.808 Y101.138 E1.86599
G1 X144.167 Y101.722 E1.88879
G1 X144.467 Y102.241 E1.90873
G1 X144.854 Y102.955 E1.93574
G1 X145.129 Y103.483 E1.95554
G1 X145.436 Y104.094 E1.97828
G1 X145.705 Y104.67 E1.99943
G1 X146.092 Y105.569 E2.03198
G1 X146.228 Y105.902 E2.04394
G1 X146.488 Y106.553 E2.06726
G1 X146.716 Y107.178 E2.08939
G1 X147.038 Y108.154 E2.12357
G1 X147.146 Y108.502 E2.13569
G1 X147.339 Y109.146 E2.15805
G1 X147.503 Y109.755 E2.17903
G1 X147.68 Y110.498 E2.20443
G1 X147.788 Y110.984 E2.22099
G1 X147.95 Y111.763 E2.24745
G1 X148.063 Y112.397 E2.26887
G1 X148.21 Y113.406 E2.30279
G1 X148.258 Y113.784 E2.31546
G1 X148.336 Y114.451 E2.33779
G1 X148.391 Y115.077 E2.3587
G1 X148.449 Y116.076 E2.39198
G1 X148.465 Y116.469 E2.40506
G1 X148.485 Y117.168 E2.42832
G1 X148.484 Y117.8 E2.44934
G1 X148.457 Y118.713 E2.47972
G1 X148.435 Y119.191 E2.49563
G1 X148.396 Y119.859 E2.51789
G1 X148.341 Y120.491 E2.53899
G1 X148.23 Y121.43 E2.57044
G1 X148.165 Y121.916 E2.58675
G1 X148.074 Y122.536 E2.60759
G1 X147.965 Y123.157 E2.62856
G1 X147.767 Y124.111 E2.66097
G1 X147.671 Y124.54 E2.67559
G1 X147.517 Y125.19 E2.6978
G1 X147.353 Y125.803 E2.71891
G1 X147.131 Y126.546 E2.7447
G1 X147 Y126.963 E2.75924
G1 X146.736 Y127.763 E2.78726
G1 X146.52 Y128.36 E2.80837
G1 X146.146 Y129.3 E2.84202
G1 X145.993 Y129.667 E2.85525
G1 X145.728 Y130.281 E2.87749
G1 X145.467 Y130.841 E2.89804
G1 X145.118 Y131.539 E2.924
G1 X144.841 Y132.072 E2.94397
G1 X144.511 Y132.685 E2.96713
G1 X144.193 Y133.237 E2.98832
G1 X143.772 Y133.921 E3.01503
G1 X143.502 Y134.345 E3.03175
G1 X143.086 Y134.979 E3.05697
G1 X142.718 Y135.505 E3.07832
G1 X142.133 Y136.29 E3.11088
G1 X141.906 Y136.583 E3.12321
G1 X141.455 Y137.154 E3.14741
G1 X141.045 Y137.644 E3.16866
G1 X140.525 Y138.229 E3.1947
G1 X140.094 Y138.699 E3.21591
G1 X139.649 Y139.169 E3.23743
G1 X139.22 Y139.597 E3.25759
G1 X138.482 Y140.294 E3.29135
G1 X138.224 Y140.529 E3.30296
G1 X137.67 Y141.021 E3.3276
G1 X137.205 Y141.411 E3.34779
G1 X136.408 Y142.042 E3.3816
G1 X136.087 Y142.287 E3.39503
G1 X135.555 Y142.683 E3.41709
G1 X135.036 Y143.046 E3.43815
G1 X134.243 Y143.567 E3.46971
G1 X133.862 Y143.808 E3.48471
G1 X133.278 Y144.167 E3.50751
G1 X132.759 Y144.467 E3.52744
G1 X132.045 Y144.854 E3.55446
G1 X131.517 Y145.129 E3.57426
G1 X130.906 Y145.436 E3.597
G1 X130.33 Y145.705 E3.61814
G1 X129.431 Y146.092 E3.6507
G1 X129.098 Y146.228 E3.66266
G1 X128.447 Y146.488 E3.68598
G1 X127.822 Y146.716 E3.7081
G1 X126.846 Y147.038 E3.74229
G1 X126.493 Y147.147 E3.75457
G1 X125.848 Y147.34 E3.77697
G1 X125.247 Y147.502 E3.79767
G1 X124.505 Y147.679 E3.82304
G1 X124.016 Y147.788 E3.83971
G1 X123.237 Y147.95 E3.86617
G1 X122.603 Y148.063 E3.88759
G1 X121.594 Y148.21 E3.9215
G1 X121.212 Y148.258 E3.93431
G1 X120.543 Y148.336 E3.95671
G1 X119.923 Y148.391 E3.97741
G1 X118.924 Y148.449 E4.01069
G1 X118.53 Y148.465 E4.02381
G1 X117.83 Y148.485 E4.0471
G1 X117.198 Y148.484 E4.06812
G1 X116.287 Y148.457 E4.09843
G1 X115.809 Y148.435 E4.11435
G1 X115.141 Y148.396 E4.13661
G1 X114.509 Y148.341 E4.15771
G1 X113.57 Y148.23 E4.18915
G1 X113.084 Y148.165 E4.20546
G1 X112.464 Y148.074 E4.2263
G1 X111.843 Y147.965 E4.24728
G1 X110.889 Y147.767 E4.27968
G1 X110.452 Y147.669 E4.29458
G1 X109.8 Y147.514 E4.31687
G1 X109.2 Y147.353 E4.33753
G1 X108.28 Y147.077 E4.36948
G1 X107.905 Y146.957 E4.38257
G1 X107.237 Y146.736 E4.40597
G1 X106.64 Y146.52 E4.42709
G1 X105.7 Y146.146 E4.46074
G1 X105.331 Y145.992 E4.47404
G1 X104.715 Y145.726 E4.49635
G1 X104.151 Y145.463 E4.51705
G1 X103.289 Y145.03 E4.54914
G1 X102.918 Y144.835 E4.56308
G1 X102.301 Y144.502 E4.5864
G1 X101.765 Y144.193 E4.60697
G1 X100.906 Y143.663 E4.64054
G1 X100.552 Y143.435 E4.65455
G1 X100.021 Y143.086 E4.67568
G1 X99.495 Y142.718 E4.69703
G1 X98.71 Y142.133 E4.7296
G1 X98.415 Y141.905 E4.742
G1 X97.843 Y141.453 E4.76624
G1 X97.356 Y141.044 E4.7874
G1 X96.648 Y140.413 E4.81894
G1 X96.301 Y140.094 E4.83462
G1 X95.831 Y139.649 E4.85614
G1 X95.403 Y139.22 E4.8763
G1 X94.706 Y138.482 E4.91006
G1 X94.47 Y138.223 E4.92172
G1 X93.972 Y137.662 E4.94667
G1 X93.58 Y137.195 E4.96695
G1 X93.07 Y136.552 E4.99424
G1 X92.715 Y136.09 E5.01362
G1 X92.318 Y135.557 E5.03573
G1 X91.95 Y135.032 E5.05705
G1 X91.525 Y134.386 E5.08277
G1 X91.281 Y134.004 E5.09785
G1 X90.835 Y133.281 E5.1261
G1 X90.53 Y132.753 E5.14638
G1 X90.058 Y131.878 E5.17945
G1 X89.871 Y131.517 E5.19297
G1 X89.564 Y130.906 E5.21571
G1 X89.295 Y130.33 E5.23686
G1 X88.908 Y129.431 E5.26941
G1 X88.773 Y129.101 E5.28127
G1 X88.512 Y128.448 E5.30466
G1 X88.281 Y127.816 E5.32704
G1 X87.962 Y126.846 E5.361
G1 X87.853 Y126.493 E5.37329
G1 X87.66 Y125.848 E5.39568
G1 X87.498 Y125.247 E5.41638
G1 X87.321 Y124.505 E5.44176
G1 X87.212 Y124.016 E5.45842
G1 X87.05 Y123.237 E5.48488
G1 X86.937 Y122.603 E5.5063
G1 X86.79 Y121.594 E5.54022
G1 X86.742 Y121.212 E5.55302
G1 X86.664 Y120.543 E5.57542
G1 X86.609 Y119.923 E5.59613
G1 X86.551 Y118.924 E5.62941
G1 X86.535 Y118.526 E5.64266
G1 X86.515 Y117.817 E5.66625
G1 X86.516 Y117.185 E5.68727
G1 X86.543 Y116.287 E5.71715
G1 X86.565 Y115.809 E5.73306
G1 X86.604 Y115.141 E5.75532
G1 X86.659 Y114.509 E5.77642
G1 X86.77 Y113.57 E5.80787
G1 X86.835 Y113.084 E5.82418
G1 X86.926 Y112.464 E5.84502
G1 X87.035 Y111.843 E5.86599
G1 X87.233 Y110.889 E5.8984
G1 X87.329 Y110.46 E5.91302
G1 X87.483 Y109.81 E5.93523
G1 X87.647 Y109.197 E5.95634
G1 X87.923 Y108.279 E5.98822
G1 X88.051 Y107.879 E6.00219
G1 X88.265 Y107.233 E6.02483
G1 X88.48 Y106.64 E6.04581
G1 X88.854 Y105.7 E6.07945
G1 X89.007 Y105.333 E6.09268
G1 X89.272 Y104.719 E6.11492
G1 X89.536 Y104.153 E6.13569
G1 X89.97 Y103.289 E6.16785
G1 X90.159 Y102.928 E6.1814
G1 X90.489 Y102.315 E6.20456
G1 X90.807 Y101.763 E6.22575
G1 X91.228 Y101.079 E6.25246
G1 X91.498 Y100.655 E6.26918
G1 X91.914 Y100.021 E6.2944
G1 X92.282 Y99.495 E6.31575
G1 X92.867 Y98.71 E6.34832
G1 X93.094 Y98.417 E6.36064
G1 X93.545 Y97.846 E6.38484
G1 X93.955 Y97.356 E6.40609
G1 X94.475 Y96.771 E6.43213
G1 X94.906 Y96.301 E6.45334
G1 X95.351 Y95.831 E6.47486
G0 F6000 X95.642 Y96.106
G1 F1200 X96.055 Y95.693 E6.49429
G1 X96.789 Y95.001 E6.52784
G1 X97.041 Y94.77 E6.53921
G1 X97.595 Y94.278 E6.56386
G1 X98.043 Y93.902 E6.58331
G1 X98.693 Y93.386 E6.61091
G1 X99.033 Y93.124 E6.62519
G1 X99.684 Y92.638 E6.65221
G1 X100.184 Y92.288 E6.67251
G1 X100.972 Y91.771 E6.70386
G1 X101.348 Y91.533 E6.71866
G1 X101.932 Y91.174 E6.74146
G1 X102.432 Y90.885 E6.76066
G1 X103.146 Y90.498 E6.78768
G1 X103.663 Y90.228 E6.80708
G1 X104.274 Y89.921 E6.82982
G1 X104.829 Y89.662 E6.85019
G1 X105.721 Y89.278 E6.88249
G1 X106.05 Y89.143 E6.89432
G1 X106.701 Y88.883 E6.91763
G1 X107.303 Y88.664 E6.93894
G1 X108.273 Y88.344 E6.97291
G1 X108.621 Y88.236 E6.98503
G1 X109.266 Y88.043 E7.00742
G1 X109.845 Y87.887 E7.02737
G1 X110.587 Y87.71 E7.05274
G1 X111.185 Y87.578 E7.07311
G1 X111.845 Y87.441 E7.09553
G1 X112.455 Y87.333 E7.11613
G1 X113.458 Y87.187 E7.14984
G1 X113.834 Y87.139 E7.16245
G1 X114.503 Y87.061 E7.18485
G1 X115.101 Y87.009 E7.20482
G1 X116.094 Y86.951 E7.2379
G1 X116.481 Y86.935 E7.25078
G1 X117.181 Y86.915 E7.27407
G1 X117.79 Y86.915 E7.29433
G1 X118.551 Y86.937 E7.31965
G1 X119.168 Y86.964 E7.34019
G1 X119.836 Y87.003 E7.36245
G1 X120.445 Y87.056 E7.38278
G1 X121.378 Y87.166 E7.41403
G1 X121.858 Y87.23 E7.43013
G1 X122.478 Y87.321 E7.45097
G1 X123.077 Y87.427 E7.47121
G1 X124.024 Y87.623 E7.50337
G1 X124.448 Y87.719 E7.51783
G1 X125.098 Y87.873 E7.54005
G1 X125.689 Y88.031 E7.5604
G1 X126.599 Y88.304 E7.592
G1 X126.969 Y88.422 E7.60491
G1 X127.637 Y88.643 E7.62831
G1 X128.212 Y88.852 E7.64866
G1 X129.147 Y89.224 E7.68213
G1 X129.508 Y89.375 E7.69515
G1 X130.122 Y89.64 E7.71739
G1 X130.668 Y89.894 E7.73742
G1 X131.527 Y90.325 E7.76938
G1 X131.888 Y90.514 E7.78294
G1 X132.502 Y90.845 E7.80614
G1 X133.024 Y91.147 E7.82619
G1 X133.878 Y91.674 E7.85957
G1 X134.228 Y91.899 E7.87341
G1 X134.759 Y92.248 E7.89455
G1 X135.266 Y92.603 E7.91513
G1 X136.046 Y93.185 E7.9475
G1 X136.331 Y93.405 E7.95947
G1 X136.9 Y93.854 E7.98358
G1 X137.378 Y94.254 E8.00431
G1 X138.082 Y94.882 E8.03569
G1 X138.424 Y95.197 E8.05115
G1 X138.894 Y95.642 E8.07268
G1 X139.307 Y96.055 E8.09211
G1 X139.999 Y96.789 E8.12566
G1 X140.23 Y97.041 E8.13703
G1 X140.722 Y97.595 E8.16167
G1 X141.098 Y98.043 E8.18113
G1 X141.614 Y98.693 E8.20873
G1 X141.876 Y99.033 E8.22301
G1 X142.362 Y99.684 E8.25003
G1 X142.712 Y100.184 E8.27033
G1 X143.229 Y100.972 E8.30167
G1 X143.467 Y101.348 E8.31647
G1 X143.826 Y101.932 E8.33927
G1 X144.115 Y102.432 E8.35848
G1 X144.502 Y103.146 E8.38549
G1 X144.772 Y103.663 E8.40489
G1 X145.079 Y104.274 E8.42764
G1 X145.338 Y104.829 E8.44801
G1 X145.722 Y105.721 E8.48031
G1 X145.857 Y106.05 E8.49214
G1 X146.117 Y106.701 E8.51545
G1 X146.336 Y107.303 E8.53676
G1 X146.656 Y108.273 E8.57073
G1 X146.763 Y108.617 E8.58271
G1 X146.956 Y109.261 E8.60507
G1 X147.113 Y109.848 E8.62528
G1 X147.333 Y110.778 E8.65707
G1 X147.422 Y111.185 E8.67092
G1 X147.559 Y111.845 E8.69334
G1 X147.667 Y112.455 E8.71395
G1 X147.813 Y113.458 E8.74766
G1 X147.86 Y113.831 E8.76016
G1 X147.938 Y114.498 E8.7825
G1 X147.991 Y115.101 E8.80263
G1 X148.049 Y116.094 E8.83572
G1 X148.065 Y116.481 E8.8486
G1 X148.085 Y117.18 E8.87186
G1 X148.085 Y117.789 E8.89211
G1 X148.063 Y118.551 E8.91747
G1 X148.036 Y119.168 E8.93801
G1 X147.997 Y119.836 E8.96026
G1 X147.944 Y120.445 E8.9806
G1 X147.834 Y121.378 E9.01184
G1 X147.77 Y121.858 E9.02795
G1 X147.679 Y122.478 E9.04879
G1 X147.573 Y123.077 E9.06902
G1 X147.377 Y124.024 E9.10119
G1 X147.281 Y124.448 E9.11565
G1 X147.127 Y125.098 E9.13787
G1 X146.969 Y125.689 E9.15821
G1 X146.696 Y126.599 E9.18981
G1 X146.578 Y126.969 E9.20273
G1 X146.357 Y127.637 E9.22613
G1 X146.148 Y128.212 E9.24648
G1 X145.776 Y129.147 E9.27995
G1 X145.625 Y129.508 E9.29296
G1 X145.36 Y130.122 E9.31521
G1 X145.109 Y130.662 E9.33501
G1 X144.68 Y131.518 E9.36686
G1 X144.488 Y131.883 E9.38058
G1 X144.158 Y132.496 E9.40373
G1 X143.852 Y133.027 E9.42411
G1 X143.431 Y133.711 E9.45083
G1 X143.165 Y134.129 E9.46731
G1 X142.752 Y134.759 E9.49236
G1 X142.397 Y135.266 E9.51295
G1 X141.815 Y136.046 E9.54532
G1 X141.592 Y136.335 E9.55746
G1 X141.141 Y136.906 E9.58166
G1 X140.746 Y137.378 E9.60213
G1 X140.118 Y138.082 E9.63351
G1 X139.803 Y138.424 E9.64897
G1 X139.358 Y138.894 E9.6705
G1 X138.945 Y139.307 E9.68993
G1 X138.211 Y139.999 E9.72348
G1 X137.959 Y140.23 E9.73485
G1 X137.405 Y140.722 E9.75949
G1 X136.957 Y141.098 E9.77894
G1 X136.307 Y141.614 E9.80655
G1 X135.967 Y141.876 E9.82082
G1 X135.316 Y142.362 E9.84784
G1 X134.816 Y142.712 E9.86814
G1 X134.028 Y143.229 E9.89949
G1 X133.652 Y143.467 E9.91429
G1 X133.068 Y143.826 E9.93709
G1 X132.568 Y144.115 E9.9563
G1 X131.854 Y144.502 E9.98331
G1 X131.337 Y144.772 E10.00271
G1 X130.726 Y145.079 E10.02545
G1 X130.171 Y145.338 E10.04582
G1 X129.279 Y145.722 E10.07812
G1 X128.95 Y145.857 E10.08995
G1 X128.299 Y146.117 E10.11327
G1 X127.697 Y146.336 E10.13457
G1 X126.727 Y146.656 E10.16855
G1 X126.379 Y146.764 E10.18067
G1 X125.734 Y146.957 E10.20306
G1 X125.155 Y147.113 E10.223
G1 X124.413 Y147.29 E10.24837
G1 X123.815 Y147.422 E10.26874
G1 X123.155 Y147.559 E10.29116
G1 X122.545 Y147.667 E10.31177
G1 X121.542 Y147.813 E10.34548
G1 X121.166 Y147.861 E10.35809
G1 X120.497 Y147.939 E10.38049
G1 X119.899 Y147.991 E10.40045
G1 X118.906 Y148.049 E10.43354
G1 X118.519 Y148.065 E10.44642
G1 X117.819 Y148.085 E10.46971
G1 X117.21 Y148.085 E10.48996
G1 X116.449 Y148.063 E10.51529
G1 X115.832 Y148.036 E10.53583
G1 X115.164 Y147.997 E10.55808
G1 X114.555 Y147.944 E10.57842
G1 X113.622 Y147.834 E10.60966
G1 X113.142 Y147.77 E10.62577
G1 X112.522 Y147.679 E10.64661
G1 X111.923 Y147.573 E10.66684
G1 X110.976 Y147.377 E10.69901
G1 X110.544 Y147.28 E10.71373
G1 X109.892 Y147.125 E10.73602
G1 X109.314 Y146.97 E10.75593
G1 X108.401 Y146.696 E10.78763
G1 X108.031 Y146.578 E10.80055
G1 X107.363 Y146.357 E10.82395
G1 X106.788 Y146.148 E10.8443
G1 X105.853 Y145.776 E10.87777
G1 X105.49 Y145.624 E10.89086
G1 X104.874 Y145.358 E10.91317
G1 X104.33 Y145.105 E10.93313
G1 X103.473 Y144.675 E10.96502
G1 X103.108 Y144.483 E10.97874
G1 X102.491 Y144.15 E11.00206
G1 X101.974 Y143.852 E11.0219
G1 X101.294 Y143.434 E11.04845
G1 X100.871 Y143.165 E11.06513
G1 X100.241 Y142.752 E11.09018
G1 X99.734 Y142.397 E11.11077
G1 X98.954 Y141.815 E11.14313
G1 X98.663 Y141.591 E11.15535
G1 X98.091 Y141.139 E11.1796
G1 X97.622 Y140.745 E11.19997
G1 X96.918 Y140.118 E11.23132
G1 X96.576 Y139.803 E11.24679
G1 X96.106 Y139.358 E11.26832
G1 X95.693 Y138.945 E11.28774
G1 X95.001 Y138.211 E11.3213
G1 X94.769 Y137.957 E11.33274
G1 X94.271 Y137.396 E11.35769
G1 X93.893 Y136.946 E11.37723
G1 X93.383 Y136.303 E11.40453
G1 X93.036 Y135.851 E11.42348
G1 X92.639 Y135.318 E11.44559
G1 X92.285 Y134.812 E11.46613
G1 X91.771 Y134.028 E11.49731
G1 X91.535 Y133.656 E11.51196
