;FLAVOR:Marlin
;TIME:25515
;Filament used: 13.0526m
;Layer height: 0.12
;MINX:34.335
;MINY:44.335
;MINZ:0.2
;MAXX:185.665
;MAXY:175.665
;MAXZ:12.92
;Generated with Cura_SteamEngine 4.9.0
M140 S60
M105
M190 S60
M104 S200
M105
M109 S200
M82 ;absolute extrusion mode
; Ender 3 Custom Start G-code
G92 E0 ; Reset Extruder
G28G29 ; Home all axes and set bed height
G1 Z2.0 F3000 ; Move Z Axis up little to prevent scratching of Heat Bed
G1 X0.1 Y20 Z0.3 F5000.0 ; Move to start position
G1 X0.1 Y200.0 Z0.3 F1500.0 E15 ; Draw the first line
G1 X0.4 Y200.0 Z0.3 F5000.0 ; Move to side a little
G1 X0.4 Y20 Z0.3 F1500.0 E30 ; Draw the second line
G92 E0 ; Reset Extruder
G1 Z2.0 F3000 ; Move Z Axis up little to prevent scratching of Heat Bed
G1 X5 Y20 Z0.3 F5000.0 ; Move over to prevent blob squish
G92 E0
G92 E0
G1 F1500 E-6.5
;LAYER_COUNT:91
;LAYER:0
M107
;MESH:T41 Front left panel V010-Front Panel full.stl
G0 F6000 X180.197 Y51.473 Z0.2
;TYPE:WALL-INNER
G1 F1500 E0
G1 F1200 X180.554 Y51.563 E0.01225
G1 X180.939 Y51.602 E0.02512
G1 X181.331 Y51.582 E0.03817
G1 X181.711 Y51.504 E0.05107
G1 X182.076 Y51.369 E0.06402
G1 X182.418 Y51.183 E0.07697
G1 X182.724 Y50.95 E0.08976
G1 X182.997 Y50.668 E0.10281
G1 X183.226 Y50.348 E0.1159
G1 X183.441 Y49.901 E0.1324
G1 X183.552 Y49.509 E0.14595
G1 X183.6 Y49.124 E0.15885
G1 X183.589 Y48.725 E0.17213
G1 X183.493 Y48.253 E0.18815
G1 X183.35 Y47.88 E0.20143
G1 X183.149 Y47.533 E0.21477
G1 X182.908 Y47.23 E0.22765
G1 X182.617 Y46.962 E0.24081
G1 X182.288 Y46.739 E0.25403
G1 X181.838 Y46.535 E0.27046
G1 X181.803 Y46.527 E0.27165
G1 X181.446 Y46.437 E0.2839
G1 X181.069 Y46.398 E0.29651
G1 X181.061 Y46.398 E0.29677
G1 X181.042 Y46.398 E0.2974
G1 X180.669 Y46.418 E0.30983
G1 X180.291 Y46.496 E0.32266
G1 X179.937 Y46.624 E0.33518
G1 X179.582 Y46.818 E0.34864
G1 X179.276 Y47.05 E0.36141
G1 X179.003 Y47.332 E0.37447
G1 X178.774 Y47.652 E0.38755
G1 X178.557 Y48.099 E0.40408
G1 X178.449 Y48.489 E0.41754
G1 X178.4 Y48.876 E0.43052
G1 X178.411 Y49.259 E0.44326
G1 X178.48 Y49.656 E0.45666
G1 X178.649 Y50.119 E0.47305
G1 X178.854 Y50.473 E0.48666
G1 X179.098 Y50.776 E0.4996
G1 X179.382 Y51.038 E0.51245
G1 X179.711 Y51.261 E0.52567
G1 X180.162 Y51.465 E0.54213
G1 X180.197 Y51.473 E0.54333
G0 F6000 X180.294 Y51.086
G1 F1200 X180.623 Y51.168 E0.55461
G1 X180.949 Y51.201 E0.5655
G1 X181.28 Y51.184 E0.57653
G1 X181.601 Y51.118 E0.58743
G1 X181.91 Y51.004 E0.59838
G1 X182.2 Y50.846 E0.60937
G1 X182.458 Y50.65 E0.62014
G1 X182.689 Y50.411 E0.6312
G1 X182.881 Y50.143 E0.64216
G1 X183.066 Y49.759 E0.65634
G1 X183.159 Y49.43 E0.66771
G1 X183.199 Y49.105 E0.6786
G1 X183.19 Y48.77 E0.68975
G1 X183.108 Y48.365 E0.70349
G1 X182.988 Y48.053 E0.71461
G1 X182.818 Y47.759 E0.72591
G1 X182.614 Y47.503 E0.73679
G1 X182.368 Y47.276 E0.74793
G1 X182.092 Y47.089 E0.75901
G1 X181.706 Y46.914 E0.77311
G1 X181.377 Y46.832 E0.78439
G1 X181.051 Y46.799 E0.79529
G1 X180.72 Y46.816 E0.80631
G1 X180.4 Y46.882 E0.81718
G1 X180.102 Y46.99 E0.82772
G1 X179.8 Y47.155 E0.83917
G1 X179.542 Y47.35 E0.84992
G1 X179.311 Y47.589 E0.86098
G1 X179.119 Y47.857 E0.87194
G1 X178.933 Y48.241 E0.88613
G1 X178.842 Y48.568 E0.89742
G1 X178.801 Y48.895 E0.90838
G1 X178.81 Y49.219 E0.91916
G1 X178.868 Y49.552 E0.93041
G1 X179.013 Y49.949 E0.94446
G1 X179.185 Y50.246 E0.95588
G1 X179.391 Y50.502 E0.96681
G1 X179.631 Y50.724 E0.97768
G1 X179.907 Y50.911 E0.98877
G1 X180.294 Y51.086 E1.0029
G0 F6000 X180.426 Y50.707
;TYPE:WALL-OUTER
G1 F1200 X180.692 Y50.773 E1.01201
G1 X180.959 Y50.8 E1.02094
G1 X181.229 Y50.786 E1.02993
G1 X181.491 Y50.732 E1.03883
G1 X181.744 Y50.639 E1.04779
G1 X181.982 Y50.509 E1.05681
G1 X182.192 Y50.35 E1.06557
G1 X182.381 Y50.154 E1.07463
G1 X182.536 Y49.938 E1.08347
G1 X182.691 Y49.617 E1.09533
G1 X182.766 Y49.351 E1.10452
G1 X182.798 Y49.086 E1.1134
G1 X182.791 Y48.815 E1.12242
G1 X182.723 Y48.477 E1.13388
G1 X182.626 Y48.226 E1.14283
G1 X182.487 Y47.985 E1.15209
G1 X182.32 Y47.776 E1.16098
G1 X182.119 Y47.59 E1.17009
G1 X181.896 Y47.439 E1.17905
G1 X181.574 Y47.293 E1.19081
G1 X181.308 Y47.227 E1.19992
G1 X181.041 Y47.2 E1.20885
G1 X180.771 Y47.214 E1.21784
G1 X180.509 Y47.268 E1.22674
G1 X180.267 Y47.356 E1.2353
G1 X180.017 Y47.492 E1.24477
G1 X179.808 Y47.65 E1.25348
G1 X179.619 Y47.846 E1.26254
G1 X179.464 Y48.062 E1.27138
G1 X179.309 Y48.383 E1.28324
G1 X179.235 Y48.647 E1.29236
G1 X179.202 Y48.914 E1.30131
G1 X179.209 Y49.179 E1.31012
G1 X179.256 Y49.448 E1.31921
G1 X179.377 Y49.779 E1.33093
G1 X179.516 Y50.019 E1.34015
G1 X179.684 Y50.228 E1.34907
G1 X179.881 Y50.41 E1.35799
G1 X180.103 Y50.561 E1.36692
G1 X180.426 Y50.707 E1.37871
G0 F6000 X180.282 Y51.122
G1 F1500 E-5.12129
G0 F6000 X178.944 Y50.92
G0 X180.311 Y49.632
G0 X127.649 Y92.599
G0 X53.653 Y92.653
G0 X53.593 Y153.023
G0 X44.824 Y160.18
G0 X46.629 Y160.634
G0 X45.595 Y162.15
;TYPE:WALL-INNER
G1 F1500 E1.37871
G1 F1200 X45.895 Y161.813 E1.39372
G1 X46.138 Y161.433 E1.40872
G1 X46.322 Y161.026 E1.42358
G1 X46.442 Y160.595 E1.43846
G1 X46.5 Y160.148 E1.45345
G1 X46.487 Y159.696 E1.46849
G1 X46.408 Y159.254 E1.48342
G1 X46.266 Y158.831 E1.49826
G1 X46.061 Y158.434 E1.51312
G1 X45.799 Y158.068 E1.52809
G1 X45.485 Y157.748 E1.543
G1 X45.129 Y157.477 E1.55789
G1 X44.732 Y157.261 E1.57292
G1 X44.31 Y157.109 E1.58784
G1 X43.75 Y156.998 E1.60682
G1 X43.186 Y157.111 E1.62596
G1 X42.763 Y157.263 E1.64091
G1 X42.369 Y157.478 E1.65583
G1 X42.011 Y157.751 E1.67081
G1 X41.698 Y158.073 E1.68574
G1 X41.438 Y158.436 E1.7006
G1 X41.233 Y158.833 E1.71546
G1 X41.09 Y159.26 E1.73043
G1 X41.013 Y159.697 E1.74519
G1 X40.999 Y160.122 E1.75933
G1 X41.058 Y160.593 E1.77512
G1 X41.178 Y161.026 E1.79007
G1 X41.362 Y161.433 E1.80492
G1 X41.605 Y161.813 E1.81993
G1 X41.905 Y162.15 E1.83493
G1 X42.247 Y162.436 E1.84976
G1 X42.63 Y162.671 E1.86471
G1 X43.042 Y162.844 E1.87957
G1 X43.515 Y162.966 E1.89581
G1 X43.985 Y162.966 E1.91145
G1 X44.458 Y162.844 E1.92769
G1 X44.87 Y162.671 E1.94256
G1 X45.253 Y162.436 E1.9575
G1 X45.595 Y162.15 E1.97233
G0 F6000 X45.316 Y161.862
G1 F1200 X45.575 Y161.571 E1.98529
G1 X45.785 Y161.242 E1.99827
G1 X45.945 Y160.889 E2.01116
G1 X46.049 Y160.515 E2.02407
G1 X46.099 Y160.128 E2.03705
G1 X46.088 Y159.737 E2.05006
G1 X46.019 Y159.354 E2.063
G1 X45.896 Y158.987 E2.07588
G1 X45.719 Y158.643 E2.08874
G1 X45.492 Y158.326 E2.10171
G1 X45.22 Y158.049 E2.11462
G1 X44.911 Y157.814 E2.12754
G1 X44.568 Y157.627 E2.14053
G1 X44.203 Y157.496 E2.15343
G1 X43.75 Y157.406 E2.16879
G1 X43.294 Y157.497 E2.18425
G1 X42.928 Y157.629 E2.19719
G1 X42.587 Y157.815 E2.21011
G1 X42.277 Y158.051 E2.22307
G1 X42.006 Y158.33 E2.23601
G1 X41.78 Y158.645 E2.2489
G1 X41.603 Y158.989 E2.26177
G1 X41.479 Y159.359 E2.27475
G1 X41.412 Y159.739 E2.28758
G1 X41.4 Y160.104 E2.29973
G1 X41.451 Y160.514 E2.31347
G1 X41.555 Y160.889 E2.32642
G1 X41.715 Y161.242 E2.33931
G1 X41.925 Y161.571 E2.35229
G1 X42.184 Y161.862 E2.36524
G1 X42.481 Y162.11 E2.37811
G1 X42.813 Y162.314 E2.39107
G1 X43.17 Y162.464 E2.40395
G1 X43.566 Y162.566 E2.41755
G1 X43.934 Y162.566 E2.42979
G1 X44.33 Y162.464 E2.4434
G1 X44.687 Y162.314 E2.45627
G1 X45.019 Y162.11 E2.46923
G1 X45.316 Y161.862 E2.4821
G0 F6000 X45.036 Y161.574
;TYPE:WALL-OUTER
G1 F1200 X45.255 Y161.328 E2.49306
G1 X45.433 Y161.051 E2.50401
G1 X45.568 Y160.752 E2.51492
G1 X45.656 Y160.436 E2.52583
G1 X45.698 Y160.108 E2.53683
G1 X45.689 Y159.778 E2.54781
G1 X45.631 Y159.454 E2.55876
G1 X45.526 Y159.143 E2.56967
G1 X45.377 Y158.852 E2.58055
G1 X45.185 Y158.584 E2.59151
G1 X44.955 Y158.35 E2.60243
G1 X44.693 Y158.151 E2.61337
G1 X44.404 Y157.993 E2.62432
G1 X44.096 Y157.883 E2.6352
G1 X43.75 Y157.814 E2.64694
G1 X43.402 Y157.883 E2.65874
G1 X43.093 Y157.995 E2.66967
G1 X42.805 Y158.152 E2.68058
G1 X42.543 Y158.351 E2.69152
G1 X42.314 Y158.587 E2.70246
G1 X42.122 Y158.854 E2.7134
G1 X41.973 Y159.145 E2.72427
G1 X41.868 Y159.458 E2.73525
G1 X41.811 Y159.781 E2.74616
G1 X41.801 Y160.086 E2.75631
G1 X41.844 Y160.436 E2.76804
G1 X41.932 Y160.752 E2.77895
G1 X42.067 Y161.051 E2.78986
G1 X42.245 Y161.328 E2.80081
G1 X42.464 Y161.574 E2.81177
G1 X42.715 Y161.785 E2.82267
G1 X42.996 Y161.957 E2.83363
G1 X43.298 Y162.084 E2.84453
G1 X43.617 Y162.166 E2.85548
G1 X43.883 Y162.166 E2.86433
G1 X44.202 Y162.084 E2.87528
G1 X44.504 Y161.957 E2.88618
G1 X44.785 Y161.785 E2.89714
G1 X45.036 Y161.574 E2.90804
G0 F6000 X45.342 Y161.889
G1 F1500 E-3.59196
G0 F6000 X45.892 Y160.483
G0 X45.928 Y159.754
G0 X45.747 Y159.05
G0 X44.361 Y156.925
G0 X43.856 Y158.713
G0 X43.918 Y90.268
G0 X44.564 Y92.007
G0 X44.875 Y91.67
;TYPE:WALL-INNER
G1 F1500 E2.90804
G1 F1200 X45.257 Y91.433 E2.923
G1 X45.598 Y91.146 E2.93782
G1 X45.897 Y90.809 E2.9528
G1 X46.14 Y90.43 E2.96778
G1 X46.323 Y90.021 E2.98268
G1 X46.442 Y89.591 E2.99752
G1 X46.5 Y89.147 E3.01241
G1 X46.487 Y88.701 E3.02725
G1 X46.41 Y88.26 E3.04214
G1 X46.267 Y87.833 E3.05712
G1 X46.062 Y87.436 E3.07198
G1 X45.802 Y87.073 E3.08683
G1 X45.489 Y86.751 E3.10177
G1 X45.131 Y86.478 E3.11674
G1 X44.737 Y86.263 E3.13167
G1 X44.374 Y86.132 E3.14451
G1 X44.029 Y86.003 E3.15676
G1 X43.479 Y86.002 E3.17505
G1 X43.008 Y86.17 E3.19168
G1 X42.628 Y86.329 E3.20538
G1 X42.226 Y86.579 E3.22113
G1 X41.904 Y86.852 E3.23517
G1 X41.605 Y87.187 E3.2501
G1 X41.362 Y87.567 E3.26511
G1 X41.178 Y87.974 E3.27996
G1 X41.058 Y88.404 E3.29481
G1 X41 Y88.851 E3.3098
G1 X41.013 Y89.299 E3.32471
G1 X41.09 Y89.741 E3.33963
G1 X41.235 Y90.17 E3.35469
G1 X41.452 Y90.589 E3.37039
G1 X41.718 Y90.952 E3.38536
G1 X42.036 Y91.27 E3.40031
G1 X42.395 Y91.537 E3.41519
G1 X42.789 Y91.747 E3.43004
G1 X43.138 Y91.871 E3.44236
G1 X43.473 Y91.998 E3.45428
G1 X44.027 Y91.997 E3.4727
G1 X44.495 Y91.829 E3.48924
G1 X44.875 Y91.67 E3.50294
G0 F6000 X44.691 Y91.313
G1 F1200 X45.022 Y91.108 E3.51589
G1 X45.318 Y90.859 E3.52876
G1 X45.577 Y90.567 E3.54174
G1 X45.787 Y90.239 E3.55469
G1 X45.946 Y89.885 E3.5676
G1 X46.049 Y89.512 E3.58047
G1 X46.099 Y89.127 E3.59338
G1 X46.088 Y88.741 E3.60623
G1 X46.021 Y88.359 E3.61913
G1 X45.897 Y87.989 E3.63211
G1 X45.72 Y87.645 E3.64497
G1 X45.494 Y87.33 E3.65787
G1 X45.223 Y87.051 E3.6708
G1 X44.913 Y86.815 E3.68376
G1 X44.572 Y86.629 E3.69668
G1 X44.234 Y86.507 E3.70863
G1 X43.956 Y86.403 E3.71851
G1 X43.548 Y86.402 E3.73208
G1 X43.153 Y86.543 E3.74603
G1 X42.812 Y86.686 E3.75832
G1 X42.462 Y86.903 E3.77202
G1 X42.184 Y87.139 E3.78415
G1 X41.925 Y87.429 E3.79708
G1 X41.715 Y87.758 E3.81006
G1 X41.555 Y88.111 E3.82295
G1 X41.451 Y88.484 E3.83583
G1 X41.401 Y88.871 E3.84881
G1 X41.412 Y89.259 E3.86172
G1 X41.479 Y89.642 E3.87465
G1 X41.604 Y90.013 E3.88768
G1 X41.793 Y90.377 E3.90132
G1 X42.023 Y90.691 E3.91426
G1 X42.298 Y90.966 E3.9272
G1 X42.61 Y91.198 E3.94013
G1 X42.951 Y91.38 E3.95299
G1 X43.28 Y91.497 E3.9646
G1 X43.546 Y91.598 E3.97406
G1 X43.957 Y91.597 E3.98773
G1 X44.35 Y91.456 E4.00162
G1 X44.691 Y91.313 E4.01392
G0 F6000 X44.507 Y90.956
;TYPE:WALL-OUTER
G1 F1200 X44.787 Y90.783 E4.02487
G1 X45.038 Y90.572 E4.03577
G1 X45.257 Y90.325 E4.04675
G1 X45.434 Y90.048 E4.05768
G1 X45.569 Y89.749 E4.0686
G1 X45.656 Y89.433 E4.0795
G1 X45.698 Y89.107 E4.09043
G1 X45.689 Y88.781 E4.10128
G1 X45.632 Y88.458 E4.11219
G1 X45.527 Y88.145 E4.12317
G1 X45.378 Y87.854 E4.13404
G1 X45.186 Y87.587 E4.14498
G1 X44.957 Y87.351 E4.15592
G1 X44.695 Y87.152 E4.16686
G1 X44.407 Y86.995 E4.17777
G1 X44.098 Y86.883 E4.1887
G1 X43.883 Y86.803 E4.19633
G1 X43.617 Y86.802 E4.20518
G1 X43.298 Y86.916 E4.21644
G1 X42.996 Y87.043 E4.22734
G1 X42.698 Y87.227 E4.23899
G1 X42.464 Y87.426 E4.24921
G1 X42.245 Y87.672 E4.26016
G1 X42.067 Y87.949 E4.27111
G1 X41.932 Y88.248 E4.28202
G1 X41.844 Y88.564 E4.29293
G1 X41.802 Y88.891 E4.3039
G1 X41.811 Y89.219 E4.31481
G1 X41.868 Y89.543 E4.32575
G1 X41.973 Y89.856 E4.33673
G1 X42.134 Y90.165 E4.34832
G1 X42.328 Y90.43 E4.35925
G1 X42.56 Y90.663 E4.37018
G1 X42.824 Y90.859 E4.38112
G1 X43.113 Y91.013 E4.39201
G1 X43.422 Y91.123 E4.40292
G1 X43.619 Y91.198 E4.40993
G1 X43.887 Y91.197 E4.41884
G1 X44.205 Y91.083 E4.43008
G1 X44.507 Y90.956 E4.44098
G0 F6000 X44.708 Y91.347
G1 F1500 E-2.05902
G0 F6000 X45.466 Y90.388
G0 X46.677 Y88.682
G0 X44.824 Y88.82
G0 X57.49 Y76.779
G0 X57.272 Y78.627
G0 X59.275 Y78.294
;TYPE:WALL-INNER
G1 F1500 E4.44098
G1 F1200 X59.646 Y78.147 E4.45425
G1 X60 Y77.965 E4.46749
G1 X60.335 Y77.749 E4.48075
G1 X60.647 Y77.502 E4.49398
G1 X60.934 Y77.221 E4.50734
G1 X61.188 Y76.916 E4.52054
G1 X61.413 Y76.588 E4.53377
G1 X61.606 Y76.236 E4.54712
G1 X61.761 Y75.867 E4.56043
G1 X61.877 Y75.486 E4.57368
G1 X61.956 Y75.097 E4.58688
G1 X61.996 Y74.7 E4.60015
G1 X61.996 Y74.3 E4.61346
G1 X61.956 Y73.903 E4.62673
G1 X61.877 Y73.514 E4.63993
G1 X61.761 Y73.133 E4.65318
G1 X61.606 Y72.764 E4.66649
G1 X61.412 Y72.41 E4.67992
G1 X61.166 Y72.056 E4.69425
G1 X60.909 Y71.754 E4.70744
G1 X60.644 Y71.498 E4.7197
G1 X60.305 Y71.23 E4.73407
G1 X59.969 Y71.018 E4.74729
G1 X59.643 Y70.851 E4.75947
G1 X59.24 Y70.695 E4.77384
G1 X58.851 Y70.591 E4.78723
G1 X58.458 Y70.525 E4.80049
G1 X58.08 Y70.503 E4.81308
G1 X58.062 Y70.501 E4.81368
G1 X57.699 Y70.511 E4.82576
G1 X57.306 Y70.561 E4.83894
G1 X56.917 Y70.647 E4.85219
G1 X56.535 Y70.777 E4.86561
G1 X56.145 Y70.955 E4.87987
G1 X55.827 Y71.14 E4.89211
G1 X55.505 Y71.373 E4.90533
G1 X55.206 Y71.635 E4.91855
G1 X54.934 Y71.93 E4.93189
G1 X54.694 Y72.245 E4.94506
G1 X54.485 Y72.587 E4.9584
G1 X54.322 Y72.931 E4.97106
G1 X54.313 Y72.948 E4.9717
G1 X54.176 Y73.323 E4.98498
G1 X54.071 Y73.742 E4.99934
G1 X54.018 Y74.103 E5.01148
G1 X53.998 Y74.5 E5.0247
G1 X54.018 Y74.899 E5.03799
G1 X54.077 Y75.291 E5.05117
G1 X54.176 Y75.68 E5.06452
G1 X54.314 Y76.057 E5.07787
G1 X54.503 Y76.444 E5.0922
G1 X54.696 Y76.755 E5.10437
G1 X54.934 Y77.071 E5.11753
G1 X55.208 Y77.365 E5.1309
G1 X55.505 Y77.627 E5.14407
G1 X55.827 Y77.86 E5.15729
G1 X56.173 Y78.06 E5.17058
G1 X56.539 Y78.225 E5.18393
G1 X56.917 Y78.353 E5.19721
G1 X57.305 Y78.439 E5.21043
G1 X57.701 Y78.49 E5.22371
G1 X58.102 Y78.499 E5.23705
G1 X58.497 Y78.469 E5.25022
G1 X58.889 Y78.402 E5.26345
G1 X59.275 Y78.294 E5.27678
G0 F6000 X59.147 Y77.914
G1 F1200 X59.481 Y77.782 E5.28873
G1 X59.8 Y77.618 E5.30066
G1 X60.102 Y77.423 E5.31261
G1 X60.382 Y77.201 E5.3245
G1 X60.64 Y76.949 E5.33649
G1 X60.869 Y76.674 E5.3484
G1 X61.072 Y76.378 E5.36033
G1 X61.245 Y76.062 E5.37232
G1 X61.384 Y75.731 E5.38426
G1 X61.489 Y75.388 E5.39619
G1 X61.56 Y75.037 E5.4081
G1 X61.596 Y74.68 E5.42003
G1 X61.596 Y74.32 E5.43201
G1 X61.56 Y73.963 E5.44394
G1 X61.489 Y73.612 E5.45585
G1 X61.384 Y73.269 E5.46778
G1 X61.245 Y72.938 E5.47972
G1 X61.071 Y72.621 E5.49175
G1 X60.849 Y72.3 E5.50473
G1 X60.617 Y72.028 E5.51662
G1 X60.38 Y71.799 E5.52758
G1 X60.074 Y71.557 E5.54056
G1 X59.771 Y71.366 E5.55247
G1 X59.479 Y71.217 E5.56337
G1 X59.115 Y71.076 E5.57636
G1 X58.766 Y70.982 E5.58838
G1 X58.413 Y70.923 E5.60028
G1 X58.055 Y70.901 E5.61221
G1 X57.73 Y70.91 E5.62302
G1 X57.375 Y70.955 E5.63493
G1 X57.025 Y71.033 E5.64685
G1 X56.683 Y71.149 E5.65886
G1 X56.329 Y71.311 E5.67181
G1 X56.045 Y71.476 E5.68274
G1 X55.755 Y71.686 E5.69465
G1 X55.486 Y71.922 E5.70655
G1 X55.241 Y72.187 E5.71855
G1 X55.025 Y72.471 E5.73042
G1 X54.837 Y72.778 E5.74239
G1 X54.682 Y73.103 E5.75437
G1 X54.559 Y73.44 E5.7663
G1 X54.464 Y73.82 E5.77933
G1 X54.417 Y74.142 E5.79015
G1 X54.399 Y74.5 E5.80207
G1 X54.417 Y74.859 E5.81403
G1 X54.47 Y75.212 E5.8259
G1 X54.559 Y75.562 E5.83791
G1 X54.683 Y75.9 E5.84989
G1 X54.854 Y76.251 E5.86287
G1 X55.026 Y76.529 E5.87375
G1 X55.241 Y76.814 E5.88562
G1 X55.487 Y77.078 E5.89762
G1 X55.755 Y77.314 E5.9095
G1 X56.045 Y77.524 E5.92141
G1 X56.356 Y77.704 E5.93336
G1 X56.685 Y77.852 E5.94536
G1 X57.025 Y77.967 E5.9573
G1 X57.374 Y78.045 E5.96919
G1 X57.731 Y78.091 E5.98116
G1 X58.091 Y78.099 E5.99314
G1 X58.448 Y78.072 E6.00505
G1 X58.801 Y78.011 E6.01696
G1 X59.147 Y77.914 E6.02891
G0 F6000 X59.019 Y77.534
;TYPE:WALL-OUTER
G1 F1200 X59.316 Y77.417 E6.03953
G1 X59.6 Y77.271 E6.05015
G1 X59.868 Y77.098 E6.06076
G1 X60.117 Y76.9 E6.07134
G1 X60.346 Y76.677 E6.08197
G1 X60.55 Y76.432 E6.09258
G1 X60.731 Y76.168 E6.10322
G1 X60.884 Y75.888 E6.11384
