;FLAVOR:Marlin
;TIME:7548
;Filament used: 3.68899m
;Layer height: 0.12
;MINX:81.5
;MINY:41.5
;MINZ:0.2
;MAXX:138.5
;MAXY:178.5
;MAXZ:14.64
;Generated with Cura_SteamEngine 4.9.0
M140 S60
M105
M190 S60
M104 S200
M105
M109 S200
M82 ;absolute extrusion mode
; Ender 3 Custom Start G-code
G92 E0 ; Reset Extruder
G28G29 ; Home all axes and set bed height
G1 Z2.0 F3000 ; Move Z Axis up little to prevent scratching of Heat Bed
G1 X0.1 Y20 Z0.3 F5000.0 ; Move to start position
G1 X0.1 Y200.0 Z0.3 F1500.0 E15 ; Draw the first line
G1 X0.4 Y200.0 Z0.3 F5000.0 ; Move to side a little
G1 X0.4 Y20 Z0.3 F1500.0 E30 ; Draw the second line
G92 E0 ; Reset Extruder
G1 Z2.0 F3000 ; Move Z Axis up little to prevent scratching of Heat Bed
G1 X5 Y20 Z0.3 F5000.0 ; Move over to prevent blob squish
G92 E0
G92 E0
G1 F1500 E-6.5
;LAYER_COUNT:99
;LAYER:0
M107
G0 F6000 X83.325 Y48.613 Z0.2
;TYPE:SKIRT
G1 F1500 E0
G1 F1200 X83.914 Y47.663 E0.03718
G1 X84.083 Y47.419 E0.04705
G1 X84.536 Y46.81 E0.07229
G1 X84.628 Y46.695 E0.07719
G1 X85.428 Y45.8 E0.11712
G1 X85.762 Y45.465 E0.13285
G1 X86.702 Y44.625 E0.17478
G1 X86.893 Y44.473 E0.1829
G1 X87.76 Y43.849 E0.21843
G1 X88.03 Y43.674 E0.22913
G1 X88.981 Y43.123 E0.26569
G1 X89.224 Y42.998 E0.27478
G1 X90.195 Y42.557 E0.31025
G1 X90.482 Y42.443 E0.32052
G1 X91.469 Y42.104 E0.35523
G1 X91.658 Y42.049 E0.36177
G1 X92.611 Y41.817 E0.3944
G1 X93.013 Y41.738 E0.40802
G1 X94.231 Y41.569 E0.44892
G1 X94.724 Y41.536 E0.46536
G1 X95.057 Y41.521 E0.47644
G1 X95.389 Y41.511 E0.48749
G1 X96.227 Y41.5 E0.51536
G1 X123.802 Y41.5 E1.43251
G1 X124.407 Y41.507 E1.45264
G1 X124.8 Y41.519 E1.46571
G1 X125.394 Y41.548 E1.48549
G1 X126.328 Y41.634 E1.51669
G1 X127.007 Y41.747 E1.53958
G1 X127.494 Y41.844 E1.5561
G1 X128.748 Y42.172 E1.59921
G1 X128.957 Y42.24 E1.60652
G1 X129.987 Y42.633 E1.64319
G1 X130.255 Y42.751 E1.65293
G1 X131.135 Y43.186 E1.68558
G1 X131.387 Y43.325 E1.69515
G1 X132.317 Y43.9 E1.73152
G1 X132.552 Y44.062 E1.74101
G1 X133.164 Y44.516 E1.76635
G1 X133.287 Y44.614 E1.77158
G1 X134.199 Y45.427 E1.81222
G1 X134.535 Y45.762 E1.828
G1 X135.38 Y46.708 E1.87019
G1 X135.531 Y46.898 E1.87826
G1 X136.144 Y47.751 E1.9132
G1 X136.32 Y48.022 E1.92395
G1 X136.86 Y48.948 E1.9596
G1 X136.985 Y49.189 E1.96863
G1 X137.45 Y50.212 E2.00601
G1 X137.563 Y50.498 E2.01623
G1 X137.878 Y51.409 E2.04829
G1 X137.935 Y51.601 E2.05495
G1 X138.185 Y52.619 E2.08982
G1 X138.259 Y52.997 E2.10263
G1 X138.4 Y53.924 E2.13382
G1 X138.451 Y54.583 E2.1558
G1 X138.481 Y55.209 E2.17665
G1 X138.493 Y55.582 E2.18906
G1 X138.5 Y56.165 E2.20845
G1 X138.499 Y63.945 E2.46721
G1 X138.493 Y64.407 E2.48258
G1 X138.481 Y64.8 E2.49566
G1 X138.452 Y65.394 E2.51544
G1 X138.366 Y66.328 E2.54664
G1 X138.253 Y67.007 E2.56953
G1 X138.156 Y67.494 E2.58605
G1 X137.828 Y68.748 E2.62916
G1 X137.76 Y68.957 E2.63647
G1 X137.463 Y69.762 E2.66501
G1 X137.41 Y69.89 E2.66961
G1 X137.236 Y70.289 E2.68409
G1 X137.072 Y70.643 E2.69707
G1 X135.928 Y73.063 E2.7861
G1 X134.919 Y75.36 E2.86954
G1 X133.956 Y77.731 E2.95466
G1 X133.089 Y80.057 E3.03722
G1 X132.277 Y82.434 E3.12077
G1 X131.532 Y84.836 E3.20441
G1 X130.845 Y87.296 E3.28936
G1 X130.243 Y89.713 E3.37221
G1 X129.697 Y92.192 E3.45664
G1 X129.24 Y94.616 E3.53868
G1 X128.831 Y97.159 E3.62435
G1 X128.507 Y99.617 E3.70681
G1 X128.25 Y102.111 E3.7902
G1 X128.06 Y104.66 E3.87521
G1 X127.944 Y107.155 E3.95829
G1 X127.9 Y109.675 E4.04211
G1 X127.925 Y112.168 E4.12504
G1 X128.023 Y114.713 E4.20975
G1 X128.192 Y117.212 E4.29305
G1 X128.432 Y119.728 E4.37711
G1 X128.741 Y122.219 E4.4606
G1 X129.117 Y124.676 E4.54327
G1 X129.578 Y127.209 E4.6289
G1 X130.088 Y129.621 E4.7109
G1 X130.678 Y132.073 E4.79478
G1 X131.342 Y134.521 E4.87915
G1 X132.07 Y136.93 E4.96285
G1 X132.867 Y139.323 E5.04674
G1 X133.731 Y141.69 E5.13054
G1 X134.657 Y144.024 E5.21406
G1 X135.649 Y146.326 E5.29743
G1 X136.889 Y148.986 E5.39504
G1 X137.11 Y149.44 E5.41184
G1 X137.446 Y150.201 E5.43951
G1 X137.559 Y150.486 E5.4497
G1 X137.878 Y151.409 E5.48218
G1 X137.935 Y151.601 E5.48885
G1 X138.186 Y152.622 E5.52382
G1 X138.263 Y153.016 E5.53717
G1 X138.425 Y154.167 E5.57583
G1 X138.462 Y154.695 E5.59343
G1 X138.478 Y155.039 E5.60489
G1 X138.489 Y155.388 E5.6165
G1 X138.5 Y156.227 E5.64441
G1 X138.499 Y163.94 E5.90094
G1 X138.493 Y164.405 E5.91641
G1 X138.481 Y164.791 E5.92925
G1 X138.451 Y165.415 E5.95003
G1 X138.366 Y166.349 E5.98123
G1 X138.241 Y167.093 E6.00632
G1 X138.154 Y167.518 E6.02075
G1 X137.845 Y168.69 E6.06106
G1 X137.764 Y168.941 E6.06983
G1 X137.384 Y169.949 E6.10566
G1 X137.274 Y170.202 E6.11484
G1 X136.785 Y171.188 E6.15144
G1 X136.635 Y171.456 E6.16166
G1 X136.084 Y172.339 E6.19628
G1 X135.925 Y172.569 E6.20558
G1 X135.503 Y173.14 E6.22919
G1 X135.412 Y173.255 E6.23407
G1 X134.564 Y174.207 E6.27647
G1 X134.213 Y174.558 E6.29298
G1 X133.229 Y175.431 E6.33673
G1 X133.052 Y175.57 E6.34422
G1 X132.465 Y176.001 E6.36844
G1 X132.326 Y176.096 E6.37404
G1 X131.681 Y176.504 E6.39943
G1 X131.437 Y176.647 E6.40883
G1 X130.403 Y177.182 E6.44755
G1 X130.144 Y177.299 E6.45701
G1 X129.212 Y177.67 E6.49037
G1 X128.946 Y177.762 E6.49973
G1 X128.047 Y178.03 E6.53093
G1 X127.52 Y178.15 E6.54891
G1 X127.028 Y178.249 E6.5656
G1 X126.101 Y178.394 E6.59681
G1 X125.394 Y178.452 E6.6204
G1 X124.8 Y178.481 E6.64018
G1 X124.407 Y178.493 E6.65326
G1 X123.802 Y178.5 E6.67338
G1 X96.055 Y178.499 E7.59625
G1 X95.593 Y178.493 E7.61162
G1 X95.199 Y178.481 E7.62473
G1 X94.585 Y178.451 E7.64518
G1 X93.651 Y178.365 E7.67637
G1 X92.96 Y178.249 E7.69968
G1 X92.521 Y178.161 E7.71457
G1 X91.324 Y177.851 E7.7557
G1 X91.087 Y177.775 E7.76397
G1 X90.039 Y177.379 E7.80124
G1 X89.776 Y177.264 E7.81078
G1 X88.811 Y176.784 E7.84663
G1 X88.543 Y176.634 E7.85684
G1 X87.676 Y176.095 E7.8908
G1 X87.448 Y175.938 E7.90001
G1 X86.806 Y175.46 E7.92663
G1 X86.69 Y175.367 E7.93157
G1 X85.782 Y174.553 E7.97213
G1 X85.417 Y174.187 E7.98932
G1 X84.517 Y173.165 E8.03462
G1 X84.392 Y173.004 E8.0414
G1 X83.883 Y172.292 E8.07051
G1 X83.719 Y172.042 E8.08045
G1 X83.161 Y171.089 E8.11718
G1 X83.023 Y170.824 E8.12712
G1 X82.641 Y170.012 E8.15697
G1 X82.577 Y169.86 E8.16245
G1 X82.161 Y168.692 E8.20369
G1 X82.027 Y168.236 E8.2195
G1 X81.801 Y167.326 E8.25068
G1 X81.708 Y166.8 E8.26845
G1 X81.676 Y166.591 E8.27548
G1 X81.597 Y165.952 E8.2969
G1 X81.557 Y165.525 E8.31116
G1 X81.51 Y164.64 E8.34064
G1 X81.5 Y163.798 E8.36865
G1 X81.501 Y156.011 E8.62764
G1 X81.507 Y155.583 E8.64188
G1 X81.519 Y155.202 E8.65456
G1 X81.548 Y154.607 E8.67437
G1 X81.634 Y153.673 E8.70557
G1 X81.747 Y152.993 E8.72849
G1 X81.844 Y152.506 E8.74501
G1 X82.172 Y151.252 E8.78812
G1 X82.24 Y151.043 E8.79543
G1 X82.537 Y150.238 E8.82397
G1 X82.59 Y150.11 E8.82858
G1 X82.77 Y149.698 E8.84353
G1 X82.984 Y149.238 E8.86041
G1 X84.073 Y146.936 E8.94511
G1 X85.083 Y144.637 E9.02862
G1 X86.038 Y142.287 E9.11299
G1 X86.915 Y139.934 E9.19651
G1 X87.718 Y137.58 E9.27924
G1 X88.469 Y135.157 E9.36361
G1 X89.153 Y132.712 E9.44805
G1 X89.754 Y130.297 E9.53083
G1 X90.305 Y127.792 E9.61613
G1 X90.763 Y125.371 E9.69809
G1 X91.165 Y122.866 E9.78247
G1 X91.492 Y120.386 E9.86567
G1 X91.75 Y117.886 E9.94926
G1 X91.939 Y115.342 E10.03411
G1 X92.055 Y112.844 E10.11728
G1 X92.099 Y110.326 E10.20104
G1 X92.074 Y107.841 E10.2837
G1 X91.974 Y105.273 E10.36917
G1 X91.808 Y102.796 E10.45174
G1 X91.567 Y100.269 E10.53617
G1 X91.259 Y97.784 E10.61946
G1 X90.881 Y95.317 E10.70247
G1 X90.425 Y92.812 E10.78715
G1 X89.907 Y90.366 E10.87031
G1 X89.315 Y87.903 E10.95457
G1 X88.658 Y85.487 E11.03784
G1 X87.931 Y83.074 E11.12166
G1 X87.129 Y80.669 E11.20598
G1 X86.269 Y78.313 E11.2894
G1 X85.344 Y75.985 E11.37272
G1 X84.353 Y73.683 E11.45608
G1 X83.226 Y71.257 E11.54505
G1 X82.872 Y70.523 E11.57215
G1 X82.551 Y69.79 E11.59877
G1 X82.439 Y69.507 E11.60889
G1 X82.156 Y68.701 E11.6373
G1 X82.123 Y68.594 E11.64102
G1 X81.848 Y67.513 E11.67812
G1 X81.749 Y67.019 E11.69488
G1 X81.605 Y66.093 E11.72605
G1 X81.548 Y65.394 E11.74938
G1 X81.519 Y64.8 E11.76916
G1 X81.507 Y64.407 E11.78223
G1 X81.5 Y63.802 E11.80236
G1 X81.501 Y56.011 E12.06149
G1 X81.507 Y55.582 E12.07576
G1 X81.519 Y55.2 E12.08847
G1 X81.548 Y54.606 E12.10825
G1 X81.634 Y53.672 E12.13944
G1 X81.75 Y52.976 E12.16291
G1 X81.848 Y52.488 E12.17947
G1 X82.163 Y51.281 E12.22096
G1 X82.23 Y51.073 E12.22823
G1 X82.633 Y50.013 E12.26594
G1 X82.751 Y49.745 E12.27568
G1 X83.186 Y48.865 E12.30833
G1 X83.325 Y48.613 E12.3179
G0 F6000 X83.675 Y48.806
G1 F1200 X84.243 Y47.891 E12.35372
G1 X84.412 Y47.647 E12.3636
G1 X84.849 Y47.06 E12.38794
G1 X84.941 Y46.945 E12.39284
G1 X85.711 Y46.083 E12.43128
G1 X86.045 Y45.748 E12.44701
G1 X86.951 Y44.938 E12.48743
G1 X87.142 Y44.786 E12.49555
G1 X87.978 Y44.185 E12.5298
G1 X88.248 Y44.01 E12.5405
G1 X89.164 Y43.479 E12.57571
G1 X89.407 Y43.354 E12.5848
G1 X90.343 Y42.929 E12.61899
G1 X90.63 Y42.815 E12.62926
G1 X91.581 Y42.488 E12.66271
G1 X91.77 Y42.433 E12.66926
G1 X92.688 Y42.21 E12.70068
G1 X93.09 Y42.131 E12.71431
G1 X94.264 Y41.968 E12.75373
G1 X94.742 Y41.936 E12.76966
G1 X95.075 Y41.921 E12.78075
G1 X95.395 Y41.911 E12.7914
G1 X96.227 Y41.9 E12.81907
G1 X123.802 Y41.9 E13.73622
G1 X124.402 Y41.907 E13.75618
G1 X124.781 Y41.919 E13.76879
G1 X125.375 Y41.948 E13.78857
G1 X126.292 Y42.032 E13.8192
G1 X126.929 Y42.139 E13.84068
G1 X127.416 Y42.236 E13.8572
G1 X128.625 Y42.552 E13.89876
G1 X128.834 Y42.62 E13.90607
G1 X129.825 Y42.999 E13.94136
G1 X130.093 Y43.117 E13.9511
G1 X130.942 Y43.536 E13.98259
G1 X131.194 Y43.675 E13.99216
G1 X132.09 Y44.23 E14.02721
G1 X132.325 Y44.392 E14.03671
G1 X132.914 Y44.829 E14.0611
G1 X133.037 Y44.927 E14.06633
G1 X133.916 Y45.711 E14.10551
G1 X134.252 Y46.046 E14.12129
G1 X135.066 Y46.957 E14.16192
G1 X135.217 Y47.147 E14.16999
G1 X135.809 Y47.969 E14.20368
G1 X135.985 Y48.24 E14.21443
G1 X136.505 Y49.132 E14.24877
G1 X136.63 Y49.373 E14.2578
G1 X137.078 Y50.359 E14.29382
G1 X137.191 Y50.645 E14.30405
G1 X137.495 Y51.523 E14.33496
G1 X137.552 Y51.715 E14.34162
G1 X137.793 Y52.696 E14.37521
G1 X137.867 Y53.074 E14.38803
G1 X138.004 Y53.984 E14.41863
G1 X138.052 Y54.603 E14.43928
G1 X138.082 Y55.229 E14.46013
G1 X138.093 Y55.588 E14.47207
G1 X138.1 Y56.165 E14.49127
G1 X138.099 Y63.94 E14.74986
G1 X138.093 Y64.402 E14.76523
G1 X138.081 Y64.781 E14.77784
G1 X138.052 Y65.375 E14.79762
G1 X137.968 Y66.292 E14.82825
G1 X137.861 Y66.929 E14.84973
G1 X137.764 Y67.416 E14.86625
G1 X137.448 Y68.625 E14.90781
G1 X137.38 Y68.834 E14.91512
G1 X137.094 Y69.609 E14.9426
G1 X137.041 Y69.737 E14.94721
G1 X136.872 Y70.122 E14.96119
G1 X136.71 Y70.472 E14.97402
G1 X135.571 Y72.88 E15.06262
G1 X134.54 Y75.228 E15.14791
G1 X133.586 Y77.577 E15.23223
G1 X132.711 Y79.925 E15.31558
G1 X131.9 Y82.302 E15.39911
G1 X131.141 Y84.747 E15.48426
G1 X130.469 Y87.154 E15.56738
G1 X129.856 Y89.61 E15.65157
G1 X129.302 Y92.129 E15.73735
G1 X128.844 Y94.556 E15.8195
G1 X128.439 Y97.079 E15.90449
G1 X128.107 Y99.59 E15.98873
G1 X127.851 Y102.076 E16.07186
G1 X127.662 Y104.61 E16.15637
G1 X127.544 Y107.166 E16.24147
G1 X127.5 Y109.672 E16.32484
G1 X127.525 Y112.187 E16.40849
G1 X127.623 Y114.721 E16.49284
G1 X127.793 Y117.24 E16.57681
G1 X128.035 Y119.778 E16.66161
G1 X128.343 Y122.262 E16.74486
G1 X128.727 Y124.772 E16.82931
G1 X129.179 Y127.256 E16.91329
G1 X129.702 Y129.727 E16.99729
G1 X130.292 Y132.178 E17.08114
G1 X130.959 Y134.636 E17.16585
G1 X131.69 Y137.057 E17.24996
G1 X132.488 Y139.45 E17.33386
G1 X133.348 Y141.808 E17.41735
G1 X134.29 Y144.181 E17.50226
G1 X135.283 Y146.488 E17.5858
G1 X136.525 Y149.151 E17.68353
G1 X136.751 Y149.615 E17.7007
G1 X137.074 Y150.348 E17.72734
G1 X137.187 Y150.633 E17.73754
G1 X137.495 Y151.523 E17.76886
G1 X137.552 Y151.715 E17.77552
G1 X137.793 Y152.699 E17.80922
G1 X137.87 Y153.093 E17.82257
G1 X138.027 Y154.202 E17.85982
G1 X138.063 Y154.714 E17.87689
G1 X138.079 Y155.058 E17.88835
G1 X138.089 Y155.393 E17.89949
G1 X138.1 Y156.227 E17.92724
G1 X138.099 Y163.935 E18.1836
G1 X138.093 Y164.4 E18.19907
G1 X138.082 Y164.772 E18.21145
G1 X138.052 Y165.396 E18.23223
G1 X137.968 Y166.313 E18.26286
G1 X137.849 Y167.013 E18.28647
G1 X137.762 Y167.438 E18.3009
G1 X137.465 Y168.567 E18.33973
G1 X137.384 Y168.818 E18.3485
G1 X137.017 Y169.789 E18.38303
G1 X136.907 Y170.042 E18.3922
G1 X136.436 Y170.993 E18.4275
G1 X136.286 Y171.261 E18.43771
G1 X135.755 Y172.112 E18.47108
G1 X135.596 Y172.342 E18.48038
G1 X135.189 Y172.892 E18.50313
G1 X135.098 Y173.007 E18.50801
G1 X134.281 Y173.924 E18.54886
G1 X133.93 Y174.275 E18.56537
G1 X132.982 Y175.117 E18.60754
G1 X132.805 Y175.256 E18.61503
G1 X132.239 Y175.67 E18.63835
G1 X132.1 Y175.765 E18.64395
G1 X131.479 Y176.159 E18.66841
G1 X131.235 Y176.302 E18.67782
G1 X130.239 Y176.817 E18.71511
G1 X129.98 Y176.934 E18.72456
G1 X129.081 Y177.292 E18.75675
G1 X128.815 Y177.384 E18.76611
G1 X127.932 Y177.647 E18.79675
G1 X127.441 Y177.758 E18.8135
G1 X126.949 Y177.857 E18.83019
G1 X126.039 Y177.999 E18.86082
G1 X125.375 Y178.052 E18.88298
G1 X124.781 Y178.081 E18.90276
G1 X124.402 Y178.093 E18.91537
G1 X123.802 Y178.1 E18.93533
G1 X96.06 Y178.099 E19.85803
G1 X95.598 Y178.093 E19.8734
G1 X95.219 Y178.081 E19.88601
G1 X94.605 Y178.051 E19.90645
G1 X93.688 Y177.967 E19.93708
G1 X93.039 Y177.857 E19.95898
G1 X92.6 Y177.769 E19.97387
G1 X91.446 Y177.47 E20.01352
G1 X91.209 Y177.394 E20.02179
G1 X90.199 Y177.012 E20.05771
G1 X89.936 Y176.897 E20.06726
G1 X89.006 Y176.435 E20.1018
G1 X88.738 Y176.285 E20.11201
G1 X87.903 Y175.765 E20.14473
G1 X87.675 Y175.608 E20.15393
G1 X87.057 Y175.148 E20.17956
G1 X86.941 Y175.055 E20.1845
G1 X86.065 Y174.27 E20.22363
G1 X85.7 Y173.904 E20.24082
G1 X84.833 Y172.92 E20.28444
G1 X84.708 Y172.759 E20.29122
G1 X84.218 Y172.072 E20.31928
G1 X84.054 Y171.822 E20.32923
G1 X83.515 Y170.904 E20.36463
G1 X83.377 Y170.639 E20.37457
G1 X83.01 Y169.856 E20.40333
G1 X82.946 Y169.704 E20.40882
G1 X82.545 Y168.58 E20.44851
G1 X82.411 Y168.124 E20.46432
G1 X82.19 Y167.23 E20.49495
G1 X82.103 Y166.739 E20.51153
G1 X82.071 Y166.53 E20.51857
G1 X81.995 Y165.915 E20.53918
G1 X81.955 Y165.488 E20.55344
G1 X81.91 Y164.635 E20.58185
G1 X81.9 Y163.798 E20.60969
G1 X81.901 Y156.016 E20.86852
G1 X81.907 Y155.588 E20.88276
G1 X81.919 Y155.221 E20.89497
G1 X81.948 Y154.626 E20.91479
G1 X82.032 Y153.709 E20.94541
G1 X82.139 Y153.071 E20.96693
G1 X82.236 Y152.584 E20.98344
G1 X82.552 Y151.375 E21.02501
G1 X82.62 Y151.166 E21.03232
G1 X82.906 Y150.391 E21.05979
G1 X82.959 Y150.263 E21.0644
G1 X83.133 Y149.866 E21.07882
G1 X83.345 Y149.409 E21.09557
G1 X84.436 Y147.102 E21.18045
G1 X85.448 Y144.799 E21.26412
G1 X86.423 Y142.4 E21.35025
G1 X87.281 Y140.098 E21.43196
G1 X88.102 Y137.691 E21.51654
G1 X88.86 Y135.245 E21.60172
G1 X89.534 Y132.835 E21.68495
G1 X90.147 Y130.374 E21.7693
G1 X90.694 Y127.887 E21.854
G1 X91.159 Y125.431 E21.93714
G1 X91.557 Y122.946 E22.02084
G1 X91.891 Y120.413 E22.10582
G1 X92.148 Y117.921 E22.18914
G1 X92.337 Y115.39 E22.27356
G1 X92.455 Y112.835 E22.35863
G1 X92.499 Y110.329 E22.44199
G1 X92.474 Y107.82 E22.52544
G1 X92.374 Y105.266 E22.61046
G1 X92.207 Y102.767 E22.69376
G1 X91.963 Y100.218 E22.77893
G1 X91.657 Y97.746 E22.86177
G1 X91.27 Y95.216 E22.9469
G1 X90.823 Y92.763 E23.02983
G1 X90.293 Y90.26 E23.11493
G1 X89.704 Y87.809 E23.19877
G1 X89.044 Y85.382 E23.28242
G1 X88.307 Y82.938 E23.36732
G1 X87.519 Y80.574 E23.4502
G1 X86.645 Y78.177 E23.53506
G1 X85.706 Y75.816 E23.61957
G1 X84.712 Y73.506 E23.70322
G1 X83.566 Y71.04 E23.79366
G1 X83.233 Y70.349 E23.81917
G1 X82.923 Y69.643 E23.84482
G1 X82.811 Y69.36 E23.85494
G1 X82.538 Y68.583 E23.88233
G1 X82.505 Y68.476 E23.88606
G1 X82.241 Y67.435 E23.92178
G1 X82.142 Y66.941 E23.93853
G1 X82 Y66.031 E23.96917
G1 X81.948 Y65.375 E23.99105
G1 X81.919 Y64.781 E24.01083
G1 X81.907 Y64.402 E24.02345
G1 X81.9 Y63.802 E24.0434
G1 X81.901 Y56.017 E24.30233
G1 X81.907 Y55.588 E24.3166
G1 X81.919 Y55.219 E24.32888
G1 X81.948 Y54.625 E24.34866
G1 X82.032 Y53.708 E24.37929
G1 X82.142 Y53.055 E24.40131
G1 X82.24 Y52.567 E24.41787
G1 X82.544 Y51.404 E24.45785
G1 X82.611 Y51.196 E24.46512
G1 X82.999 Y50.175 E24.50145
